;Sliced by ideaMaker 5.3.2.8640, 2026-02-02 15:42:27 UTC+0100
;Slicer Version: 5.3.0.8620
;Dimension: 250.000 250.000 250.000 0.400
;Plate Shape: 0
;Origin Center: 0
;Extruder Offset #1: 25.000 0.000
;Filament Diameter #1: 1.750
;Filament Diameter #2: 1.750
;Filament Compensation #1: 94.000
;Filament Compensation #2: 90.000
;Filament Density #1: 1240.000
;Filament Density #2: 1240.000
;Filament Type #1: PLA
;Filament Type #2: PLA
;Filament Name #1: [Raise3D] Premium PLA 1.75mm
;Filament Name #2: [Raise3D] Premium PLA 1.75mm
;Filament #1: PLA 1.75mm
;Filament #2: PLA 1.75mm
;Printer Type: floppy
;Firmware: Klipper
;Bounding Box: 78.073 171.927 110.216 136.273 0.000 19.050
;Model Gap: 0.000
M221 T0 S94.00
M140 S48.00
M104 T0 S195.00
M109 T0 S195.00
T0
M190 S48.00
G21 ;metric values
G90 ;absolute positioning
M82 ;set extruder to absolute mode
M107 ;start with the fan off
G28 X0 Y0 ;move X/Y to min endstops
G28 Z0 ;move Z to min endstops
G1 Z15.0 F9000 ;move the platform down 15mm

G92 E0 ;zero the extruded length

G0 X43 Y27 F2000  ;go to the edge of the bed
G92 X0 Y0 E0 ;set zero to edge of the bed
G0 F9000 Z1 ;Z up with 1mm
G1 F200 Z0 ;Z home slowly

G1 Z15.0 F9000 ;move the platform down 15mm

G1 F9000 ;speed setting
G92 E-3 ;retraction
M117 Printing...
M1001
;TOTAL_NUM: 2
;PRINTING_TIME: 0
;REMAINING_TIME: 5368
;LAYER:0
;Z:0.150
;HEIGHT:0.150
;PRINTING: Wago221_Hutschiene_part1.3mf
;PRINTING_ID: 1
G1 F2400 E-5.0000
SET_VELOCITY_LIMIT ACCEL=500.00
SET_VELOCITY_LIMIT SQUARE_CORNER_VELOCITY=5.00
G0 F3900 X92.653 Y121.400
G0 F300 Z0.150
;TYPE:WALL-OUTER
;WIDTH:0.420
G1 F1500 E0.0000
G1 F2400 X79.789 Y134.538 E0.4816
G1 X80.313 Y135.262 E0.5050
G1 X79.930 Y135.815 E0.5226
G1 X79.573 Y136.027 E0.5335
G1 X79.187 Y136.030 E0.5436
G1 X78.568 Y135.523 E0.5646
G1 X78.294 Y134.378 E0.5954
G1 X78.809 Y133.281 E0.6272
G1 X91.355 Y120.468 E1.0968
G1 X92.315 Y119.947 E1.1255
G1 X97.395 Y119.904 E1.2585
G1 X97.700 Y119.695 E1.2682
G1 X97.863 Y119.267 E1.2802
G1 X97.912 Y115.344 E1.3830
G1 X98.545 Y114.336 E1.4141
G1 X99.688 Y113.937 E1.4458
G1 X110.812 Y114.031 E1.7372
G1 X111.115 Y114.288 E1.7476
G1 X111.951 Y115.796 E1.7928
G1 X112.024 Y116.296 E1.8060
G1 X111.752 Y116.711 E1.8190
G1 X108.943 Y118.357 E1.9043
G1 X108.943 Y119.898 E1.9447
G1 X144.513 Y119.875 E2.8763
G1 X144.863 Y119.285 E2.8943
G1 X144.863 Y114.284 E3.0253
G1 X145.024 Y114.004 E3.0337
G1 X156.537 Y113.987 E3.3353
G1 X157.555 Y114.626 E3.3668
G1 X157.894 Y115.331 E3.3873
G1 X157.944 Y119.273 E3.4905
G1 X158.186 Y119.811 E3.5060
G1 X164.193 Y119.872 E3.6633
G1 X164.997 Y120.127 E3.6854
G1 X171.164 Y126.091 E3.9101
G1 X171.706 Y127.187 E3.9421
G1 X171.627 Y127.966 E3.9626
G1 X171.198 Y128.663 E3.9841
G1 X165.484 Y134.499 E4.1980
G1 X166.027 Y135.136 E4.2199
G1 X165.948 Y135.444 E4.2283
G1 X165.264 Y135.978 E4.2510
G1 X164.874 Y135.981 E4.2612
G1 X164.497 Y135.769 E4.2725
G1 X163.068 Y134.348 E4.3253
G1 X163.065 Y134.038 E4.3334
G1 X163.207 Y133.928 E4.3381
G1 X163.704 Y134.058 E4.3516
G1 X170.233 Y127.391 E4.5960
G1 X164.075 Y121.360 E4.8218
G1 X151.200 Y134.507 E5.3038
G1 X151.743 Y135.143 E5.3257
G1 X151.660 Y135.462 E5.3343
G1 X151.198 Y135.893 E5.3508
G1 X150.576 Y135.982 E5.3673
G1 X148.854 Y134.447 E5.4277
G1 X148.795 Y134.034 E5.4386
G1 X148.919 Y133.937 E5.4428
G1 X149.420 Y134.066 E5.4563
G1 X155.949 Y127.399 E5.7007
G1 X149.791 Y121.368 E5.9265
G1 X136.916 Y134.515 E6.4085
G1 X137.459 Y135.151 E6.4304
G1 X137.376 Y135.470 E6.4390
G1 X136.914 Y135.901 E6.4556
G1 X136.292 Y135.990 E6.4720
G1 X134.569 Y134.455 E6.5325
G1 X134.511 Y134.043 E6.5434
G1 X134.635 Y133.945 E6.5475
G1 X135.136 Y134.074 E6.5610
G1 X141.665 Y127.407 E6.8055
G1 X135.506 Y121.376 E7.0312
G1 X122.631 Y134.523 E7.5132
G1 X123.174 Y135.160 E7.5351
G1 X123.092 Y135.479 E7.5438
G1 X122.631 Y135.910 E7.5603
G1 X122.008 Y135.998 E7.5768
G1 X120.285 Y134.463 E7.6372
G1 X120.229 Y134.070 E7.6476
G1 X120.450 Y133.940 E7.6543
G1 X120.839 Y134.096 E7.6653
G1 X127.381 Y127.415 E7.9102
G1 X121.222 Y121.384 E8.1360
G1 X108.338 Y134.541 E8.6183
G1 X108.870 Y135.090 E8.6383
G1 X108.901 Y135.304 E8.6440
G1 X108.325 Y135.931 E8.6663
G1 X107.955 Y136.035 E8.6764
G1 X107.349 Y135.791 E8.6935
G1 X106.001 Y134.471 E8.7429
G1 X105.945 Y134.078 E8.7533
G1 X106.165 Y133.948 E8.7600
G1 X106.554 Y134.104 E8.7710
G1 X113.096 Y127.423 E9.0159
G1 X106.938 Y121.392 E9.2417
G1 X94.054 Y134.549 E9.7240
G1 X94.576 Y135.088 E9.7436
G1 X94.579 Y135.415 E9.7522
G1 X94.047 Y135.938 E9.7717
G1 X93.671 Y136.043 E9.7820
G1 X93.064 Y135.800 E9.7991
G1 X91.717 Y134.479 E9.8485
G1 X91.661 Y134.086 E9.8589
G1 X91.881 Y133.956 E9.8656
G1 X92.270 Y134.112 E9.8766
G1 X98.812 Y127.432 E10.1215
G1 X92.653 Y121.400 E10.3473
G1 F2400 E5.3473
G1 F300 Z0.350
G0 F3900 X92.283 Y121.037
G0 X92.645 Y120.606
G0 X99.925 Y127.097
G0 X100.287 Y126.666
G0 X99.917 Y126.303
G1 F300 Z0.150
G1 F1500 E10.3473
G1 F2400 X104.388 Y121.738 E10.5146
G1 X104.279 Y121.481 E10.5219
G1 X95.372 Y121.486 E10.7552
G1 X95.265 Y121.747 E10.7626
G1 X99.917 Y126.303 E10.9332
G1 F2400 E5.9332
G1 F300 Z0.350
G0 F3900 X100.287 Y126.666
G0 X106.930 Y120.598
G0 X114.210 Y127.088
G0 X114.572 Y126.657
G0 X114.202 Y126.294
G1 F300 Z0.150
G1 F1500 E10.9332
G1 F2400 X118.672 Y121.730 E11.1005
G1 X118.563 Y121.473 E11.1078
G1 X109.657 Y121.478 E11.3411
G1 X109.550 Y121.739 E11.3485
G1 X114.202 Y126.294 E11.5190
G1 F2400 E6.5190
G1 F300 Z0.350
G0 F3900 X114.572 Y126.657
G0 X121.214 Y120.590
G0 X128.494 Y127.080
G0 X128.856 Y126.649
G0 X128.486 Y126.286
G1 F300 Z0.150
G1 F1500 E11.5190
G1 F2400 X132.956 Y121.721 E11.6863
G1 X132.847 Y121.464 E11.6937
G1 X123.941 Y121.469 E11.9269
G1 X123.834 Y121.730 E11.9343
G1 X128.486 Y126.286 E12.1049
G1 F2400 E7.1049
G1 F300 Z0.350
G0 F3900 X128.856 Y126.649
G0 X135.498 Y120.582
G0 X142.778 Y127.072
G0 X143.140 Y126.641
G0 X142.770 Y126.278
G1 F300 Z0.150
G1 F1500 E12.1049
G1 F2400 X147.241 Y121.713 E12.2722
G1 X147.132 Y121.456 E12.2795
G1 X138.225 Y121.461 E12.5128
G1 X138.118 Y121.722 E12.5202
G1 X142.770 Y126.278 E12.6908
G1 F2400 E7.6908
G1 F300 Z0.350
G0 F3900 X143.140 Y126.641
G0 X149.783 Y120.574
G0 X157.063 Y127.064
G0 X157.425 Y126.633
G0 X157.055 Y126.270
G1 F300 Z0.150
G1 F1500 E12.6908
G1 F2400 X161.525 Y121.705 E12.8581
G1 X161.416 Y121.448 E12.8654
G1 X152.509 Y121.453 E13.0987
G1 X152.402 Y121.714 E13.1061
G1 X157.055 Y126.270 E13.2767
G1 F2400 E8.2767
G1 F300 Z0.350
G0 F3900 X157.425 Y126.633
G0 X157.063 Y127.064
G0 X149.783 Y120.574
G0 X92.570 Y120.744
G0 X92.647 Y120.806
;TYPE:WALL-INNER
;WIDTH:0.420
G1 F300 Z0.150
G1 F1500 E13.2767
G1 F2400 X79.241 Y134.497 E13.7786
G1 X79.798 Y135.267 E13.8035
G1 X79.637 Y135.501 E13.8109
G1 X79.336 Y135.609 E13.8193
G1 X78.944 Y135.288 E13.8325
G1 X78.737 Y134.423 E13.8558
G1 X79.159 Y133.524 E13.8818
G1 X91.611 Y120.807 E14.3480
G1 X92.423 Y120.366 E14.3722
G1 X97.527 Y120.323 E14.5059
G1 X98.046 Y119.967 E14.5224
G1 X98.282 Y119.347 E14.5398
G1 X98.330 Y115.467 E14.6414
G1 X98.822 Y114.684 E14.6656
G1 X99.757 Y114.358 E14.6916
G1 X110.656 Y114.450 E14.9770
G1 X111.585 Y116.199 E15.0289
G1 X108.523 Y118.116 E15.1235
G1 X108.523 Y120.318 E15.1812
G1 X144.752 Y120.295 E16.1301
G1 X145.283 Y119.400 E16.1574
G1 X145.283 Y114.424 E16.2877
G1 X156.416 Y114.407 E16.5793
G1 X157.229 Y114.917 E16.6045
G1 X157.475 Y115.429 E16.6193
G1 X157.525 Y119.366 E16.7225
G1 X157.913 Y120.228 E16.7472
G1 X164.126 Y120.291 E16.9100
G1 X164.776 Y120.498 E16.9278
G1 X170.820 Y126.342 E17.1480
G1 X171.276 Y127.265 E17.1750
G1 X171.219 Y127.828 E17.1898
G1 X170.865 Y128.403 E17.2075
G1 X164.915 Y134.479 E17.4303
G1 X165.549 Y135.223 E17.4559
G1 X165.118 Y135.559 E17.4702
G1 X164.753 Y135.431 E17.4803
G1 X163.838 Y134.521 E17.5141
G1 X170.827 Y127.385 E17.7757
G1 X164.069 Y120.766 E18.0235
G1 X150.631 Y134.488 E18.5266
G1 X151.277 Y135.245 E18.5526
G1 X150.710 Y135.539 E18.5693
G1 X149.565 Y134.518 E18.6095
G1 X156.543 Y127.393 E18.8707
G1 X149.785 Y120.774 E19.1185
G1 X136.347 Y134.496 E19.6216
G1 X136.993 Y135.253 E19.6476
G1 X136.426 Y135.547 E19.6644
G1 X135.281 Y134.527 E19.7045
G1 X142.259 Y127.401 E19.9658
G1 X135.500 Y120.782 E20.2135
G1 X122.062 Y134.503 E20.7166
G1 X122.709 Y135.262 E20.7427
G1 X122.142 Y135.555 E20.7594
G1 X120.997 Y134.535 E20.7996
G1 X127.975 Y127.409 E21.0608
G1 X121.216 Y120.790 E21.3086
G1 X107.752 Y134.539 E21.8126
G1 X108.409 Y135.218 E21.8374
G1 X107.979 Y135.592 E21.8523
G1 X107.583 Y135.433 E21.8635
G1 X106.694 Y134.562 E21.8961
G1 X113.690 Y127.417 E22.1580
G1 X106.932 Y120.798 E22.4058
G1 X93.468 Y134.547 E22.9098
G1 X94.148 Y135.250 E22.9354
G1 X93.695 Y135.600 E22.9504
G1 X93.298 Y135.441 E22.9616
G1 X92.409 Y134.570 E22.9942
G1 X99.406 Y127.426 E23.2561
G1 X92.647 Y120.806 E23.5039
G1 F2400 E18.5039
G1 F300 Z0.350
G0 F3900 X92.570 Y120.744
G0 X92.645 Y120.606
G0 X98.540 Y125.862
G0 X100.000 Y126.959
G0 X99.923 Y126.897
G1 F300 Z0.150
G1 F1500 E23.5039
G1 F2400 X104.884 Y121.832 E23.6896
G1 X104.557 Y121.061 E23.7116
G1 X95.090 Y121.066 E23.9595
G1 X94.769 Y121.849 E23.9817
G1 X99.923 Y126.897 E24.1706
G1 F2400 E19.1706
G1 F300 Z0.350
G0 F3900 X100.000 Y126.959
G0 X106.930 Y120.598
G0 X110.604 Y124.198
G0 X114.285 Y126.950
G0 X114.208 Y126.888
G1 F300 Z0.150
G1 F1500 E24.1706
G1 F2400 X119.168 Y121.824 E24.3563
G1 X118.841 Y121.053 E24.3782
G1 X109.375 Y121.058 E24.6262
G1 X109.054 Y121.841 E24.6483
G1 X114.208 Y126.888 E24.8373
G1 F2400 E19.8373
G1 F300 Z0.350
G0 F3900 X114.285 Y126.950
G0 X121.214 Y120.590
G0 X124.889 Y124.190
G0 X128.569 Y126.942
G0 X128.492 Y126.880
G1 F300 Z0.150
G1 F1500 E24.8373
G1 F2400 X133.452 Y121.815 E25.0230
G1 X133.125 Y121.044 E25.0449
G1 X123.659 Y121.049 E25.2928
G1 X123.338 Y121.832 E25.3150
G1 X128.492 Y126.880 E25.5040
G1 F2400 E20.5040
G1 F300 Z0.350
G0 F3900 X128.569 Y126.942
G0 X135.498 Y120.582
G0 X139.173 Y124.182
G0 X142.853 Y126.934
G0 X142.776 Y126.872
G1 F300 Z0.150
G1 F1500 E25.5040
G1 F2400 X147.737 Y121.807 E25.6897
G1 X147.410 Y121.036 E25.7116
G1 X137.943 Y121.041 E25.9596
G1 X137.622 Y121.824 E25.9817
G1 X142.776 Y126.872 E26.1707
G1 F2400 E21.1707
G1 F300 Z0.350
G0 F3900 X142.853 Y126.934
G0 X149.783 Y120.574
G0 X153.457 Y124.174
G0 X157.138 Y126.926
G0 X157.061 Y126.864
G1 F300 Z0.150
G1 F1500 E26.1707
G1 F2400 X162.021 Y121.799 E26.3564
G1 X161.694 Y121.028 E26.3783
G1 X152.227 Y121.033 E26.6263
G1 X151.906 Y121.816 E26.6484
G1 X157.061 Y126.864 E26.8374
G0 F3900 X157.170 Y127.488
;TYPE:GAP-FILL
;WIDTH:0.371
G1 F2400 X156.999 Y127.321 E26.8429
;WIDTH:0.331
G1 X156.952 Y127.275 E26.8443
;WIDTH:0.318
G1 X151.560 Y121.996 E26.9939
;WIDTH:0.305
G1 X151.555 Y121.972 E26.9944
;WIDTH:0.262
G1 X151.547 Y121.903 E26.9955
;WIDTH:0.217
G1 X151.659 Y121.585 E27.0001
G1 F2400 E22.0001
G1 F300 Z0.350
G0 F3900 X152.028 Y121.004
G0 X157.574 Y120.233
;WIDTH:0.200
G1 F300 Z0.150
G1 F1500 E27.0001
G1 F2400 X157.676 Y120.458 E27.0032
;WIDTH:0.214
G1 X157.719 Y120.521 E27.0042
;WIDTH:0.254
G1 X157.765 Y120.558 E27.0051
;WIDTH:0.339
G1 X157.858 Y120.619 E27.0075
;WIDTH:0.370
G1 X161.774 Y120.647 E27.0979
;WIDTH:0.305
G1 X161.832 Y120.684 E27.0992
;WIDTH:0.228
G1 X161.919 Y120.777 E27.1010
;WIDTH:0.192
G1 X162.024 Y121.017 E27.1041
G0 F3900 X162.264 Y121.566
;WIDTH:0.209
G1 F2400 X162.380 Y121.880 E27.1085
;WIDTH:0.255
G1 X162.373 Y121.946 E27.1095
;WIDTH:0.304
G1 X162.368 Y121.975 E27.1101
;WIDTH:0.319
G1 X157.178 Y127.273 E27.2576
;WIDTH:0.358
G1 X157.038 Y127.359 E27.2613
;WIDTH:0.383
G1 X157.024 Y127.402 E27.2624
;WIDTH:0.343
G1 X156.954 Y127.502 E27.2650
;WIDTH:0.320
G1 X150.232 Y134.365 E27.4567
;WIDTH:0.345
G1 X150.163 Y134.466 E27.4593
;WIDTH:0.379
G1 X150.088 Y134.675 E27.4646
G0 F3900 X150.046 Y134.348
;WIDTH:0.365
G1 F2400 X150.217 Y134.588 E27.4713
;WIDTH:0.288
G1 X150.860 Y135.245 E27.4878
G1 F2400 E22.4878
G1 F300 Z0.350
G0 F3900 X150.475 Y134.560
G0 X163.789 Y120.572
;WIDTH:0.148
G1 F300 Z0.150
G1 F1500 E27.4878
G1 F2400 X163.987 Y120.572 E27.4896
G0 F3900 X157.804 Y120.395
G0 X157.536 Y119.838
G0 X157.228 Y115.353
;TYPE:SOLID-FILL
;WIDTH:0.420
G1 F2400 X156.655 Y114.780 E27.5108
G0 F2400 X155.878 Y114.597
G1 F2400 X157.293 Y116.012 E27.5633
G0 F2400 X157.300 Y116.613
G1 F2400 X155.284 Y114.597 E27.6379
G0 F2400 X154.691 Y114.598
G1 F2400 X157.308 Y117.215 E27.7349
G0 F2400 X157.316 Y117.817
G1 F2400 X154.098 Y114.599 E27.8541
G0 F2400 X153.505 Y114.600
G1 F2400 X157.324 Y118.419 E27.9955
G0 F2400 X157.331 Y119.020
G1 F2400 X152.912 Y114.601 E28.1592
G0 F2400 X152.319 Y114.602
G1 F2400 X157.509 Y119.792 E28.3515
G0 F2400 X157.596 Y120.473
G1 F2400 X151.726 Y114.603 E28.5689
G0 F2400 X151.133 Y114.604
G1 F2400 X157.370 Y120.841 E28.7999
G0 F2400 X156.776 Y120.841
G1 F2400 X150.540 Y114.605 E29.0309
G0 F2400 X149.947 Y114.606
G1 F2400 X156.182 Y120.841 E29.2619
G0 F2400 X155.588 Y120.841
G1 F2400 X149.354 Y114.607 E29.4928
G0 F2400 X148.761 Y114.607
G1 F2400 X154.994 Y120.841 E29.7237
G0 F2400 X154.401 Y120.842
G1 F2400 X148.168 Y114.609 E29.9546
G0 F2400 X147.575 Y114.609
G1 F2400 X153.807 Y120.842 E30.1854
G0 F2400 X153.214 Y120.843
G1 F2400 X146.982 Y114.610 E30.4163
G0 F2400 X146.388 Y114.611
G1 F2400 X152.620 Y120.843 E30.6471
G0 F2400 X152.078 Y120.895
G1 F2400 X145.796 Y114.612 E30.8799
G0 F2400 X145.470 Y114.881
G1 F2400 X151.905 Y121.316 E31.1182
G0 F2400 X151.579 Y121.584
G1 F2400 X145.470 Y115.475 E31.3445
G0 F2400 X145.470 Y116.069
G1 F2400 X151.407 Y122.005 E31.5644
G0 F3900 X149.550 Y120.743
G1 F2400 X145.470 Y116.663 E31.7155
G0 F2400 X145.470 Y117.257
G1 F2400 X149.256 Y121.043 E31.8558
G0 F2400 X148.962 Y121.343
G1 F2400 X145.470 Y117.851 E31.9851
G0 F2400 X145.470 Y118.445
G1 F2400 X148.669 Y121.643 E32.1036
G0 F2400 X148.375 Y121.943
;WIDTH:0.356
G1 F2400 X148.048 Y121.616 E32.1139
;WIDTH:0.420
G1 X147.722 Y121.290 E32.1259
G0 F2400 X147.279 Y120.847
G1 F2400 X145.470 Y119.039 E32.1929
G0 F2400 X145.403 Y119.565
G1 F2400 X146.685 Y120.847 E32.2404
G0 F2400 X146.091 Y120.847
G1 F2400 X145.181 Y119.938 E32.2741
G0 F2400 X144.968 Y120.318
G1 F2400 X145.497 Y120.847 E32.2937
G1 F2400 E27.2937
G1 F300 Z0.350
G0 F3900 X149.783 Y120.574
G0 X161.804 Y120.862
G0 X162.032 Y121.345
;WIDTH:0.321
G1 F300 Z0.150
G1 F1500 E32.2937
G1 F2400 X162.337 Y121.650 E32.3023
;WIDTH:0.420
G1 X162.640 Y121.953 E32.3136
G0 F2400 X162.935 Y121.654
G1 F2400 X161.972 Y120.691 E32.3492
G0 F2400 X162.337 Y120.462
G1 F2400 X163.229 Y121.354 E32.3823
G0 F2400 X163.522 Y121.053
;WIDTH:0.536
G1 F2400 X163.236 Y120.471 E32.4039
;WIDTH:0.420
G1 X163.816 Y120.754 E32.4208
G0 F3900 X164.280 Y120.609
;TYPE:GAP-FILL
;WIDTH:0.202
G1 F2400 X164.596 Y120.800 E32.4255
;WIDTH:0.287
G1 X170.519 Y126.558 E32.5733
;WIDTH:0.224
G1 X170.878 Y127.053 E32.5819
G0 F3900 X170.986 Y127.585
;WIDTH:0.167
G1 F2400 X170.919 Y127.729 E32.5835
;WIDTH:0.255
G1 X170.573 Y128.172 E32.5925
;WIDTH:0.319
G1 X164.516 Y134.357 E32.7647
;WIDTH:0.343
G1 X164.448 Y134.457 E32.7673
;WIDTH:0.392
G1 X164.362 Y134.701 E32.7736
G0 F3900 X164.308 Y134.354
;WIDTH:0.402
G1 F2400 X164.483 Y134.594 E32.7811
;WIDTH:0.358
G1 X164.955 Y135.103 E32.7966
;WIDTH:0.298
G1 X165.179 Y135.256 E32.8016
G1 F2400 E27.8016
G1 F300 Z0.350
G0 F3900 X164.237 Y134.360
G0 X171.027 Y127.383
G0 X164.067 Y120.566
G0 X149.783 Y120.574
G0 X147.978 Y121.573
;WIDTH:0.209
G1 F300 Z0.150
G1 F1500 E32.8016
G1 F2400 X148.096 Y121.888 E32.8060
;WIDTH:0.255
G1 X148.089 Y121.954 E32.8070
;WIDTH:0.304
G1 X148.084 Y121.983 E32.8076
;WIDTH:0.320
G1 X142.894 Y127.281 E32.9556
;WIDTH:0.359
G1 X142.754 Y127.367 E32.9593
;WIDTH:0.383
G1 X142.740 Y127.410 E32.9604
;WIDTH:0.343
G1 X142.670 Y127.510 E32.9630
;WIDTH:0.320
G1 X135.947 Y134.374 E33.1547
;WIDTH:0.344
G1 X135.880 Y134.475 E33.1573
;WIDTH:0.379
G1 X135.799 Y134.682 E33.1626
G0 F3900 X135.761 Y134.357
;WIDTH:0.366
G1 F2400 X135.933 Y134.597 E33.1693
;WIDTH:0.289
G1 X136.575 Y135.253 E33.1858
G1 F2400 E28.1858
G1 F300 Z0.350
G0 F3900 X136.191 Y134.568
G0 X142.888 Y127.494
;WIDTH:0.371
G1 F300 Z0.150
G1 F1500 E33.1858
G1 F2400 X142.714 Y127.329 E33.1914
;WIDTH:0.331
G1 X142.667 Y127.283 E33.1927
;WIDTH:0.320
G1 X137.276 Y122.005 E33.3433
;WIDTH:0.307
