;Sliced by ideaMaker 5.3.2.8640, 2026-01-08 18:14:14 UTC+0100
;Slicer Version: 5.3.0.8620
;Dimension: 250.000 250.000 250.000 0.400
;Plate Shape: 0
;Origin Center: 0
;Extruder Offset #1: 25.000 0.000
;Filament Diameter #1: 1.750
;Filament Diameter #2: 1.750
;Filament Compensation #1: 94.000
;Filament Compensation #2: 90.000
;Filament Density #1: 1240.000
;Filament Density #2: 1240.000
;Filament Type #1: PLA
;Filament Type #2: PLA
;Filament Name #1: [Raise3D] Premium PLA 1.75mm
;Filament Name #2: [Raise3D] Premium PLA 1.75mm
;Filament #1: PLA 1.75mm
;Filament #2: PLA 1.75mm
;Printer Type: floppy
;Firmware: Klipper
;Bounding Box: 106.277 143.722 106.368 143.652 0.000 18.750
;Model Gap: 0.000
M221 T0 S94.00
M140 S45.00
M104 T0 S195.00
M109 T0 S195.00
T0
M190 S45.00
G21 ;metric values
G90 ;absolute positioning
M82 ;set extruder to absolute mode
M107 ;start with the fan off
G28 X0 Y0 ;move X/Y to min endstops
G28 Z0 ;move Z to min endstops
G1 Z15.0 F9000 ;move the platform down 15mm

G92 E0 ;zero the extruded length

G0 X43 Y27 F2000  ;go to the edge of the bed
G92 X0 Y0 E0 ;set zero to edge of the bed
G0 F9000 Z1 ;Z up with 1mm
G1 F200 Z0 ;Z home slowly

G1 Z15.0 F9000 ;move the platform down 15mm

G1 F9000 ;speed setting
G92 E-3 ;retraction
M117 Printing...
M1001
;TOTAL_NUM: 1
;PRINTING_TIME: 0
;REMAINING_TIME: 2881
;LAYER:0
;Z:0.150
;HEIGHT:0.150
;PRINTING: NON-OBJECT
;PRINTING_ID: -1
G1 F2400 E-5.0000
SET_VELOCITY_LIMIT ACCEL=500.00
SET_VELOCITY_LIMIT SQUARE_CORNER_VELOCITY=5.00
G0 F3900 X112.021 Y111.469
G0 F300 Z0.150
;TYPE:SKIRT
;WIDTH:0.420
G1 F1500 E0.0000
G1 F900 X115.154 Y109.054 E0.1036
G1 X118.815 Y107.308 E0.2098
G1 X122.757 Y106.393 E0.3158
G1 X127.086 Y106.368 E0.4292
G1 X128.926 Y106.666 E0.4781
G1 X132.673 Y107.903 E0.5814
G1 X136.165 Y109.948 E0.6874
G1 X139.147 Y112.708 E0.7938
G1 X140.451 Y114.379 E0.8493
G1 X142.327 Y117.862 E0.9530
G1 X143.458 Y121.758 E1.0592
G1 X143.722 Y125.803 E1.1654
G1 X143.114 Y129.804 E1.2714
G1 X141.658 Y133.583 E1.3775
G1 X139.421 Y136.966 E1.4837
G1 X136.552 Y139.752 E1.5884
G1 X134.759 Y141.008 E1.6458
G1 X131.180 Y142.693 E1.7494
G1 X127.242 Y143.606 E1.8553
G1 X123.187 Y143.652 E1.9615
G1 X119.220 Y142.828 E2.0676
G1 X117.240 Y142.067 E2.1232
G1 X113.827 Y140.046 E2.2271
G1 X110.852 Y137.289 E2.3333
G1 X108.536 Y133.955 E2.4396
G1 X107.624 Y132.044 E2.4951
G1 X106.540 Y128.236 E2.5988
G1 X106.277 Y124.196 E2.7048
G1 X106.885 Y120.195 E2.8108
G1 X108.341 Y116.416 E2.9169
G1 X110.575 Y113.038 E3.0230
G1 X112.021 Y111.469 E3.0789
G0 F3900 X112.329 Y111.754
G1 F900 X115.410 Y109.387 E3.1806
G1 X118.995 Y107.688 E3.2845
G1 X122.851 Y106.802 E3.3882
G1 X127.019 Y106.783 E3.4973
G1 X128.859 Y107.081 E3.5462
G1 X132.541 Y108.302 E3.6478
G1 X135.952 Y110.310 E3.7514
G1 X138.861 Y113.016 E3.8555
G1 X140.119 Y114.637 E3.9093
G1 X141.957 Y118.061 E4.0110
G1 X143.054 Y121.874 E4.1150
G1 X143.303 Y125.829 E4.2188
G1 X142.699 Y129.740 E4.3224
G1 X141.266 Y133.431 E4.4261
G1 X139.071 Y136.733 E4.5300
G1 X136.260 Y139.450 E4.6324
G1 X134.519 Y140.663 E4.6879
G1 X131.002 Y142.313 E4.7897
G1 X127.148 Y143.197 E4.8933
G1 X123.183 Y143.232 E4.9971
G1 X119.306 Y142.417 E5.1009
G1 X117.392 Y141.675 E5.1547
G1 X114.042 Y139.685 E5.2567
G1 X111.138 Y136.982 E5.3606
G1 X108.882 Y133.716 E5.4646
G1 X108.004 Y131.864 E5.5183
G1 X106.944 Y128.122 E5.6201
G1 X106.696 Y124.170 E5.7239
G1 X107.300 Y120.259 E5.8275
G1 X108.733 Y116.568 E5.9312
G1 X110.925 Y113.270 E6.0349
G1 X112.329 Y111.754 E6.0891
G0 F3900 X112.636 Y112.040
G1 F900 X115.665 Y109.720 E6.1890
G1 X119.174 Y108.068 E6.2906
G1 X122.944 Y107.212 E6.3918
G1 X126.952 Y107.198 E6.4968
G1 X128.792 Y107.496 E6.5456
G1 X132.408 Y108.700 E6.6455
G1 X135.738 Y110.671 E6.7468
G1 X138.574 Y113.323 E6.8485
G1 X139.786 Y114.894 E6.9005
G1 X141.587 Y118.259 E7.0005
G1 X142.650 Y121.989 E7.1020
G1 X142.884 Y125.854 E7.2035
G1 X142.284 Y129.675 E7.3048
G1 X140.875 Y133.278 E7.4061
G1 X138.722 Y136.500 E7.5076
G1 X135.969 Y139.147 E7.6076
G1 X134.280 Y140.318 E7.6615
G1 X130.824 Y141.932 E7.7614
G1 X127.055 Y142.787 E7.8626
G1 X123.180 Y142.812 E7.9641
G1 X119.393 Y142.006 E8.0655
G1 X117.545 Y141.284 E8.1175
G1 X114.257 Y139.324 E8.2177
G1 X111.425 Y136.675 E8.3193
G1 X109.228 Y133.478 E8.4209
G1 X108.384 Y131.685 E8.4728
G1 X107.348 Y128.008 E8.5729
G1 X107.115 Y124.145 E8.6742
G1 X107.715 Y120.324 E8.7755
G1 X109.124 Y116.721 E8.8769
G1 X111.274 Y113.503 E8.9782
G1 X112.636 Y112.040 E9.0306
G0 F3900 X112.943 Y112.327
G1 F900 X115.920 Y110.054 E9.1287
G1 X119.352 Y108.448 E9.2279
G1 X123.036 Y107.622 E9.3268
G1 X126.885 Y107.613 E9.4276
G1 X128.725 Y107.911 E9.4765
G1 X132.275 Y109.098 E9.5745
G1 X135.523 Y111.032 E9.6735
G1 X138.286 Y113.629 E9.7728
G1 X139.453 Y115.150 E9.8231
G1 X141.216 Y118.457 E9.9212
G1 X142.246 Y122.103 E10.0205
G1 X142.465 Y125.878 E10.1195
G1 X141.869 Y129.609 E10.2185
G1 X140.484 Y133.124 E10.3174
G1 X138.373 Y136.266 E10.4166
G1 X135.679 Y138.844 E10.5142
G1 X134.042 Y139.972 E10.5663
G1 X130.647 Y141.551 E10.6644
G1 X126.963 Y142.377 E10.7633
G1 X123.178 Y142.392 E10.8624
G1 X119.482 Y141.595 E10.9614
G1 X117.699 Y140.893 E11.0116
G1 X114.473 Y138.964 E11.1101
G1 X111.713 Y136.369 E11.2093
G1 X109.575 Y133.241 E11.3085
G1 X108.765 Y131.507 E11.3587
G1 X107.752 Y127.895 E11.4569
G1 X107.534 Y124.121 E11.5559
G1 X108.130 Y120.390 E11.6549
G1 X109.515 Y116.875 E11.7538
G1 X111.623 Y113.737 E11.8529
G1 X112.943 Y112.327 E11.9035
G0 F3900 X113.249 Y112.615
G1 F900 X116.174 Y110.388 E11.9997
G1 X119.529 Y108.829 E12.0966
G1 X123.127 Y108.032 E12.1932
G1 X126.818 Y108.028 E12.2898
G1 X128.658 Y108.326 E12.3387
G1 X132.141 Y109.496 E12.4349
G1 X135.307 Y111.392 E12.5316
G1 X137.998 Y113.934 E12.6285
G1 X139.119 Y115.405 E12.6770
G1 X140.845 Y118.654 E12.7733
G1 X141.842 Y122.216 E12.8702
G1 X142.046 Y125.901 E12.9669
G1 X141.454 Y129.542 E13.0635
G1 X140.094 Y132.969 E13.1601
G1 X138.025 Y136.031 E13.2569
G1 X135.389 Y138.540 E13.3522
G1 X133.805 Y139.625 E13.4025
G1 X130.470 Y141.170 E13.4987
G1 X126.872 Y141.967 E13.5953
G1 X123.177 Y141.972 E13.6920
G1 X119.572 Y141.185 E13.7887
G1 X117.854 Y140.503 E13.8371
G1 X114.689 Y138.604 E13.9338
G1 X112.002 Y136.064 E14.0306
G1 X109.922 Y133.005 E14.1275
G1 X109.146 Y131.330 E14.1759
G1 X108.157 Y127.782 E14.2723
G1 X107.953 Y124.098 E14.3690
G1 X108.545 Y120.457 E14.4656
G1 X109.905 Y117.030 E14.5622
G1 X111.971 Y113.972 E14.6588
G1 X113.249 Y112.615 E14.7077
;PRINTING: my_cup.stl
;PRINTING_ID: 0
G1 F2400 E9.7077
G1 F300 Z0.350
G0 F3900 X113.549 Y112.923
;TYPE:WALL-OUTER
;WIDTH:0.420
G1 F300 Z0.150
G1 F1500 E14.7077
G1 F2400 X116.419 Y110.742 E14.8021
G1 X119.688 Y109.230 E14.8964
G1 X123.200 Y108.457 E14.9906
G1 X126.764 Y108.454 E15.0839
G1 X128.570 Y108.746 E15.1319
G1 X131.987 Y109.897 E15.2263
G1 X135.072 Y111.753 E15.3206
G1 X137.685 Y114.228 E15.4149
G1 X138.768 Y115.654 E15.4618
G1 X140.459 Y118.843 E15.5563
G1 X141.420 Y122.304 E15.6504
G1 X141.615 Y125.903 E15.7448
G1 X141.034 Y129.450 E15.8389
G1 X139.702 Y132.793 E15.9332
G1 X137.681 Y135.773 E16.0275
G1 X135.098 Y138.222 E16.1207
G1 X133.583 Y139.255 E16.1688
G1 X130.311 Y140.769 E16.2632
G1 X126.799 Y141.542 E16.3574
G1 X123.200 Y141.542 E16.4517
G1 X119.682 Y140.768 E16.5460
G1 X118.017 Y140.105 E16.5929
G1 X114.927 Y138.246 E16.6874
G1 X112.319 Y135.775 E16.7815
G1 X110.295 Y132.789 E16.8760
G1 X109.541 Y131.160 E16.9230
G1 X108.579 Y127.695 E17.0172
G1 X108.384 Y124.096 E17.1116
G1 X108.965 Y120.549 E17.2057
G1 X110.297 Y117.206 E17.3000
G1 X112.324 Y114.217 E17.3946
G1 X113.549 Y112.923 E17.4413
G1 F2400 E12.4413
G1 F300 Z0.350
G0 F3900 X114.161 Y113.904
G1 F300 Z0.150
G1 F1500 E17.4413
G1 F2400 X113.229 Y114.898 E17.4769
G1 X111.658 Y117.088 E17.5475
G1 X111.016 Y118.289 E17.5832
G1 X110.064 Y120.814 E17.6539
G1 X109.564 Y123.471 E17.7247
G1 X109.534 Y126.175 E17.7955
G1 X109.984 Y128.880 E17.8674
G1 X110.866 Y131.390 E17.9370
G1 X111.482 Y132.605 E17.9727
G1 X113.005 Y134.834 E18.0434
G1 X114.891 Y136.764 E18.1141
G1 X115.962 Y137.606 E18.1498
G1 X118.250 Y138.963 E18.2195
G1 X120.814 Y139.935 E18.2913
G1 X123.471 Y140.435 E18.3621
G1 X126.175 Y140.465 E18.4329
G1 X128.843 Y140.026 E18.5038
G1 X131.390 Y139.133 E18.5744
G1 X132.605 Y138.517 E18.6101
G1 X134.834 Y136.994 E18.6808
G1 X136.764 Y135.107 E18.7515
G1 X137.627 Y134.004 E18.7882
G1 X138.981 Y131.714 E18.8579
G1 X139.935 Y129.185 E18.9287
G1 X140.435 Y126.528 E18.9995
G1 X140.466 Y123.824 E19.0703
G1 X140.027 Y121.160 E19.1411
G1 X139.633 Y119.857 E19.1767
G1 X138.520 Y117.398 E19.2474
G1 X136.994 Y115.165 E19.3182
G1 X135.104 Y113.232 E19.3891
G1 X132.907 Y111.656 E19.4599
G1 X130.470 Y110.486 E19.5307
G1 X127.871 Y109.757 E19.6014
G1 X126.523 Y109.564 E19.6370
G1 X123.863 Y109.532 E19.7067
G1 X121.156 Y109.973 E19.7786
G1 X118.605 Y110.868 E19.8494
G1 X116.248 Y112.193 E19.9202
G1 X114.161 Y113.904 E19.9909
G0 F3900 X113.830 Y113.237
;TYPE:WALL-INNER
;WIDTH:0.420
G1 F2400 X116.637 Y111.104 E20.0832
G1 X119.823 Y109.630 E20.1752
G1 X123.246 Y108.877 E20.2670
G1 X126.730 Y108.874 E20.3582
G1 X128.469 Y109.155 E20.4044
G1 X131.810 Y110.280 E20.4967
G1 X134.816 Y112.089 E20.5886
G1 X137.371 Y114.509 E20.6808
G1 X138.413 Y115.881 E20.7259
G1 X140.067 Y118.999 E20.8183
G1 X141.003 Y122.372 E20.9100
G1 X141.193 Y125.880 E21.0020
G1 X140.627 Y129.337 E21.0938
G1 X139.329 Y132.595 E21.1856
G1 X137.359 Y135.500 E21.2776
G1 X134.834 Y137.894 E21.3687
G1 X133.375 Y138.888 E21.4150
G1 X130.176 Y140.369 E21.5073
G1 X126.753 Y141.122 E21.5991
G1 X123.246 Y141.122 E21.6910
G1 X119.806 Y140.365 E21.7832
G1 X118.204 Y139.727 E21.8284
G1 X115.183 Y137.910 E21.9207
G1 X112.641 Y135.502 E22.0124
G1 X110.662 Y132.582 E22.1048
G1 X109.937 Y131.015 E22.1500
G1 X108.996 Y127.627 E22.2421
G1 X108.806 Y124.119 E22.3342
G1 X109.372 Y120.662 E22.4259
G1 X110.670 Y117.404 E22.5178
G1 X112.652 Y114.481 E22.6103
G1 X113.830 Y113.237 E22.6551
G0 F3900 X113.873 Y113.597
G1 F2400 X112.904 Y114.631 E22.6923
G1 X111.301 Y116.866 E22.7643
G1 X110.633 Y118.115 E22.8014
G1 X109.658 Y120.700 E22.8738
G1 X109.144 Y123.430 E22.9465
G1 X109.114 Y126.207 E23.0193
G1 X109.576 Y128.985 E23.0930
G1 X110.479 Y131.555 E23.1644
G1 X111.120 Y132.819 E23.2015
G1 X112.679 Y135.101 E23.2739
G1 X114.610 Y137.077 E23.3462
G1 X115.724 Y137.953 E23.3834
G1 X118.067 Y139.343 E23.4547
G1 X120.700 Y140.341 E23.5285
G1 X123.430 Y140.855 E23.6012
G1 X126.207 Y140.885 E23.6740
G1 X128.947 Y140.434 E23.7467
G1 X131.555 Y139.520 E23.8191
G1 X132.819 Y138.879 E23.8562
G1 X135.101 Y137.320 E23.9286
G1 X137.078 Y135.388 E24.0010
G1 X137.975 Y134.241 E24.0391
G1 X139.361 Y131.896 E24.1105
G1 X140.341 Y129.299 E24.1832
G1 X140.855 Y126.570 E24.2559
G1 X140.886 Y123.792 E24.3287
G1 X140.437 Y121.065 E24.4011
G1 X140.027 Y119.709 E24.4382
G1 X138.887 Y117.191 E24.5106
G1 X137.320 Y114.898 E24.5833
G1 X135.379 Y112.912 E24.6561
G1 X133.122 Y111.293 E24.7288
G1 X130.619 Y110.092 E24.8015
G1 X127.958 Y109.345 E24.8739
G1 X126.555 Y109.144 E24.9110
G1 X123.832 Y109.112 E24.9824
G1 X121.052 Y109.564 E25.0561
G1 X118.431 Y110.484 E25.1289
G1 X116.010 Y111.845 E25.2016
G1 X113.873 Y113.597 E25.2740
G1 F2400 E20.2740
G1 F300 Z0.350
G0 F3900 X118.823 Y117.150
;TYPE:WALL-OUTER
;WIDTH:0.420
G1 F300 Z0.150
G1 F1500 E25.2740
G1 F2400 X120.277 Y116.197 E25.3196
G1 X121.879 Y115.510 E25.3652
G1 X123.565 Y115.114 E25.4106
G1 X126.156 Y115.079 E25.4784
G1 X127.886 Y115.437 E25.5247
G1 X129.497 Y116.080 E25.5702
G1 X130.979 Y116.998 E25.6158
G1 X132.849 Y118.822 E25.6842
G1 X133.811 Y120.299 E25.7304
G1 X134.724 Y122.717 E25.7981
G1 X134.972 Y124.438 E25.8436
G1 X134.919 Y126.177 E25.8892
G1 X134.562 Y127.885 E25.9349
G1 X133.906 Y129.521 E25.9811
G1 X132.448 Y131.655 E26.0488
G1 X131.180 Y132.847 E26.0944
G1 X129.724 Y133.800 E26.1399
G1 X127.307 Y134.717 E26.2076
G1 X125.561 Y134.972 E26.2539
G1 X123.822 Y134.919 E26.2994
G1 X122.114 Y134.562 E26.3451
G1 X120.504 Y133.920 E26.3905
G1 X118.341 Y132.445 E26.4591
G1 X117.152 Y131.180 E26.5046
G1 X116.196 Y129.721 E26.5503
G1 X115.506 Y128.103 E26.5963
G1 X115.027 Y125.559 E26.6641
G1 X115.080 Y123.822 E26.7097
G1 X115.437 Y122.114 E26.7554
G1 X116.082 Y120.498 E26.8009
G1 X117.011 Y119.003 E26.8470
G1 X118.823 Y117.150 E26.9149
G1 F2400 E21.9149
G1 F300 Z0.350
G0 F3900 X118.679 Y118.878
G1 F300 Z0.150
G1 F1500 E26.9149
G1 F2400 X117.162 Y121.000 E26.9832
G1 X116.351 Y123.382 E27.0492
G1 X116.207 Y124.704 E27.0840
G1 X116.481 Y127.202 E27.1498
G1 X117.508 Y129.613 E27.2184
G1 X119.118 Y131.544 E27.2843
G1 X121.316 Y132.988 E27.3532
G1 X123.685 Y133.699 E27.4180
G1 X126.317 Y133.699 E27.4869
G1 X128.717 Y132.975 E27.5526
G1 X130.924 Y131.502 E27.6221
G1 X132.511 Y129.583 E27.6873
G1 X133.522 Y127.184 E27.7555
G1 X133.793 Y124.749 E27.8196
G1 X133.650 Y123.397 E27.8553
G1 X133.298 Y122.082 E27.8909
G1 X132.186 Y119.926 E27.9545
G1 X131.323 Y118.883 E27.9899
G1 X130.270 Y117.960 E28.0266
G1 X128.236 Y116.821 E28.0876
G1 X126.866 Y116.402 E28.1252
G1 X124.956 Y116.202 E28.1755
G1 X123.082 Y116.412 E28.2249
G1 X120.665 Y117.344 E28.2927
G1 X118.679 Y118.878 E28.3584
G0 F3900 X119.091 Y117.476
;TYPE:WALL-INNER
;WIDTH:0.420
G1 F2400 X120.476 Y116.568 E28.4018
G1 X122.011 Y115.910 E28.4456
G1 X123.616 Y115.533 E28.4887
G1 X126.116 Y115.500 E28.5542
G1 X127.765 Y115.841 E28.5983
G1 X129.307 Y116.456 E28.6418
G1 X130.719 Y117.331 E28.6853
G1 X132.522 Y119.090 E28.7513
G1 X133.434 Y120.490 E28.7951
G1 X134.315 Y122.822 E28.8604
G1 X134.551 Y124.462 E28.9038
G1 X134.500 Y126.127 E28.9474
G1 X134.158 Y127.763 E28.9912
G1 X133.533 Y129.322 E29.0352
G1 X132.127 Y131.380 E29.1004
G1 X130.919 Y132.516 E29.1439
G1 X129.532 Y133.424 E29.1873
G1 X127.201 Y134.308 E29.2526
G1 X125.537 Y134.551 E29.2966
G1 X123.872 Y134.500 E29.3403
G1 X122.236 Y134.158 E29.3840
G1 X120.702 Y133.547 E29.4273
G1 X118.616 Y132.124 E29.4934
G1 X117.483 Y130.919 E29.5368
G1 X116.568 Y129.522 E29.5805
G1 X115.910 Y127.980 E29.6244
G1 X115.448 Y125.526 E29.6898
G1 X115.499 Y123.872 E29.7332
G1 X115.841 Y122.236 E29.7769
G1 X116.458 Y120.688 E29.8206
G1 X117.343 Y119.264 E29.8645
G1 X119.091 Y117.476 E29.9300
G0 F3900 X118.373 Y118.583
G1 F2400 X116.784 Y120.806 E30.0016
G1 X115.938 Y123.290 E30.0703
G1 X115.784 Y124.704 E30.1075
G1 X116.070 Y127.309 E30.1762
G1 X117.146 Y129.834 E30.2481
G1 X118.835 Y131.861 E30.3172
G1 X121.137 Y133.373 E30.3893
G1 X123.623 Y134.119 E30.4573
G1 X126.379 Y134.119 E30.5295
G1 X128.898 Y133.359 E30.5984
G1 X131.208 Y131.817 E30.6712
G1 X132.874 Y129.803 E30.7396
G1 X133.933 Y127.291 E30.8110
G1 X134.215 Y124.750 E30.8780
G1 X134.064 Y123.320 E30.9156
G1 X133.692 Y121.930 E30.9533
G1 X132.538 Y119.693 E31.0193
G1 X131.625 Y118.589 E31.0568
G1 X130.514 Y117.615 E31.0955
G1 X128.402 Y116.433 E31.1589
G1 X126.950 Y115.989 E31.1986
G1 X124.954 Y115.780 E31.2512
G1 X122.981 Y116.001 E31.3032
G1 X120.457 Y116.974 E31.3741
G1 X118.373 Y118.583 E31.4430
;PRINTING: NON-OBJECT
;PRINTING_ID: -1
G0 F3900 X120.010 Y120.213
;TYPE:SUPPORT
;WIDTH:0.420
G1 F2400 X120.902 Y120.308 E31.4665
G1 X120.962 Y119.523 E31.4871
G1 X120.426 Y119.378 E31.5017
G1 X120.251 Y119.130 E31.5096
G1 X120.408 Y118.670 E31.5224
G1 X120.798 Y118.598 E31.5328
G1 X121.215 Y118.892 E31.5461
G1 X121.793 Y118.516 E31.5642
G1 X122.182 Y117.901 E31.5832
G1 X123.147 Y117.555 E31.6101
G1 X124.020 Y117.861 E31.6343
G1 X124.842 Y117.373 E31.6594
G1 X125.704 Y117.879 E31.6855
G1 X126.120 Y117.520 E31.6999
G1 X126.417 Y117.520 E31.7077
G1 X126.657 Y117.718 E31.7159
G1 X126.768 Y118.125 E31.7269
G1 X127.347 Y118.192 E31.7422
G1 X127.826 Y117.659 E31.7609
G1 X128.258 Y117.819 E31.7730
G1 X128.356 Y118.409 E31.7887
G1 X129.004 Y119.094 E31.8134
G1 X129.178 Y119.516 E31.8253
G1 X129.178 Y120.657 E31.8552
G1 X129.909 Y120.970 E31.8760
G1 X130.625 Y120.728 E31.8958
G1 X131.110 Y121.023 E31.9107
G1 X131.155 Y121.308 E31.9183
G1 X130.812 Y121.867 E31.9354
G1 X130.911 Y122.597 E31.9547
G1 X131.054 Y123.001 E31.9660
G1 X131.764 Y123.006 E31.9846
G1 X132.147 Y123.323 E31.9976
G1 X132.231 Y123.803 E32.0104
G1 X131.762 Y124.514 E32.0327
