;Sliced by ideaMaker 5.3.2.8640, 2026-01-08 15:35:34 UTC+0100
;Slicer Version: 5.3.0.8620
;Dimension: 250.000 250.000 250.000 0.400
;Plate Shape: 0
;Origin Center: 0
;Extruder Offset #1: 25.000 0.000
;Filament Diameter #1: 1.750
;Filament Diameter #2: 1.750
;Filament Compensation #1: 94.000
;Filament Compensation #2: 90.000
;Filament Density #1: 1240.000
;Filament Density #2: 1240.000
;Filament Type #1: PLA
;Filament Type #2: PLA
;Filament Name #1: [Raise3D] Premium PLA 1.75mm
;Filament Name #2: [Raise3D] Premium PLA 1.75mm
;Filament #1: PLA 1.75mm
;Filament #2: PLA 1.75mm
;Printer Type: floppy
;Firmware: Klipper
;Bounding Box: 107.401 142.585 107.394 142.567 0.000 85.350
;Model Gap: 0.000
M221 T0 S94.00
M140 S45.00
M104 T0 S195.00
M109 T0 S195.00
T0
M190 S45.00
G21 ;metric values
G90 ;absolute positioning
M82 ;set extruder to absolute mode
M107 ;start with the fan off
G28 X0 Y0 ;move X/Y to min endstops
G28 Z0 ;move Z to min endstops
G1 Z15.0 F9000 ;move the platform down 15mm

G92 E0 ;zero the extruded length

G0 X43 Y27 F2000  ;go to the edge of the bed
G92 X0 Y0 E0 ;set zero to edge of the bed
G0 F9000 Z1 ;Z up with 1mm
G1 F200 Z0 ;Z home slowly

G1 Z15.0 F9000 ;move the platform down 15mm

G1 F9000 ;speed setting
G92 E-3 ;retraction
M117 Printing...
M1001
;TOTAL_NUM: 1
;PRINTING_TIME: 0
;REMAINING_TIME: 5222
;LAYER:0
;Z:0.150
;HEIGHT:0.150
;PRINTING: NON-OBJECT
;PRINTING_ID: -1
G1 F2400 E-5.0000
SET_VELOCITY_LIMIT ACCEL=500.00
SET_VELOCITY_LIMIT SQUARE_CORNER_VELOCITY=5.00
G0 F3900 X112.710 Y112.395
G0 F300 Z0.150
;TYPE:SKIRT
;WIDTH:0.420
G1 F1500 E0.0000
G1 F900 X114.767 Y110.672 E0.0703
G1 X117.051 Y109.290 E0.1402
G1 X119.512 Y108.272 E0.2100
G1 X122.168 Y107.625 E0.2816
G1 X124.884 Y107.394 E0.3530
G1 X127.537 Y107.578 E0.4226
G1 X130.125 Y108.157 E0.4921
G1 X132.694 Y109.165 E0.5644
G1 X135.032 Y110.532 E0.6353
G1 X137.070 Y112.183 E0.7040
G1 X138.884 Y114.174 E0.7745
G1 X140.380 Y116.431 E0.8455
G1 X141.526 Y118.931 E0.9175
G1 X142.260 Y121.524 E0.9881
G1 X142.585 Y124.129 E1.0568
G1 X142.510 Y126.830 E1.1276
G1 X142.020 Y129.505 E1.1988
G1 X141.113 Y132.092 E1.2706
G1 X139.875 Y134.417 E1.3396
G1 X138.263 Y136.578 E1.4103
G1 X136.352 Y138.456 E1.4804
G1 X134.122 Y140.058 E1.5524
G1 X131.699 Y141.281 E1.6234
G1 X129.133 Y142.113 E1.6941
G1 X126.525 Y142.540 E1.7633
G1 X123.833 Y142.567 E1.8338
G1 X121.183 Y142.185 E1.9040
G1 X118.536 Y141.375 E1.9765
G1 X116.131 Y140.207 E2.0465
G1 X113.943 Y138.700 E2.1161
G1 X111.947 Y136.814 E2.1880
G1 X110.285 Y134.667 E2.2591
G1 X109.009 Y132.365 E2.3281
G1 X108.072 Y129.839 E2.3986
G1 X107.529 Y127.172 E2.4699
G1 X107.401 Y124.445 E2.5414
G1 X107.690 Y121.796 E2.6112
G1 X108.369 Y119.221 E2.6810
G1 X109.445 Y116.752 E2.7515
G1 X110.893 Y114.468 E2.8223
G1 X112.710 Y112.395 E2.8945
G0 F3900 X113.025 Y112.672
G1 F900 X115.036 Y110.995 E2.9631
G1 X117.268 Y109.650 E3.0314
G1 X119.672 Y108.660 E3.0995
G1 X122.267 Y108.033 E3.1694
G1 X124.919 Y107.813 E3.2391
G1 X127.507 Y107.997 E3.3071
G1 X130.033 Y108.567 E3.3749
G1 X132.540 Y109.556 E3.4455
G1 X134.819 Y110.894 E3.5147
G1 X136.805 Y112.509 E3.5817
G1 X138.573 Y114.456 E3.6506
G1 X140.029 Y116.662 E3.7199
G1 X141.144 Y119.105 E3.7902
G1 X141.856 Y121.638 E3.8591
G1 X142.168 Y124.180 E3.9262
G1 X142.090 Y126.818 E3.9953
G1 X141.607 Y129.429 E4.0649
G1 X140.717 Y131.952 E4.1349
G1 X139.505 Y134.219 E4.2023
G1 X137.927 Y136.326 E4.2712
G1 X136.058 Y138.156 E4.3397
G1 X133.878 Y139.716 E4.4099
G1 X131.510 Y140.906 E4.4794
G1 X129.004 Y141.713 E4.5483
G1 X126.458 Y142.125 E4.6159
G1 X123.829 Y142.147 E4.6847
G1 X121.244 Y141.769 E4.7532
G1 X118.659 Y140.974 E4.8240
G1 X116.315 Y139.830 E4.8923
G1 X114.182 Y138.355 E4.9602
G1 X112.236 Y136.509 E5.0305
G1 X110.618 Y134.411 E5.0999
G1 X109.377 Y132.162 E5.1672
G1 X108.466 Y129.694 E5.2361
G1 X107.941 Y127.089 E5.3057
G1 X107.821 Y124.426 E5.3755
G1 X108.107 Y121.842 E5.4436
G1 X108.775 Y119.329 E5.5117
G1 X109.830 Y116.920 E5.5806
G1 X111.247 Y114.693 E5.6497
G1 X113.025 Y112.672 E5.7202
G0 F3900 X113.340 Y112.950
G1 F900 X115.304 Y111.318 E5.7871
G1 X117.484 Y110.010 E5.8537
G1 X119.831 Y109.049 E5.9201
G1 X122.365 Y108.441 E5.9884
G1 X124.953 Y108.232 E6.0564
G1 X127.476 Y108.416 E6.1226
G1 X129.940 Y108.977 E6.1888
G1 X132.385 Y109.946 E6.2577
G1 X134.606 Y111.256 E6.3253
G1 X136.539 Y112.834 E6.3906
G1 X138.262 Y114.738 E6.4579
G1 X139.678 Y116.893 E6.5254
G1 X140.762 Y119.279 E6.5941
G1 X141.451 Y121.751 E6.6613
G1 X141.751 Y124.230 E6.7267
G1 X141.670 Y126.805 E6.7942
G1 X141.194 Y129.352 E6.8620
G1 X140.321 Y131.812 E6.9304
G1 X139.135 Y134.020 E6.9960
G1 X137.591 Y136.074 E7.0633
G1 X135.765 Y137.855 E7.1302
G1 X133.634 Y139.374 E7.1987
G1 X131.322 Y140.530 E7.2664
G1 X128.876 Y141.313 E7.3337
G1 X126.392 Y141.710 E7.3996
G1 X123.826 Y141.727 E7.4668
G1 X121.305 Y141.354 E7.5335
G1 X118.783 Y140.573 E7.6027
G1 X116.500 Y139.453 E7.6693
G1 X114.422 Y138.010 E7.7355
G1 X112.526 Y136.205 E7.8041
G1 X110.951 Y134.155 E7.8718
G1 X109.745 Y131.960 E7.9374
G1 X108.860 Y129.549 E8.0047
G1 X108.353 Y127.007 E8.0726
G1 X108.241 Y124.408 E8.1407
G1 X108.524 Y121.889 E8.2071
G1 X109.181 Y119.438 E8.2736
G1 X110.214 Y117.089 E8.3408
G1 X111.601 Y114.919 E8.4082
G1 X113.340 Y112.950 E8.4770
G0 F3900 X113.654 Y113.229
G1 F900 X115.572 Y111.642 E8.5423
G1 X117.699 Y110.371 E8.6072
G1 X119.989 Y109.438 E8.6719
G1 X122.462 Y108.850 E8.7385
G1 X124.986 Y108.651 E8.8048
G1 X127.445 Y108.835 E8.8694
G1 X129.846 Y109.386 E8.9339
G1 X132.229 Y110.336 E9.0011
G1 X134.392 Y111.617 E9.0670
G1 X136.273 Y113.159 E9.1307
G1 X137.950 Y115.019 E9.1963
G1 X139.326 Y117.123 E9.2621
G1 X140.379 Y119.452 E9.3291
G1 X141.046 Y121.863 E9.3946
G1 X141.334 Y124.280 E9.4583
G1 X141.250 Y126.791 E9.5241
G1 X140.781 Y129.274 E9.5903
G1 X139.925 Y131.671 E9.6570
G1 X138.765 Y133.820 E9.7210
G1 X137.256 Y135.821 E9.7866
G1 X135.472 Y137.554 E9.8517
G1 X133.391 Y139.031 E9.9186
G1 X131.135 Y140.154 E9.9846
G1 X128.749 Y140.913 E10.0502
G1 X126.327 Y141.295 E10.1144
G1 X123.824 Y141.307 E10.1800
G1 X121.367 Y140.939 E10.2450
G1 X118.908 Y140.172 E10.3125
G1 X116.686 Y139.076 E10.3774
G1 X114.662 Y137.665 E10.4420
G1 X112.816 Y135.901 E10.5089
G1 X111.285 Y133.900 E10.5749
G1 X110.113 Y131.758 E10.6388
G1 X109.255 Y129.405 E10.7044
G1 X108.765 Y126.926 E10.7706
G1 X108.661 Y124.391 E10.8371
G1 X108.941 Y121.937 E10.9018
G1 X109.586 Y119.547 E10.9666
G1 X110.598 Y117.259 E11.0321
G1 X111.954 Y115.146 E11.0979
G1 X113.654 Y113.229 E11.1650
G0 F3900 X113.968 Y113.508
G1 F900 X115.839 Y111.966 E11.2285
G1 X117.914 Y110.732 E11.2917
G1 X120.147 Y109.827 E11.3549
G1 X122.558 Y109.259 E11.4197
G1 X125.018 Y109.070 E11.4844
G1 X127.413 Y109.254 E11.5473
G1 X129.751 Y109.795 E11.6101
G1 X132.073 Y110.726 E11.6756
G1 X134.177 Y111.978 E11.7398
G1 X136.006 Y113.483 E11.8018
G1 X137.638 Y115.300 E11.8658
G1 X138.974 Y117.352 E11.9299
G1 X139.996 Y119.624 E11.9952
G1 X140.641 Y121.974 E12.0590
G1 X140.917 Y124.329 E12.1211
G1 X140.830 Y126.776 E12.1852
G1 X140.368 Y129.195 E12.2497
G1 X139.530 Y131.529 E12.3147
G1 X138.396 Y133.620 E12.3770
G1 X136.921 Y135.567 E12.4410
G1 X135.180 Y137.252 E12.5044
G1 X133.149 Y138.688 E12.5696
G1 X130.949 Y139.778 E12.6339
G1 X128.623 Y140.512 E12.6978
G1 X126.262 Y140.880 E12.7604
G1 X123.823 Y140.887 E12.8243
G1 X121.430 Y140.524 E12.8876
G1 X119.034 Y139.771 E12.9534
G1 X116.872 Y138.700 E13.0166
G1 X114.903 Y137.321 E13.0796
G1 X113.107 Y135.598 E13.1448
G1 X111.619 Y133.645 E13.2091
G1 X110.482 Y131.557 E13.2714
G1 X109.650 Y129.262 E13.3353
G1 X109.177 Y126.845 E13.3998
G1 X109.081 Y124.375 E13.4646
G1 X109.358 Y121.985 E13.5276
G1 X109.991 Y119.657 E13.5908
G1 X110.982 Y117.430 E13.6546
G1 X112.307 Y115.373 E13.7187
G1 X113.968 Y113.508 E13.7841
;PRINTING: Sealant_Cardridge_Nozzle_3.STL
;PRINTING_ID: 0
G1 F2400 E8.7841
G1 F300 Z0.350
G0 F3900 X114.276 Y113.808
;TYPE:WALL-OUTER
;WIDTH:0.420
G1 F300 Z0.150
G1 F1500 E13.7841
G1 F2400 X116.102 Y112.307 E13.8460
G1 X118.121 Y111.109 E13.9075
G1 X120.299 Y110.229 E13.9690
G1 X122.633 Y109.681 E14.0318
G1 X125.030 Y109.499 E14.0948
G1 X127.360 Y109.680 E14.1560
G1 X129.651 Y110.214 E14.2176
G1 X131.905 Y111.122 E14.2813
G1 X133.940 Y112.337 E14.3434
G1 X135.729 Y113.814 E14.4041
G1 X137.309 Y115.578 E14.4661
G1 X138.600 Y117.565 E14.5282
G1 X139.598 Y119.789 E14.5921
G1 X140.222 Y122.078 E14.6542
G1 X140.487 Y124.378 E14.7148
G1 X140.401 Y126.749 E14.7770
G1 X139.947 Y129.104 E14.8398
G1 X139.128 Y131.373 E14.9030
G1 X138.028 Y133.398 E14.9633
G1 X136.593 Y135.289 E15.0255
G1 X134.886 Y136.937 E15.0877
G1 X132.917 Y138.325 E15.1508
G1 X130.766 Y139.388 E15.2136
G1 X128.507 Y140.098 E15.2756
G1 X126.213 Y140.452 E15.3364
G1 X123.846 Y140.457 E15.3984
G1 X121.492 Y140.098 E15.4608
G1 X119.178 Y139.365 E15.5244
G1 X117.082 Y138.325 E15.5857
G1 X115.160 Y136.975 E15.6472
G1 X113.406 Y135.289 E15.7109
G1 X111.971 Y133.398 E15.7731
G1 X110.868 Y131.368 E15.8336
G1 X110.061 Y129.139 E15.8957
G1 X109.601 Y126.779 E15.9587
G1 X109.512 Y124.378 E16.0216
G1 X109.783 Y122.048 E16.0830
G1 X110.402 Y119.788 E16.1444
G1 X111.370 Y117.617 E16.2067
G1 X112.652 Y115.630 E16.2686
G1 X114.276 Y113.808 E16.3325
G1 F2400 E11.3325
G1 F300 Z0.350
G0 F3900 X114.763 Y115.046
G1 F300 Z0.150
G1 F1500 E16.3325
G1 F2400 X113.451 Y116.636 E16.3865
G1 X112.011 Y119.069 E16.4606
G1 X111.006 Y122.164 E16.5458
G1 X110.727 Y125.407 E16.6311
G1 X111.190 Y128.626 E16.7162
G1 X111.873 Y130.570 E16.7702
G1 X113.214 Y133.059 E16.8443
G1 X115.345 Y135.519 E16.9295
G1 X117.978 Y137.432 E17.0148
G1 X120.976 Y138.700 E17.1000
G1 X124.178 Y139.253 E17.1851
G1 X125.821 Y139.253 E17.2282
G1 X129.023 Y138.700 E17.3133
G1 X132.021 Y137.432 E17.3985
G1 X134.649 Y135.522 E17.4836
G1 X135.794 Y134.344 E17.5266
G1 X137.628 Y131.663 E17.6117
G1 X138.808 Y128.630 E17.6970
G1 X139.272 Y125.407 E17.7823
G1 X138.993 Y122.164 E17.8675
G1 X137.987 Y119.068 E17.9528
G1 X136.306 Y116.281 E18.0380
G1 X134.038 Y113.946 E18.1233
G1 X131.304 Y112.190 E18.2084
G1 X129.792 Y111.551 E18.2514
G1 X126.631 Y110.815 E18.3364
G1 X124.571 Y110.747 E18.3904
G1 X121.764 Y111.092 E18.4645
G1 X118.705 Y112.184 E18.5495
G1 X117.275 Y112.992 E18.5926
G1 X114.763 Y115.046 E18.6775
G0 F3900 X114.568 Y114.112
;TYPE:WALL-INNER
;WIDTH:0.420
G1 F2400 X116.344 Y112.652 E18.7378
G1 X118.308 Y111.486 E18.7976
G1 X120.426 Y110.631 E18.8574
G1 X122.697 Y110.097 E18.9185
G1 X125.030 Y109.920 E18.9798
G1 X127.296 Y110.096 E19.0393
G1 X129.524 Y110.616 E19.0993
G1 X131.718 Y111.499 E19.1612
G1 X133.697 Y112.681 E19.2216
G1 X135.437 Y114.118 E19.2807
G1 X136.974 Y115.834 E19.3410
G1 X138.230 Y117.767 E19.4014
G1 X139.201 Y119.931 E19.4635
G1 X139.808 Y122.158 E19.5240
G1 X140.066 Y124.395 E19.5830
G1 X139.982 Y126.701 E19.6434
G1 X139.541 Y128.992 E19.7045
G1 X138.744 Y131.200 E19.7660
G1 X137.674 Y133.170 E19.8247
G1 X136.278 Y135.009 E19.8852
G1 X134.618 Y136.612 E19.9456
G1 X132.702 Y137.963 E20.0070
G1 X130.609 Y138.997 E20.0682
G1 X128.411 Y139.688 E20.1285
G1 X126.180 Y140.032 E20.1877
G1 X123.877 Y140.037 E20.2480
G1 X121.588 Y139.688 E20.3086
G1 X119.336 Y138.974 E20.3705
G1 X117.297 Y137.963 E20.4301
G1 X115.428 Y136.650 E20.4899
G1 X113.721 Y135.009 E20.5520
G1 X112.325 Y133.169 E20.6125
G1 X111.252 Y131.195 E20.6713
G1 X110.467 Y129.027 E20.7317
G1 X110.020 Y126.731 E20.7930
G1 X109.933 Y124.395 E20.8542
G1 X110.197 Y122.128 E20.9140
G1 X110.799 Y119.930 E20.9737
G1 X111.740 Y117.818 E21.0342
G1 X112.987 Y115.885 E21.0945
G1 X114.568 Y114.112 E21.1567
G0 F3900 X114.465 Y114.747
G1 F2400 X113.106 Y116.394 E21.2126
G1 X111.626 Y118.895 E21.2887
G1 X110.592 Y122.080 E21.3765
G1 X110.304 Y125.419 E21.4642
G1 X110.780 Y128.726 E21.5517
G1 X111.488 Y130.740 E21.6077
G1 X112.866 Y133.299 E21.6838
G1 X115.059 Y135.830 E21.7715
G1 X117.770 Y137.800 E21.8593
G1 X120.857 Y139.106 E21.9471
G1 X124.142 Y139.673 E22.0344
G1 X125.857 Y139.673 E22.0793
G1 X129.142 Y139.106 E22.1666
G1 X132.229 Y137.800 E22.2544
G1 X134.925 Y135.841 E22.3417
G1 X136.120 Y134.611 E22.3866
G1 X138.002 Y131.860 E22.4739
G1 X139.217 Y128.737 E22.5617
G1 X139.695 Y125.419 E22.6495
G1 X139.407 Y122.080 E22.7373
G1 X138.372 Y118.892 E22.8251
G1 X136.641 Y116.023 E22.9128
G1 X134.306 Y113.619 E23.0006
G1 X131.501 Y111.817 E23.0879
G1 X129.922 Y111.150 E23.1328
G1 X126.686 Y110.397 E23.2199
G1 X124.552 Y110.326 E23.2758
G1 X121.667 Y110.681 E23.3519
G1 X118.530 Y111.801 E23.4392
G1 X117.037 Y112.644 E23.4841
G1 X114.465 Y114.747 E23.5711
G1 F2400 E18.5711
G1 F300 Z0.350
G0 F3900 X117.391 Y117.610
;TYPE:WALL-OUTER
;WIDTH:0.420
G1 F300 Z0.150
G1 F1500 E23.5711
G1 F2400 X119.542 Y115.921 E23.6427
G1 X121.431 Y115.012 E23.6976
G1 X123.796 Y114.461 E23.7612
G1 X125.312 Y114.410 E23.8010
G1 X127.398 Y114.668 E23.8560
G1 X129.688 Y115.485 E23.9197
G1 X130.984 Y116.257 E23.9592
G1 X132.608 Y117.608 E24.0145
G1 X133.395 Y118.518 E24.0461
G1 X134.647 Y120.592 E24.1095
G1 X135.395 Y122.895 E24.1729
G1 X135.602 Y125.300 E24.2362
G1 X135.257 Y127.696 E24.2996
G1 X134.379 Y129.950 E24.3629
G1 X133.016 Y131.945 E24.4262
G1 X131.233 Y133.580 E24.4896
G1 X129.127 Y134.770 E24.5529
G1 X126.812 Y135.450 E24.6161
G1 X124.393 Y135.589 E24.6796
G1 X122.007 Y135.175 E24.7430
G1 X120.594 Y134.634 E24.7826
G1 X118.766 Y133.581 E24.8379
G1 X116.983 Y131.945 E24.9013
G1 X115.620 Y129.950 E24.9646
G1 X114.740 Y127.693 E25.0280
G1 X114.474 Y126.199 E25.0678
G1 X114.431 Y124.094 E25.1229
G1 X114.913 Y121.721 E25.1863
G1 X115.917 Y119.521 E25.2497
G1 X117.391 Y117.610 E25.3129
G1 F2400 E20.3129
G1 F300 Z0.350
G0 F3900 X119.022 Y118.777
G1 F300 Z0.150
G1 F1500 E25.3129
G1 F2400 X118.063 Y119.868 E25.3509
G1 X117.275 Y121.165 E25.3907
G1 X116.751 Y122.470 E25.4275
G1 X116.443 Y123.892 E25.4656
G1 X116.378 Y125.350 E25.5039
G1 X116.568 Y126.832 E25.5430
G1 X117.015 Y128.263 E25.5823
G1 X117.663 Y129.539 E25.6197
G1 X118.512 Y130.688 E25.6572
G1 X119.553 Y131.690 E25.6950
G1 X120.795 Y132.534 E25.7343
G1 X122.147 Y133.142 E25.7732
G1 X123.550 Y133.505 E25.8111
G1 X125.027 Y133.627 E25.8499
G1 X126.466 Y133.502 E25.8878
G1 X127.903 Y133.124 E25.9267
G1 X129.218 Y132.526 E25.9645
G1 X130.384 Y131.739 E26.0014
G1 X131.460 Y130.718 E26.0402
G1 X132.367 Y129.489 E26.0802
G1 X133.010 Y128.206 E26.1178
G1 X133.442 Y126.778 E26.1569
G1 X133.621 Y125.357 E26.1944
G1 X133.552 Y123.865 E26.2335
G1 X133.205 Y122.348 E26.2743
G1 X132.689 Y121.086 E26.3100
G1 X131.977 Y119.926 E26.3457
G1 X130.985 Y118.787 E26.3852
G1 X129.771 Y117.813 E26.4260
G1 X128.457 Y117.097 E26.4652
G1 X127.153 Y116.644 E26.5013
G1 X124.981 Y116.371 E26.5587
G1 X122.830 Y116.649 E26.6155
G1 X121.445 Y117.137 E26.6539
G1 X120.168 Y117.851 E26.6923
G1 X119.022 Y118.777 E26.7309
G0 F3900 X117.692 Y117.908
;TYPE:WALL-INNER
;WIDTH:0.420
G1 F2400 X119.765 Y116.280 E26.7999
G1 X121.571 Y115.411 E26.8524
G1 X123.851 Y114.879 E26.9137
G1 X125.293 Y114.831 E26.9515
G1 X127.300 Y115.079 E27.0045
G1 X129.508 Y115.867 E27.0659
G1 X130.741 Y116.601 E27.1035
G1 X132.313 Y117.909 E27.1570
G1 X133.054 Y118.766 E27.1867
G1 X134.262 Y120.768 E27.2479
G1 X134.981 Y122.979 E27.3088
G1 X135.179 Y125.288 E27.3695
G1 X134.848 Y127.588 E27.4304
G1 X134.005 Y129.753 E27.4913
G1 X132.696 Y131.668 E27.5520
G1 X130.985 Y133.238 E27.6128
G1 X128.962 Y134.381 E27.6737
G1 X126.740 Y135.033 E27.7343
G1 X124.417 Y135.167 E27.7953
G1 X122.119 Y134.768 E27.8564
G1 X120.775 Y134.254 E27.8941
G1 X119.016 Y133.240 E27.9472
G1 X117.303 Y131.668 E28.0081
G1 X115.994 Y129.753 E28.0689
G1 X115.146 Y127.579 E28.1300
G1 X114.893 Y126.158 E28.1678
G1 X114.852 Y124.132 E28.2209
G1 X115.315 Y121.852 E28.2818
G1 X116.279 Y119.739 E28.3427
G1 X117.692 Y117.908 E28.4033
G0 F3900 X118.730 Y118.473
G1 F2400 X117.723 Y119.618 E28.4432
G1 X116.898 Y120.976 E28.4848
G1 X116.348 Y122.346 E28.5235
G1 X116.025 Y123.838 E28.5635
G1 X115.957 Y125.367 E28.6035
G1 X116.156 Y126.922 E28.6446
G1 X116.625 Y128.422 E28.6858
G1 X117.304 Y129.760 E28.7251
G1 X118.195 Y130.966 E28.7643
G1 X119.287 Y132.017 E28.8040
G1 X120.589 Y132.902 E28.8453
G1 X122.007 Y133.540 E28.8860
