;Sliced by ideaMaker 5.2.4.8581, 2025-06-29 15:05:09 UTC+0200
;Slicer Version: 5.2.3.8580
;Dimension: 250.000 250.000 250.000 0.400
;Plate Shape: 0
;Origin Center: 0
;Extruder Offset #1: 25.000 0.000
;Filament Diameter #1: 1.750
;Filament Diameter #2: 1.750
;Filament Compensation #1: 94.000
;Filament Compensation #2: 90.000
;Filament Density #1: 1240.000
;Filament Density #2: 1240.000
;Filament Type #1: PLA
;Filament Type #2: PLA
;Filament Name #1: [Raise3D] Premium PLA 1.75mm
;Filament Name #2: [Raise3D] Premium PLA 1.75mm
;Filament #1: PLA 1.75mm
;Filament #2: PLA 1.75mm
;Printer Type: floppy
;Firmware: Klipper
;Bounding Box: 111.409 138.583 102.620 147.408 0.000 2.400
;Model Gap: 0.000
M221 T0 S94.00
M140 S50.00
M104 T0 S190.00
M109 T0 S190.00
T0
M190 S50.00
G21 ;metric values
G90 ;absolute positioning
M82 ;set extruder to absolute mode
M107 ;start with the fan off
G28 X0 Y0 ;move X/Y to min endstops
G28 Z0 ;move Z to min endstops
G1 Z15.0 F9000 ;move the platform down 15mm
G92 E0 ;zero the extruded length
G0 X43 Y27 F2000  ;go to the edge of the bed
G92 X0 Y0 E0 ;set zero to edge of the bed
G0 F9000 Z1 ;Z up with 1mm
G1 F200 Z0 ;Z home slowly
G1 Z15.0 F9000 ;move the platform down 15mm
G1 F9000 ;speed setting
G92 E-3 ;retraction
M117 Printing...
M1001
;TOTAL_NUM: 1
;PRINTING_TIME: 0
;REMAINING_TIME: 404
;LAYER:0
;Z:0.300
;HEIGHT:0.300
;PRINTING: NON-OBJECT
;PRINTING_ID: -1
G1 F2400 E-3.0000
G0 F3900 X118.099 Y105.810
G0 F300 Z0.300
;TYPE:SKIRT
;WIDTH:0.420
G1 F1500 E0.0000
G1 F900 X120.241 Y103.960 E0.1483
G1 X122.837 Y102.866 E0.2958
G1 X125.599 Y102.620 E0.4411
G1 X128.080 Y103.139 E0.5739
G1 X130.298 Y104.317 E0.7054
G1 X132.130 Y106.093 E0.8391
G1 X133.413 Y108.327 E0.9741
G1 X133.853 Y109.793 E1.0542
G1 X134.039 Y111.282 E1.1328
G1 X134.050 Y123.772 E1.7871
G1 X135.607 Y125.325 E1.9023
G1 X137.166 Y127.769 E2.0542
G1 X138.260 Y130.859 E2.2259
G1 X138.583 Y134.135 E2.3983
G1 X138.227 Y136.941 E2.5465
G1 X137.473 Y139.215 E2.6720
G1 X136.102 Y141.659 E2.8188
G1 X134.555 Y143.485 E2.9442
G1 X132.348 Y145.251 E3.0922
G1 X130.061 Y146.433 E3.2271
G1 X127.538 Y147.170 E3.3648
G1 X124.737 Y147.408 E3.5121
G1 X122.350 Y147.148 E3.6378
G1 X119.661 Y146.317 E3.7853
G1 X117.179 Y144.932 E3.9342
G1 X115.232 Y143.267 E4.0684
G1 X113.497 Y141.055 E4.2156
G1 X112.389 Y138.892 E4.3429
G1 X111.656 Y136.407 E4.4787
G1 X111.409 Y133.840 E4.6138
G1 X111.796 Y130.613 E4.7840
G1 X112.765 Y127.904 E4.9347
G1 X114.260 Y125.493 E5.0833
G1 X115.950 Y123.775 E5.2096
G1 X115.954 Y111.381 E5.8588
G1 X116.118 Y109.932 E5.9352
G1 X116.635 Y108.218 E6.0290
G1 X118.099 Y105.810 E6.1766
G0 F3900 X118.458 Y106.028
G1 F900 X120.407 Y104.346 E6.3115
G1 X122.877 Y103.284 E6.4523
G1 X125.516 Y103.032 E6.5912
G1 X127.885 Y103.511 E6.7178
G1 X130.008 Y104.621 E6.8433
G1 X131.766 Y106.302 E6.9707
G1 X133.049 Y108.536 E7.1057
G1 X133.450 Y109.911 E7.1807
G1 X133.622 Y111.332 E7.2557
G1 X133.630 Y123.946 E7.9165
G1 X135.310 Y125.622 E8.0408
G1 X136.811 Y127.994 E8.1878
G1 X137.864 Y130.998 E8.3546
G1 X138.165 Y134.175 E8.5218
G1 X137.811 Y136.887 E8.6650
G1 X137.075 Y139.081 E8.7863
G1 X135.736 Y141.452 E8.9289
G1 X134.235 Y143.212 E9.0501
G1 X132.086 Y144.922 E9.1939
G1 X129.869 Y146.059 E9.3245
G1 X127.421 Y146.767 E9.4580
G1 X124.703 Y146.989 E9.6008
G1 X122.397 Y146.731 E9.7224
G1 X119.786 Y145.916 E9.8656
G1 X117.385 Y144.566 E10.0099
G1 X115.506 Y142.949 E10.1398
G1 X113.828 Y140.797 E10.2828
G1 X112.763 Y138.702 E10.4059
G1 X112.059 Y136.289 E10.5375
G1 X111.827 Y133.801 E10.6684
G1 X112.213 Y130.664 E10.8340
G1 X113.160 Y128.047 E10.9798
G1 X114.616 Y125.716 E11.1238
G1 X116.370 Y123.948 E11.2542
G1 X116.374 Y111.381 E11.9126
G1 X116.535 Y109.980 E11.9864
G1 X116.994 Y108.436 E12.0708
G1 X118.458 Y106.028 E12.2184
G0 F3900 X118.817 Y106.246
G1 F900 X120.576 Y104.731 E12.3400
G1 X122.920 Y103.702 E12.4741
G1 X125.435 Y103.444 E12.6066
G1 X127.693 Y103.885 E12.7271
G1 X129.720 Y104.927 E12.8465
G1 X131.403 Y106.513 E12.9676
G1 X132.646 Y108.654 E13.0973
G1 X133.047 Y110.029 E13.1724
G1 X133.205 Y111.381 E13.2437
G1 X133.210 Y124.120 E13.9110
G1 X135.013 Y125.919 E14.0444
G1 X136.455 Y128.217 E14.1865
G1 X137.467 Y131.136 E14.3484
G1 X137.747 Y134.213 E14.5102
G1 X137.395 Y136.831 E14.6486
G1 X136.677 Y138.946 E14.7656
G1 X135.371 Y141.244 E14.9041
G1 X133.916 Y142.938 E15.0210
G1 X131.825 Y144.593 E15.1607
G1 X129.679 Y145.685 E15.2869
G1 X127.306 Y146.363 E15.4162
G1 X124.670 Y146.570 E15.5547
G1 X122.445 Y146.314 E15.6720
G1 X119.912 Y145.515 E15.8111
G1 X117.592 Y144.201 E15.9508
G1 X115.781 Y142.632 E16.0763
G1 X114.160 Y140.540 E16.2150
G1 X113.138 Y138.513 E16.3339
G1 X112.463 Y136.173 E16.4615
G1 X112.245 Y133.763 E16.5882
G1 X112.630 Y130.717 E16.7491
G1 X113.554 Y128.191 E16.8900
G1 X114.971 Y125.940 E17.0293
G1 X116.790 Y124.122 E17.1640
G1 X116.794 Y111.381 E17.8314
G1 X116.952 Y110.029 E17.9027
G1 X117.353 Y108.654 E17.9778
G1 X118.817 Y106.246 E18.1254
;PRINTING: Bev??s??rl??_Coin_Cart_v2.STL
;PRINTING_ID: 0
G1 F2400 E15.1254
G0 F3900 X122.327 Y109.053
;TYPE:WALL-OUTER
;WIDTH:0.420
G1 F1500 E18.1254
G1 F2400 X121.512 Y110.352 E18.2057
G1 X121.288 Y111.763 E18.2806
G1 X121.656 Y113.251 E18.3609
G1 X122.515 Y114.392 E18.4357
G1 X123.729 Y115.122 E18.5099
G1 X125.130 Y115.344 E18.5842
G1 X126.510 Y115.024 E18.6584
G1 X127.672 Y114.211 E18.7327
G1 X128.487 Y112.911 E18.8131
G1 X128.711 Y111.503 E18.8878
G1 X128.392 Y110.121 E18.9621
G1 X127.580 Y108.960 E19.0363
G1 X126.390 Y108.188 E19.1106
G1 X124.880 Y107.920 E19.1909
G1 X123.489 Y108.238 E19.2657
G1 X122.327 Y109.053 E19.3400
G1 F2400 E16.3400
G0 F3900 X122.031 Y108.627
G0 X120.924 Y110.131
G0 X118.814 Y124.975
G0 X118.570 Y125.094
G0 X118.210 Y124.721
G1 F1500 E19.3400
G1 F2400 X118.214 Y111.397 E20.0380
G1 X118.357 Y110.223 E20.0999
G1 X118.703 Y109.095 E20.1618
G1 X119.790 Y107.281 E20.2725
G1 X121.204 Y106.005 E20.3723
G1 X123.129 Y105.107 E20.4836
G1 X125.221 Y104.848 E20.5940
G1 X127.097 Y105.176 E20.6938
G1 X128.797 Y106.006 E20.7929
G1 X130.198 Y107.266 E20.8916
G1 X131.297 Y109.096 E21.0034
G1 X131.642 Y110.223 E21.0651
G1 X131.785 Y111.397 E21.1271
G1 X131.790 Y124.721 E21.8251
G1 X133.827 Y126.703 E21.9740
G1 X135.123 Y128.715 E22.0993
G1 X136.057 Y131.312 E22.2439
G1 X136.336 Y134.058 E22.3885
G1 X136.041 Y136.399 E22.5121
G1 X135.425 Y138.277 E22.6156
G1 X134.275 Y140.341 E22.7394
G1 X133.004 Y141.851 E22.8428
G1 X131.163 Y143.336 E22.9667
G1 X129.055 Y144.408 E23.0906
G1 X127.159 Y144.951 E23.1939
G1 X124.802 Y145.156 E23.3178
G1 X122.841 Y144.951 E23.4211
G1 X120.580 Y144.261 E23.5450
G1 X118.509 Y143.116 E23.6689
G1 X116.718 Y141.564 E23.7931
G1 X115.305 Y139.701 E23.9156
G1 X114.424 Y137.912 E24.0200
G1 X113.875 Y136.015 E24.1235
G1 X113.662 Y133.661 E24.2473
G1 X114.036 Y130.925 E24.3919
G1 X114.873 Y128.718 E24.5156
G1 X116.154 Y126.725 E24.6397
G1 X118.210 Y124.721 E24.7901
G1 F2400 E21.7901
G0 F3900 X118.570 Y125.094
G0 X118.814 Y124.975
G0 X120.924 Y110.131
G0 X121.927 Y108.713
G0 X122.016 Y108.758
;TYPE:WALL-INNER
;WIDTH:0.420
G1 F1500 E24.7901
G1 F2400 X121.111 Y110.201 E24.8793
G1 X120.860 Y111.781 E24.9631
G1 X121.269 Y113.435 E25.0524
G1 X122.229 Y114.710 E25.1360
G1 X123.583 Y115.524 E25.2188
G1 X125.145 Y115.772 E25.3016
G1 X126.684 Y115.415 E25.3844
G1 X127.983 Y114.506 E25.4674
G1 X128.888 Y113.062 E25.5567
G1 X129.139 Y111.488 E25.6402
G1 X128.783 Y109.947 E25.7230
G1 X127.877 Y108.652 E25.8058
G1 X126.547 Y107.789 E25.8889
G1 X124.869 Y107.492 E25.9782
G1 X123.315 Y107.847 E26.0617
G1 X122.016 Y108.758 E26.1448
G1 F2400 E23.1448
G0 F3900 X121.927 Y108.713
G0 X121.116 Y109.861
G0 X118.730 Y124.888
G0 X118.630 Y124.898
G1 F1500 E26.1448
G1 F2400 X118.634 Y111.423 E26.8507
G1 X119.090 Y109.267 E26.9661
G1 X120.118 Y107.551 E27.0709
G1 X121.439 Y106.359 E27.1641
G1 X123.246 Y105.516 E27.2685
G1 X125.210 Y105.273 E27.3722
G1 X126.966 Y105.579 E27.4656
G1 X128.560 Y106.358 E27.5585
G1 X129.870 Y107.536 E27.6508
G1 X130.910 Y109.268 E27.7566
G1 X131.365 Y111.423 E27.8720
G1 X131.370 Y124.898 E28.5779
G1 X133.500 Y126.971 E28.7336
G1 X134.744 Y128.902 E28.8539
G1 X135.644 Y131.406 E28.9933
G1 X135.913 Y134.053 E29.1327
G1 X135.629 Y136.306 E29.2517
G1 X135.038 Y138.108 E29.3510
G1 X133.928 Y140.101 E29.4705
G1 X132.709 Y141.550 E29.5697
G1 X130.933 Y142.982 E29.6892
G1 X128.901 Y144.015 E29.8086
G1 X127.082 Y144.536 E29.9077
G1 X124.806 Y144.734 E30.0274
G1 X122.925 Y144.537 E30.1265
G1 X120.745 Y143.872 E30.2459
G1 X118.751 Y142.770 E30.3652
G1 X117.026 Y141.275 E30.4848
G1 X115.664 Y139.479 E30.6029
G1 X114.817 Y137.760 E30.7033
G1 X114.290 Y135.937 E30.8027
G1 X114.085 Y133.671 E30.9219
G1 X114.446 Y131.029 E31.0616
G1 X115.250 Y128.908 E31.1804
G1 X116.481 Y126.992 E31.2997
G1 X118.630 Y124.898 E31.4569
G1 F2400 E28.4569
G0 F3900 X118.730 Y124.888
G0 X115.734 Y139.196
;TYPE:SOLID-FILL
;WIDTH:0.420
G1 F1500 E31.4569
G1 F2400 X119.511 Y142.973 E31.7367
G0 F2400 X120.833 Y143.701
G1 F2400 X115.159 Y138.027 E32.1570
G0 F2400 X114.821 Y137.095
G1 F2400 X121.687 Y143.961 E32.6657
G0 F2400 X122.541 Y144.221
G1 F2400 X114.578 Y136.258 E33.2556
G0 F2400 X114.441 Y135.527
G1 F2400 X123.298 Y144.384 E33.9117
G0 F2400 X123.962 Y144.454
G1 F2400 X114.383 Y134.874 E34.6214
G0 F2400 X114.323 Y134.221
G1 F2400 X124.626 Y144.524 E35.3847
G0 F2400 X125.204 Y144.508
G1 F2400 X114.286 Y133.590 E36.1935
G0 F2400 X114.357 Y133.067
G1 F2400 X125.751 Y144.461 E37.0377
G0 F2400 X126.297 Y144.413
G1 F2400 X114.428 Y132.545 E37.9169
G0 F2400 X114.501 Y132.023
G1 F2400 X126.844 Y144.366 E38.8313
G0 F2400 X127.337 Y144.266
G1 F2400 X114.572 Y131.500 E39.7770
G0 F2400 X114.660 Y130.995
G1 F2400 X127.799 Y144.133 E40.7504
G0 F2400 X128.261 Y144.001
G1 F2400 X114.824 Y130.564 E41.7458
G0 F2400 X114.987 Y130.133
G1 F2400 X128.723 Y143.869 E42.7634
G0 F2400 X129.132 Y143.684
G1 F2400 X115.150 Y129.703 E43.7992
G0 F2400 X115.313 Y129.271
G1 F2400 X129.526 Y143.484 E44.8522
G0 F2400 X129.920 Y143.284
G1 F2400 X115.501 Y128.865 E45.9204
G0 F2400 X115.733 Y128.503
G1 F2400 X130.314 Y143.084 E47.0006
G0 F2400 X130.707 Y142.883
G1 F2400 X115.966 Y128.142 E48.0926
G0 F2400 X116.198 Y127.780
G1 F2400 X131.056 Y142.638 E49.1934
G0 F2400 X131.385 Y142.373
G1 F2400 X116.430 Y127.419 E50.3012
G0 F2400 X116.674 Y127.068
G1 F2400 X131.714 Y142.108 E51.4155
G0 F2400 X132.042 Y141.843
G1 F2400 X116.975 Y126.775 E52.5317
G0 F2400 X117.275 Y126.482
G1 F2400 X132.371 Y141.578 E53.6501
G0 F2400 X132.679 Y141.291
G1 F2400 X117.576 Y126.188 E54.7689
G0 F2400 X117.877 Y125.896
G1 F2400 X132.950 Y140.968 E55.8856
G0 F2400 X133.221 Y140.646
G1 F2400 X118.178 Y125.602 E57.0000
G0 F2400 X118.478 Y125.309
G1 F2400 X133.493 Y140.323 E58.1124
G0 F2400 X133.764 Y140.000
G1 F2400 X118.779 Y125.016 E59.2224
G0 F2400 X118.818 Y124.461
G1 F2400 X133.978 Y139.621 E60.3456
G0 F2400 X134.190 Y139.239
G1 F2400 X118.818 Y123.867 E61.4844
G0 F2400 X118.818 Y123.273
G1 F2400 X134.403 Y138.858 E62.6389
G0 F2400 X134.615 Y138.476
G1 F2400 X118.818 Y122.679 E63.8092
G0 F2400 X118.819 Y122.086
G1 F2400 X134.828 Y138.095 E64.9952
G0 F2400 X134.985 Y137.658
G1 F2400 X118.819 Y121.492 E66.1929
G0 F2400 X118.819 Y120.898
G1 F2400 X135.133 Y137.211 E67.4014
G0 F2400 X135.280 Y136.765
G1 F2400 X118.819 Y120.304 E68.6209
G0 F2400 X118.819 Y119.710
G1 F2400 X135.427 Y136.318 E69.8513
G0 F2400 X135.502 Y135.799
G1 F2400 X118.820 Y119.117 E71.0871
G0 F2400 X118.820 Y118.523
G1 F2400 X135.569 Y135.272 E72.3279
G0 F2400 X135.635 Y134.744
G1 F2400 X118.820 Y117.929 E73.5737
G0 F2400 X118.820 Y117.335
G1 F2400 X135.701 Y134.216 E74.8243
G0 F2400 X135.676 Y133.597
G1 F2400 X118.820 Y116.741 E76.0730
G0 F2400 X118.820 Y116.147
G1 F2400 X135.609 Y132.936 E77.3168
G0 F2400 X135.542 Y132.275
G1 F2400 X118.820 Y115.553 E78.5556
G0 F2400 X118.820 Y114.960
G1 F2400 X135.475 Y131.614 E79.7894
G0 F2400 X135.208 Y130.753
G1 F2400 X118.820 Y114.366 E81.0035
G0 F2400 X118.821 Y113.772
G1 F2400 X134.874 Y129.825 E82.1927
G0 F2400 X134.467 Y128.824
G1 F2400 X118.821 Y113.178 E83.3518
G0 F2400 X118.821 Y112.584
G1 F2400 X131.180 Y124.943 E84.2674
G0 F2400 X131.180 Y124.349
G1 F2400 X118.821 Y111.990 E85.1830
G0 F2400 X118.830 Y111.405
G1 F2400 X121.560 Y114.136 E85.3853
G0 F2400 X120.948 Y112.929
G1 F2400 X118.933 Y110.914 E85.5346
G0 F2400 X119.037 Y110.424
G1 F2400 X120.752 Y112.140 E85.6617
G0 F2400 X120.711 Y111.505
G1 F2400 X119.141 Y109.934 E85.7780
G0 F2400 X119.244 Y109.443
G1 F2400 X120.792 Y110.992 E85.8927
G0 F2400 X120.874 Y110.479
G1 F2400 X119.440 Y109.046 E85.9989
G0 F2400 X119.663 Y108.675
G1 F2400 X121.003 Y110.015 E86.0982
G0 F2400 X121.232 Y109.650
G1 F2400 X119.886 Y108.304 E86.1979
G0 F2400 X120.109 Y107.932
G1 F2400 X121.461 Y109.285 E86.2981
G0 F2400 X121.690 Y108.920
G1 F2400 X120.359 Y107.589 E86.3967
G0 F2400 X120.671 Y107.306
G1 F2400 X121.941 Y108.576 E86.4908
G0 F2400 X122.290 Y108.332
G1 F2400 X120.983 Y107.024 E86.5877
G0 F2400 X121.295 Y106.743
G1 F2400 X122.639 Y108.087 E86.6872
G0 F2400 X122.988 Y107.842
G1 F2400 X121.626 Y106.480 E86.7881
G0 F2400 X122.031 Y106.291
G1 F2400 X123.377 Y107.637 E86.8878
G0 F2400 X123.861 Y107.526
G1 F2400 X122.436 Y106.102 E86.9934
G0 F2400 X122.841 Y105.913
G1 F2400 X124.344 Y107.416 E87.1047
G0 F2400 X124.828 Y107.306
G1 F2400 X123.246 Y105.724 E87.2219
G0 F2400 X123.759 Y105.643
G1 F2400 X125.533 Y107.417 E87.3533
G0 F2400 X126.255 Y107.545
G1 F2400 X124.288 Y105.578 E87.4991
G0 F2400 X124.816 Y105.512
G1 F2400 X127.459 Y108.155 E87.6949
G0 F2400 X128.460 Y109.156
G1 F2400 X131.176 Y111.872 E87.8961
G0 F2400 X131.176 Y112.466
G1 F2400 X129.071 Y110.361 E88.0520
G0 F2400 X129.251 Y111.135
G1 F2400 X131.176 Y113.060 E88.1946
G0 F2400 X131.176 Y113.654
G1 F2400 X129.285 Y111.763 E88.3347
G0 F2400 X129.203 Y112.275
G1 F2400 X131.176 Y114.248 E88.4809
G0 F2400 X131.176 Y114.842
G1 F2400 X129.121 Y112.787 E88.6331
G0 F2400 X128.991 Y113.251
G1 F2400 X131.177 Y115.437 E88.7951
G0 F2400 X131.177 Y116.031
G1 F2400 X128.762 Y113.616 E88.9740
G0 F2400 X128.533 Y113.981
G1 F2400 X131.177 Y116.625 E89.1699
G0 F2400 X131.177 Y117.219
G1 F2400 X128.304 Y114.346 E89.3827
G0 F2400 X128.052 Y114.688
G1 F2400 X131.178 Y117.813 E89.6143
G0 F2400 X131.178 Y118.407
G1 F2400 X127.703 Y114.933 E89.8717
G0 F2400 X127.353 Y115.177
G1 F2400 X131.178 Y119.001 E90.1550
G0 F2400 X131.178 Y119.596
G1 F2400 X127.004 Y115.421 E90.4642
G0 F2400 X126.613 Y115.625
G1 F2400 X131.178 Y120.190 E90.8024
G0 F2400 X131.178 Y120.784
G1 F2400 X126.132 Y115.737 E91.1763
G0 F2400 X125.650 Y115.849
G1 F2400 X131.179 Y121.379 E91.5859
G0 F2400 X131.179 Y121.973
G1 F2400 X125.168 Y115.961 E92.0313
G0 F2400 X124.469 Y115.856
G1 F2400 X131.179 Y122.567 E92.5284
G0 F2400 X131.180 Y123.161
G1 F2400 X123.763 Y115.744 E93.0779
G0 F2400 X122.545 Y115.120
G1 F2400 X131.180 Y123.755 E93.7176
G0 F3900 X132.482 Y126.246
G1 F2400 X133.392 Y127.155 E93.7850
G1 F2400 E90.7850
G0 F3900 X131.186 Y124.975
G0 X131.131 Y111.233
G1 F1500 E93.7850
G1 F2400 X125.395 Y105.497 E94.2099
G0 F2400 X126.114 Y105.622
G1 F2400 X130.972 Y110.480 E94.5698
G0 F2400 X130.814 Y109.728
G1 F2400 X126.833 Y105.747 E94.8648
G0 F2400 X127.951 Y106.271
G1 F2400 X130.299 Y108.620 E95.0387
G0 F3900 X131.342 Y110.257
;TYPE:GAP-FILL
;WIDTH:0.420
G1 F2400 X131.447 Y110.361 E95.0465
G0 F3900 X130.332 Y110.593
;PRINTING_TIME: 75
;REMAINING_TIME: 330
;LAYER:1
;Z:0.600
;HEIGHT:0.300
M106 S64
;PRINTING: Bev??s??rl??_Coin_Cart_v2.STL
;PRINTING_ID: 0
G1 F2400 E92.0465
G0 F300 Z0.600
G0 F3900 X130.332 Y110.593
G0 X126.621 Y107.604
G0 X124.882 Y107.292
G0 X123.550 Y107.593
G0 X121.887 Y108.778
G0 X122.327 Y109.054
;TYPE:WALL-OUTER
;WIDTH:0.420
G1 F300 Z0.300
G1 F1500 E95.0465
G1 F2100 X121.510 Y110.360 Z0.323 E95.0527
G1 X121.288 Y111.763 Z0.344 E95.0637
G1 X121.661 Y113.258 Z0.368 E95.0819
G1 X122.515 Y114.392 Z0.389 E95.1039
G1 X123.729 Y115.122 Z0.410 E95.1311
G1 X125.130 Y115.344 Z0.431 E95.1637
G1 X126.510 Y115.024 Z0.453 E95.2014
G1 X127.672 Y114.211 Z0.474 E95.2445
G1 X128.489 Y112.904 Z0.497 E95.2975
G1 X128.711 Y111.503 Z0.518 E95.3515
