;Sliced by ideaMaker 5.2.4.8581, 2025-08-14 21:11:34 UTC+0200
;Slicer Version: 5.2.3.8580
;Dimension: 250.000 250.000 250.000 0.400
;Plate Shape: 0
;Origin Center: 0
;Extruder Offset #1: 25.000 0.000
;Filament Diameter #1: 1.750
;Filament Diameter #2: 1.750
;Filament Compensation #1: 94.000
;Filament Compensation #2: 90.000
;Filament Density #1: 1240.000
;Filament Density #2: 1240.000
;Filament Type #1: PLA
;Filament Type #2: PLA
;Filament Name #1: [Raise3D] Premium PLA 1.75mm
;Filament Name #2: [Raise3D] Premium PLA 1.75mm
;Filament #1: PLA 1.75mm
;Filament #2: PLA 1.75mm
;Printer Type: floppy
;Firmware: Klipper
;Bounding Box: 110.573 139.419 101.798 148.245 0.000 2.250
;Model Gap: 0.000
M221 T0 S94.00
M140 S50.00
M104 T0 S195.00
M109 T0 S195.00
T0
M190 S50.00
G21 ;metric values
G90 ;absolute positioning
M82 ;set extruder to absolute mode
M107 ;start with the fan off
G28 X0 Y0 ;move X/Y to min endstops
G28 Z0 ;move Z to min endstops
G1 Z15.0 F9000 ;move the platform down 15mm
G92 E0 ;zero the extruded length
G0 X43 Y27 F2000  ;go to the edge of the bed
G92 X0 Y0 E0 ;set zero to edge of the bed
G0 F9000 Z1 ;Z up with 1mm
G1 F200 Z0 ;Z home slowly
G1 Z15.0 F9000 ;move the platform down 15mm
G1 F9000 ;speed setting
G92 E-3 ;retraction
M117 Printing...
M1001
;TOTAL_NUM: 1
;PRINTING_TIME: 0
;REMAINING_TIME: 496
;LAYER:0
;Z:0.150
;HEIGHT:0.150
M106 S77
;PRINTING: NON-OBJECT
;PRINTING_ID: -1
G1 F2400 E-5.0000
SET_VELOCITY_LIMIT ACCEL=500.00
SET_VELOCITY_LIMIT SQUARE_CORNER_VELOCITY=5.00
G0 F3900 X117.647 Y105.062
G0 F300 Z0.150
;TYPE:SKIRT
;WIDTH:0.420
G1 F1500 E0.0000
G1 F900 X119.804 Y103.252 E0.0738
G1 X122.766 Y102.029 E0.1577
G1 X125.785 Y101.798 E0.2370
G1 X128.363 Y102.358 E0.3061
G1 X130.884 Y103.715 E0.3811
G1 X132.788 Y105.584 E0.4510
G1 X134.141 Y107.909 E0.5214
G1 X134.656 Y109.549 E0.5664
G1 X134.873 Y111.176 E0.6094
G1 X134.890 Y123.426 E0.9303
G1 X136.216 Y124.751 E0.9794
G1 X137.872 Y127.314 E1.0593
G1 X139.074 Y130.679 E1.1529
G1 X139.419 Y134.054 E1.2418
G1 X139.061 Y137.045 E1.3207
G1 X138.271 Y139.478 E1.3877
G1 X136.847 Y142.049 E1.4646
G1 X135.198 Y144.024 E1.5320
G1 X132.869 Y145.906 E1.6105
G1 X130.233 Y147.264 E1.6881
G1 X127.751 Y147.982 E1.7558
G1 X124.808 Y148.245 E1.8332
G1 X122.261 Y147.984 E1.9003
G1 X119.414 Y147.120 E1.9782
G1 X116.992 Y145.821 E2.0502
G1 X114.699 Y143.917 E2.1282
G1 X112.936 Y141.733 E2.2018
G1 X111.657 Y139.308 E2.2736
G1 X110.852 Y136.648 E2.3464
G1 X110.573 Y133.922 E2.4181
G1 X110.962 Y130.514 E2.5080
G1 X111.974 Y127.623 E2.5882
G1 X113.545 Y125.052 E2.6671
G1 X115.110 Y123.432 E2.7261
G1 X115.114 Y111.381 E3.0418
G1 X115.284 Y109.838 E3.0824
G1 X115.922 Y107.774 E3.1390
G1 X117.647 Y105.062 E3.2232
G0 F3900 X117.917 Y105.384
G1 F900 X120.074 Y103.574 E3.2969
G1 X122.801 Y102.448 E3.3742
G1 X125.698 Y102.209 E3.4504
G1 X128.166 Y102.729 E3.5164
G1 X130.590 Y104.015 E3.5883
G1 X132.494 Y105.884 E3.6582
G1 X133.777 Y108.118 E3.7257
G1 X134.255 Y109.672 E3.7682
G1 X134.456 Y111.230 E3.8094
G1 X134.470 Y123.600 E4.1334
G1 X135.919 Y125.048 E4.1870
G1 X137.518 Y127.541 E4.2646
G1 X138.678 Y130.819 E4.3557
G1 X139.001 Y134.095 E4.4419
G1 X138.644 Y136.994 E4.5184
G1 X137.872 Y139.347 E4.5833
G1 X136.480 Y141.844 E4.6582
G1 X134.876 Y143.754 E4.7235
G1 X132.606 Y145.579 E4.7998
G1 X130.042 Y146.890 E4.8752
G1 X127.636 Y147.578 E4.9407
G1 X124.772 Y147.827 E5.0160
G1 X122.305 Y147.566 E5.0810
G1 X119.537 Y146.718 E5.1568
G1 X117.192 Y145.451 E5.2267
G1 X114.968 Y143.595 E5.3025
G1 X113.264 Y141.470 E5.3739
G1 X112.029 Y139.113 E5.4436
G1 X111.254 Y136.527 E5.5143
G1 X110.991 Y133.880 E5.5840
G1 X111.379 Y130.563 E5.6714
G1 X112.370 Y127.763 E5.7492
G1 X113.903 Y125.272 E5.8258
G1 X115.530 Y123.603 E5.8869
G1 X115.534 Y111.381 E6.2070
G1 X115.701 Y109.885 E6.2464
G1 X116.278 Y107.997 E6.2981
G1 X117.917 Y105.384 E6.3789
G0 F3900 X118.189 Y105.704
G1 F900 X120.237 Y103.961 E6.4494
G1 X122.838 Y102.866 E6.5233
G1 X125.614 Y102.621 E6.5963
G1 X127.971 Y103.101 E6.6593
G1 X130.298 Y104.317 E6.7281
G1 X132.130 Y106.093 E6.7949
G1 X133.413 Y108.327 E6.8624
G1 X133.853 Y109.793 E6.9025
G1 X134.039 Y111.282 E6.9418
G1 X134.050 Y123.774 E7.2689
G1 X135.622 Y125.345 E7.3272
G1 X137.164 Y127.767 E7.4024
G1 X138.282 Y130.958 E7.4909
G1 X138.583 Y134.135 E7.5745
G1 X138.227 Y136.941 E7.6486
G1 X137.473 Y139.215 E7.7113
G1 X136.114 Y141.639 E7.7841
G1 X134.555 Y143.483 E7.8474
G1 X132.344 Y145.251 E7.9215
G1 X129.852 Y146.515 E7.9947
G1 X127.522 Y147.174 E8.0581
G1 X124.737 Y147.408 E8.1313
G1 X122.350 Y147.148 E8.1942
G1 X119.661 Y146.317 E8.2680
G1 X117.393 Y145.082 E8.3356
G1 X115.238 Y143.273 E8.4093
G1 X113.593 Y141.208 E8.4784
G1 X112.402 Y138.919 E8.5460
G1 X111.657 Y136.408 E8.6146
G1 X111.409 Y133.840 E8.6822
G1 X111.796 Y130.613 E8.7673
G1 X112.765 Y127.904 E8.8427
G1 X114.260 Y125.493 E8.9170
G1 X115.950 Y123.775 E8.9801
G1 X115.954 Y111.381 E9.3047
G1 X116.118 Y109.932 E9.3429
G1 X116.635 Y108.218 E9.3898
G1 X118.189 Y105.704 E9.4672
G0 F3900 X118.464 Y106.022
G1 F900 X120.403 Y104.347 E9.5344
G1 X122.878 Y103.284 E9.6049
G1 X125.530 Y103.033 E9.6747
G1 X127.887 Y103.513 E9.7377
G1 X130.008 Y104.621 E9.8004
G1 X131.766 Y106.302 E9.8641
G1 X133.049 Y108.536 E9.9315
G1 X133.450 Y109.911 E9.9691
G1 X133.622 Y111.332 E10.0065
G1 X133.630 Y123.948 E10.3370
G1 X135.325 Y125.642 E10.3998
G1 X136.809 Y127.991 E10.4725
G1 X137.864 Y130.998 E10.5560
G1 X138.165 Y134.175 E10.6396
G1 X137.811 Y136.887 E10.7112
G1 X137.075 Y139.081 E10.7718
G1 X135.748 Y141.433 E10.8426
G1 X134.235 Y143.211 E10.9037
G1 X132.083 Y144.922 E10.9757
G1 X129.663 Y146.140 E11.0467
G1 X127.409 Y146.769 E11.1080
G1 X124.703 Y146.989 E11.1791
G1 X122.397 Y146.731 E11.2399
G1 X119.786 Y145.916 E11.3115
G1 X117.595 Y144.714 E11.3770
G1 X115.509 Y142.952 E11.4485
G1 X113.922 Y140.947 E11.5155
G1 X112.775 Y138.726 E11.5809
G1 X112.060 Y136.290 E11.6474
G1 X111.827 Y133.801 E11.7129
G1 X112.213 Y130.664 E11.7957
G1 X113.160 Y128.047 E11.8686
G1 X114.616 Y125.716 E11.9406
G1 X116.370 Y123.948 E12.0058
G1 X116.374 Y111.381 E12.3350
G1 X116.535 Y109.980 E12.3719
G1 X116.994 Y108.436 E12.4141
G1 X118.464 Y106.022 E12.4881
G0 F3900 X118.823 Y106.240
G1 F900 X120.572 Y104.732 E12.5486
G1 X122.920 Y103.702 E12.6158
G1 X125.449 Y103.445 E12.6823
G1 X127.695 Y103.887 E12.7423
G1 X129.720 Y104.927 E12.8019
G1 X131.403 Y106.513 E12.8625
G1 X132.646 Y108.654 E12.9273
G1 X133.047 Y110.029 E12.9649
G1 X133.205 Y111.381 E13.0005
G1 X133.210 Y124.122 E13.3342
G1 X135.028 Y125.939 E13.4016
G1 X136.453 Y128.214 E13.4719
G1 X137.467 Y131.136 E13.5529
G1 X137.747 Y134.213 E13.6338
G1 X137.395 Y136.831 E13.7030
G1 X136.677 Y138.946 E13.7615
G1 X135.383 Y141.226 E13.8302
G1 X133.916 Y142.938 E13.8892
G1 X131.823 Y144.592 E13.9591
G1 X129.475 Y145.764 E14.0278
G1 X127.297 Y146.364 E14.0870
G1 X124.670 Y146.570 E14.1560
G1 X122.445 Y146.314 E14.2147
G1 X119.912 Y145.515 E14.2842
G1 X117.798 Y144.346 E14.3475
G1 X115.781 Y142.632 E14.4168
G1 X114.252 Y140.687 E14.4816
G1 X113.149 Y138.534 E14.5450
G1 X112.463 Y136.173 E14.6094
G1 X112.245 Y133.763 E14.6728
G1 X112.630 Y130.717 E14.7532
G1 X113.554 Y128.191 E14.8237
G1 X114.971 Y125.940 E14.8933
G1 X116.790 Y124.122 E14.9607
G1 X116.794 Y111.381 E15.2944
G1 X116.952 Y110.029 E15.3300
G1 X117.353 Y108.654 E15.3676
G1 X118.823 Y106.240 E15.4416
;PRINTING: Bev??s??rl??_Coin_Cart_v2.STL
;PRINTING_ID: 0
G1 F2400 E10.4416
G1 F300 Z0.350
G0 F3900 X122.327 Y109.053
;TYPE:WALL-OUTER
;WIDTH:0.420
G1 F300 Z0.150
G1 F1500 E15.4416
G1 F2400 X121.511 Y110.356 E15.4819
G1 X121.288 Y111.763 E15.5192
G1 X121.659 Y113.255 E15.5594
G1 X122.515 Y114.392 E15.5967
G1 X123.729 Y115.122 E15.6338
G1 X125.130 Y115.344 E15.6710
G1 X126.510 Y115.024 E15.7081
G1 X127.672 Y114.211 E15.7452
G1 X128.489 Y112.904 E15.7856
G1 X128.711 Y111.503 E15.8228
G1 X128.392 Y110.121 E15.8599
G1 X127.580 Y108.960 E15.8970
G1 X126.390 Y108.188 E15.9342
G1 X124.876 Y107.920 E15.9744
G1 X123.489 Y108.239 E16.0117
G1 X122.327 Y109.053 E16.0489
G1 F2400 E11.0489
G1 F300 Z0.350
G0 F3900 X121.887 Y108.777
G0 X120.923 Y110.136
G0 X118.814 Y124.975
G0 X118.570 Y125.094
G0 X118.210 Y124.721
G1 F300 Z0.150
G1 F1500 E16.0489
G1 F2400 X118.214 Y111.397 E16.3979
G1 X118.357 Y110.223 E16.4288
G1 X118.702 Y109.096 E16.4597
G1 X119.795 Y107.275 E16.5153
G1 X121.204 Y106.005 E16.5650
G1 X123.129 Y105.107 E16.6207
G1 X125.229 Y104.848 E16.6761
G1 X127.097 Y105.176 E16.7258
G1 X128.797 Y106.006 E16.7753
G1 X130.198 Y107.266 E16.8247
G1 X131.297 Y109.096 E16.8806
G1 X131.642 Y110.223 E16.9114
G1 X131.785 Y111.397 E16.9424
G1 X131.790 Y124.721 E17.2914
G1 X133.845 Y126.725 E17.3666
G1 X135.123 Y128.714 E17.4285
G1 X136.057 Y131.312 E17.5008
G1 X136.336 Y134.058 E17.5731
G1 X136.041 Y136.399 E17.6349
G1 X135.425 Y138.277 E17.6867
G1 X134.282 Y140.330 E17.7482
G1 X133.004 Y141.851 E17.8003
G1 X131.163 Y143.336 E17.8622
G1 X129.067 Y144.403 E17.9238
G1 X127.159 Y144.951 E17.9758
G1 X124.802 Y145.156 E18.0378
G1 X122.841 Y144.951 E18.0894
G1 X120.580 Y144.261 E18.1513
G1 X118.506 Y143.114 E18.2134
G1 X116.728 Y141.575 E18.2750
G1 X115.504 Y140.017 E18.3269
G1 X114.423 Y137.908 E18.3890
G1 X113.875 Y136.015 E18.4406
G1 X113.662 Y133.661 E18.5025
G1 X114.036 Y130.925 E18.5748
G1 X114.873 Y128.718 E18.6367
G1 X116.154 Y126.725 E18.6987
G1 X118.210 Y124.721 E18.7739
G1 F2400 E13.7739
G1 F300 Z0.350
G0 F3900 X118.570 Y125.094
G0 X118.814 Y124.975
G0 X120.923 Y110.136
G0 X121.927 Y108.713
G0 X122.016 Y108.758
;TYPE:WALL-INNER
;WIDTH:0.420
G1 F300 Z0.150
G1 F1500 E18.7739
G1 F2400 X121.110 Y110.206 E18.8187
G1 X120.860 Y111.782 E18.8604
G1 X121.272 Y113.439 E18.9052
G1 X122.229 Y114.710 E18.9468
G1 X123.583 Y115.524 E18.9882
G1 X125.145 Y115.772 E19.0296
G1 X126.684 Y115.415 E19.0710
G1 X127.983 Y114.506 E19.1126
G1 X128.890 Y113.054 E19.1574
G1 X129.139 Y111.488 E19.1989
G1 X128.783 Y109.947 E19.2404
G1 X127.877 Y108.652 E19.2818
G1 X126.547 Y107.789 E19.3233
G1 X124.865 Y107.492 E19.3680
G1 X123.315 Y107.848 E19.4097
G1 X122.016 Y108.758 E19.4512
G1 F2400 E14.4512
G1 F300 Z0.350
G0 F3900 X121.927 Y108.713
G0 X121.115 Y109.864
G0 X118.730 Y124.888
G0 X118.630 Y124.898
G1 F300 Z0.150
G1 F1500 E19.4512
G1 F2400 X118.634 Y111.423 E19.8042
G1 X119.089 Y109.268 E19.8618
G1 X120.123 Y107.545 E19.9145
G1 X121.439 Y106.359 E19.9609
G1 X123.246 Y105.516 E20.0131
G1 X125.218 Y105.273 E20.0651
G1 X126.966 Y105.579 E20.1116
G1 X128.560 Y106.358 E20.1581
G1 X129.870 Y107.536 E20.2042
G1 X130.910 Y109.268 E20.2572
G1 X131.365 Y111.423 E20.3148
G1 X131.370 Y124.898 E20.6678
G1 X133.518 Y126.992 E20.7464
G1 X134.744 Y128.901 E20.8058
G1 X135.644 Y131.406 E20.8755
G1 X135.913 Y134.053 E20.9452
G1 X135.629 Y136.306 E21.0047
G1 X135.038 Y138.108 E21.0543
G1 X133.935 Y140.091 E21.1138
G1 X132.709 Y141.550 E21.1637
G1 X130.933 Y142.982 E21.2234
G1 X128.912 Y144.010 E21.2828
G1 X127.082 Y144.536 E21.3327
G1 X124.806 Y144.734 E21.3925
G1 X122.925 Y144.537 E21.4421
G1 X120.745 Y143.872 E21.5018
G1 X118.748 Y142.768 E21.5615
G1 X117.033 Y141.284 E21.6209
G1 X115.859 Y139.789 E21.6707
G1 X114.815 Y137.752 E21.7307
G1 X114.290 Y135.937 E21.7802
G1 X114.085 Y133.671 E21.8398
G1 X114.446 Y131.029 E21.9096
G1 X115.250 Y128.908 E21.9690
G1 X116.481 Y126.992 E22.0287
G1 X118.630 Y124.898 E22.1073
G1 F2400 E17.1073
G1 F300 Z0.350
G0 F3900 X118.730 Y124.888
G0 X115.802 Y139.264
;TYPE:SOLID-FILL
;WIDTH:0.420
G1 F300 Z0.150
G1 F1500 E22.1073
G1 F2400 X119.511 Y142.973 E22.2447
G0 F2400 X120.833 Y143.701
G1 F2400 X115.177 Y138.045 E22.4542
G0 F2400 X114.821 Y137.095
G1 F2400 X121.687 Y143.961 E22.7085
G0 F2400 X122.541 Y144.221
G1 F2400 X114.578 Y136.258 E23.0034
G0 F2400 X114.441 Y135.527
G1 F2400 X123.298 Y144.384 E23.3315
G0 F2400 X123.962 Y144.454
G1 F2400 X114.383 Y134.874 E23.6864
G0 F2400 X114.323 Y134.221
G1 F2400 X124.626 Y144.524 E24.0680
G0 F2400 X125.204 Y144.508
G1 F2400 X114.286 Y133.590 E24.4724
G0 F2400 X114.357 Y133.067
G1 F2400 X125.751 Y144.461 E24.8945
G0 F2400 X126.297 Y144.413
G1 F2400 X114.428 Y132.545 E25.3341
G0 F2400 X114.501 Y132.023
G1 F2400 X126.844 Y144.366 E25.7913
G0 F2400 X127.337 Y144.266
G1 F2400 X114.572 Y131.500 E26.2642
G0 F2400 X114.660 Y130.995
G1 F2400 X127.798 Y144.133 E26.7508
G0 F2400 X128.259 Y144.000
G1 F2400 X114.824 Y130.564 E27.2485
G0 F2400 X114.987 Y130.133
G1 F2400 X128.721 Y143.867 E27.7572
G0 F2400 X129.132 Y143.684
G1 F2400 X115.150 Y129.703 E28.2751
G0 F2400 X115.313 Y129.271
G1 F2400 X129.526 Y143.484 E28.8016
G0 F2400 X129.920 Y143.284
G1 F2400 X115.501 Y128.865 E29.3357
G0 F2400 X115.733 Y128.503
G1 F2400 X130.314 Y143.084 E29.8758
G0 F2400 X130.707 Y142.883
G1 F2400 X115.966 Y128.142 E30.4218
G0 F2400 X116.198 Y127.780
G1 F2400 X131.056 Y142.638 E30.9722
G0 F2400 X131.385 Y142.373
G1 F2400 X116.430 Y127.419 E31.5261
G0 F2400 X116.674 Y127.068
G1 F2400 X131.714 Y142.108 E32.0832
G0 F2400 X132.042 Y141.843
G1 F2400 X116.975 Y126.775 E32.6414
G0 F2400 X117.275 Y126.482
G1 F2400 X132.371 Y141.578 E33.2005
G0 F2400 X132.679 Y141.291
G1 F2400 X117.576 Y126.188 E33.7600
G0 F2400 X117.877 Y125.896
G1 F2400 X132.950 Y140.968 E34.3183
G0 F2400 X133.221 Y140.646
G1 F2400 X118.178 Y125.602 E34.8755
G0 F2400 X118.478 Y125.309
G1 F2400 X133.492 Y140.323 E35.4317
G0 F2400 X133.764 Y140.000
G1 F2400 X118.779 Y125.016 E35.9867
G0 F2400 X118.818 Y124.461
G1 F2400 X133.979 Y139.621 E36.5483
G0 F2400 X134.191 Y139.239
G1 F2400 X118.818 Y123.867 E37.1177
G0 F2400 X118.818 Y123.273
G1 F2400 X134.403 Y138.858 E37.6950
G0 F2400 X134.616 Y138.476
G1 F2400 X118.818 Y122.679 E38.2802
G0 F2400 X118.819 Y122.086
G1 F2400 X134.828 Y138.095 E38.8732
G0 F2400 X134.985 Y137.658
G1 F2400 X118.819 Y121.492 E39.4720
G0 F2400 X118.819 Y120.898
G1 F2400 X135.133 Y137.211 E40.0762
G0 F2400 X135.280 Y136.765
G1 F2400 X118.819 Y120.304 E40.6860
G0 F2400 X118.819 Y119.710
G1 F2400 X135.427 Y136.318 E41.3012
G0 F2400 X135.502 Y135.799
G1 F2400 X118.820 Y119.117 E41.9191
G0 F2400 X118.820 Y118.523
G1 F2400 X135.569 Y135.272 E42.5395
G0 F2400 X135.635 Y134.744
G1 F2400 X118.820 Y117.929 E43.1624
G0 F2400 X118.820 Y117.335
G1 F2400 X135.701 Y134.216 E43.7877
G0 F2400 X135.676 Y133.597
G1 F2400 X118.820 Y116.741 E44.4120
G0 F2400 X118.820 Y116.147
G1 F2400 X135.609 Y132.936 E45.0339
G0 F2400 X135.542 Y132.275
G1 F2400 X118.820 Y115.553 E45.6533
G0 F2400 X118.820 Y114.960
G1 F2400 X135.475 Y131.614 E46.2703
G0 F2400 X135.209 Y130.754
G1 F2400 X118.820 Y114.366 E46.8773
G0 F2400 X118.821 Y113.772
G1 F2400 X134.875 Y129.826 E47.4720
G0 F2400 X134.473 Y128.830
G1 F2400 X118.821 Y113.178 E48.0517
G0 F2400 X118.821 Y112.584
G1 F2400 X131.180 Y124.943 E48.5095
G0 F2400 X131.180 Y124.349
G1 F2400 X118.821 Y111.990 E48.9673
G0 F2400 X118.830 Y111.405
G1 F2400 X121.562 Y114.137 E49.0685
G0 F2400 X120.951 Y112.932
G1 F2400 X118.933 Y110.914 E49.1433
G0 F2400 X119.036 Y110.423
G1 F2400 X120.754 Y112.141 E49.2069
G0 F2400 X120.712 Y111.505
G1 F2400 X119.140 Y109.933 E49.2652
G0 F2400 X119.243 Y109.443
G1 F2400 X120.793 Y110.993 E49.3226
G0 F2400 X120.874 Y110.480
G1 F2400 X119.440 Y109.046 E49.3757
G0 F2400 X119.663 Y108.675
G1 F2400 X121.005 Y110.016 E49.4254
G0 F2400 X121.234 Y109.651
G1 F2400 X119.887 Y108.304 E49.4753
G0 F2400 X120.109 Y107.933
G1 F2400 X121.462 Y109.286 E49.5254
G0 F2400 X121.690 Y108.920
G1 F2400 X120.358 Y107.588 E49.5747
G0 F2400 X120.670 Y107.306
G1 F2400 X121.941 Y108.576 E49.6218
G0 F2400 X122.290 Y108.332
G1 F2400 X120.983 Y107.024 E49.6702
G0 F2400 X121.294 Y106.742
G1 F2400 X122.639 Y108.087 E49.7200
G0 F2400 X122.989 Y107.842
G1 F2400 X121.626 Y106.480 E49.7705
G0 F2400 X122.031 Y106.291
G1 F2400 X123.378 Y107.637 E49.8204
G0 F2400 X123.861 Y107.527
G1 F2400 X122.436 Y106.102 E49.8732
G0 F2400 X122.841 Y105.913
G1 F2400 X124.344 Y107.416 E49.9288
G0 F2400 X124.827 Y107.305
G1 F2400 X123.246 Y105.724 E49.9874
G0 F2400 X123.759 Y105.643
G1 F2400 X125.534 Y107.418 E50.0532
G0 F2400 X126.255 Y107.545
G1 F2400 X124.288 Y105.578 E50.1260
G0 F2400 X124.817 Y105.513
G1 F2400 X127.459 Y108.155 E50.2239
G0 F2400 X128.460 Y109.156
