;Sliced by ideaMaker 5.3.2.8640, 2025-12-06 15:23:35 UTC+0100
;Slicer Version: 5.3.0.8620
;Dimension: 250.000 250.000 250.000 0.400
;Plate Shape: 0
;Origin Center: 0
;Extruder Offset #1: 25.000 0.000
;Filament Diameter #1: 1.750
;Filament Diameter #2: 1.750
;Filament Compensation #1: 94.000
;Filament Compensation #2: 90.000
;Filament Density #1: 1240.000
;Filament Density #2: 1240.000
;Filament Type #1: PLA
;Filament Type #2: PLA
;Filament Name #1: [Raise3D] Premium PLA 1.75mm
;Filament Name #2: [Raise3D] Premium PLA 1.75mm
;Filament #1: PLA 1.75mm
;Filament #2: PLA 1.75mm
;Printer Type: floppy
;Firmware: Klipper
;Bounding Box: 97.450 152.550 111.986 138.186 0.000 6.450
;Model Gap: 0.000
M221 T0 S94.00
M140 S45.00
M104 T0 S195.00
M109 T0 S195.00
T0
M190 S45.00
G21 ;metric values
G90 ;absolute positioning
M82 ;set extruder to absolute mode
M107 ;start with the fan off
G28 X0 Y0 ;move X/Y to min endstops
G28 Z0 ;move Z to min endstops
G1 Z15.0 F9000 ;move the platform down 15mm

G92 E0 ;zero the extruded length

G0 X43 Y27 F2000  ;go to the edge of the bed
G92 X0 Y0 E0 ;set zero to edge of the bed
G0 F9000 Z1 ;Z up with 1mm
G1 F200 Z0 ;Z home slowly

G1 Z15.0 F9000 ;move the platform down 15mm

G1 F9000 ;speed setting
G92 E-3 ;retraction
M117 Printing...
M1001
;TOTAL_NUM: 1
;PRINTING_TIME: 0
;REMAINING_TIME: 578
;LAYER:0
;Z:0.150
;HEIGHT:0.150
M106 S153
;PRINTING: NON-OBJECT
;PRINTING_ID: -1
G1 F2400 E-5.0000
SET_VELOCITY_LIMIT ACCEL=500.00
SET_VELOCITY_LIMIT SQUARE_CORNER_VELOCITY=5.00
G0 F3900 X98.428 Y113.488
G0 F300 Z0.150
;TYPE:SKIRT
;WIDTH:0.420
G1 F1500 E0.0000
G1 F900 X100.362 Y111.986 E0.0641
G1 X149.406 Y112.015 E1.3487
G1 X151.529 Y113.156 E1.4118
G1 X152.451 Y115.607 E1.4804
G1 X152.550 Y134.177 E1.9668
G1 X151.573 Y136.511 E2.0331
G1 X149.889 Y137.922 E2.0907
G1 X101.453 Y138.186 E3.3593
G1 X98.947 Y137.062 E3.4313
G1 X97.690 Y135.444 E3.4849
G1 X97.450 Y115.834 E3.9986
G1 X98.428 Y113.488 E4.0652
G0 F3900 X98.813 Y113.655
G1 F900 X100.470 Y112.392 E4.1197
G1 X149.212 Y112.388 E5.3964
G1 X151.208 Y113.427 E5.4553
G1 X152.031 Y115.609 E5.5164
G1 X152.130 Y134.179 E6.0028
G1 X151.188 Y136.343 E6.0646
G1 X149.765 Y137.521 E6.1130
G1 X101.451 Y137.766 E7.3785
G1 X99.125 Y136.681 E7.4457
G1 X98.096 Y135.335 E7.4901
G1 X97.870 Y115.829 E8.0010
G1 X98.813 Y113.655 E8.0631
G0 F3900 X99.195 Y113.829
G1 F900 X100.574 Y112.799 E8.1082
G1 X149.212 Y112.808 E9.3821
G1 X150.885 Y113.695 E9.4317
G1 X151.611 Y115.611 E9.4854
G1 X151.710 Y134.181 E9.9718
G1 X150.806 Y136.169 E10.0290
G1 X149.643 Y137.119 E10.0683
G1 X101.449 Y137.346 E11.3307
G1 X99.309 Y136.303 E11.3930
G1 X98.503 Y135.230 E11.4282
G1 X98.290 Y115.824 E11.9365
G1 X99.195 Y113.829 E11.9939
G0 F3900 X99.574 Y114.010
G1 F900 X100.674 Y113.207 E12.0295
G1 X149.212 Y113.228 E13.3009
G1 X150.559 Y113.960 E13.3410
G1 X151.191 Y115.613 E13.3874
G1 X151.290 Y134.183 E13.8738
G1 X150.427 Y135.988 E13.9262
G1 X149.524 Y136.716 E13.9566
G1 X101.447 Y136.926 E15.2158
G1 X99.501 Y135.929 E15.2731
G1 X98.910 Y135.128 E15.2992
G1 X98.710 Y115.820 E15.8049
G1 X99.574 Y114.010 E15.8574
G0 F3900 X99.949 Y114.200
G1 F900 X100.769 Y113.616 E15.8838
G1 X149.212 Y113.648 E17.1527
G1 X150.229 Y114.220 E17.1832
G1 X150.771 Y115.615 E17.2224
G1 X150.870 Y134.185 E17.7088
G1 X150.052 Y135.798 E17.7562
G1 X149.407 Y136.313 E17.7778
G1 X101.445 Y136.506 E19.0340
G1 X99.701 Y135.560 E19.0860
G1 X99.318 Y135.030 E19.1031
G1 X99.130 Y115.816 E19.6064
G1 X99.949 Y114.200 E19.6539
G0 F3900 X100.318 Y114.401
G1 F900 X100.859 Y114.026 E19.6711
G1 X149.016 Y114.020 E20.9325
G1 X149.906 Y114.489 E20.9588
G1 X150.351 Y115.617 E20.9906
G1 X150.450 Y134.187 E21.4770
G1 X149.683 Y135.597 E21.5190
G1 X149.290 Y135.910 E21.5322
G1 X101.443 Y136.086 E22.7854
G1 X99.912 Y135.197 E22.8318
G1 X99.727 Y134.936 E22.8402
G1 X99.550 Y115.812 E23.3411
G1 X100.318 Y114.401 E23.3832
G0 F3900 X100.679 Y114.616
G1 F900 X100.944 Y114.437 E23.3915
G1 X149.016 Y114.440 E24.6507
G1 X149.578 Y114.751 E24.6675
G1 X149.931 Y115.619 E24.6920
G1 X150.030 Y134.189 E25.1784
G1 X149.322 Y135.383 E25.2148
G1 X149.056 Y135.561 E25.2232
G1 X101.442 Y135.666 E26.4703
G1 X100.136 Y134.842 E26.5107
G1 X99.970 Y115.808 E27.0093
G1 X100.679 Y114.616 E27.0456
G0 F3900 X100.390 Y115.806
G1 F900 X101.028 Y114.849 E27.0758
G1 X148.831 Y114.817 E28.3278
G1 X149.263 Y115.029 E28.3404
G1 X149.511 Y115.621 E28.3572
G1 X149.610 Y134.191 E28.8436
G1 X148.972 Y135.150 E28.8738
G1 X101.441 Y135.246 E30.1188
G1 X100.485 Y134.608 E30.1489
G1 X100.390 Y115.806 E30.6413
G0 F3900 X100.810 Y115.805
G1 F900 X101.247 Y115.208 E30.6607
G1 X148.671 Y115.205 E31.9029
G1 X148.967 Y115.327 E31.9113
G1 X149.091 Y115.623 E31.9197
G1 X149.190 Y134.193 E32.4061
G1 X148.753 Y134.792 E32.4255
G1 X101.441 Y134.826 E33.6647
G1 X100.844 Y134.389 E33.6841
G1 X100.810 Y115.805 E34.1708
G0 F3900 X101.230 Y115.805
G1 F900 X101.346 Y115.616 E34.1766
G1 X148.671 Y115.625 E35.4162
G1 X148.770 Y134.195 E35.9026
G1 X148.654 Y134.384 E35.9084
G1 X101.441 Y134.406 E37.1450
G1 X101.252 Y134.290 E37.1508
G1 X101.230 Y115.805 E37.6350
;PRINTING: Breaker_Filler_Plate_-_Schneider_-_1-UP.stl
;PRINTING_ID: 0
G1 F2400 E32.6350
G1 F300 Z0.350
G0 F3900 X101.650 Y116.014
;TYPE:WALL-OUTER
;WIDTH:0.420
G1 F300 Z0.150
G1 F1500 E37.6350
G1 F2400 X148.350 Y116.014 E38.8582
G1 X148.350 Y133.986 E39.3289
G1 X101.650 Y133.986 E40.5521
G1 X101.650 Y116.014 E41.0228
G0 F3900 X102.070 Y116.434
;TYPE:WALL-INNER
;WIDTH:0.420
G1 F2400 X147.930 Y116.434 E42.2240
G1 X147.930 Y133.566 E42.6727
G1 X102.070 Y133.566 E43.8739
G1 X102.070 Y116.434 E44.3226
G1 F2400 E39.3226
G1 F300 Z0.350
G0 F3900 X102.170 Y116.444
G0 X102.258 Y132.848
;TYPE:SOLID-FILL
;WIDTH:0.420
G1 F300 Z0.150
G1 F1500 E44.3226
G1 F2400 X102.786 Y133.375 E44.3422
G0 F2400 X103.380 Y133.375
G1 F2400 X102.258 Y132.254 E44.3837
G0 F2400 X102.258 Y131.660
G1 F2400 X103.974 Y133.375 E44.4473
G0 F2400 X104.568 Y133.375
G1 F2400 X102.258 Y131.066 E44.5328
G0 F2400 X102.258 Y130.472
G1 F2400 X105.162 Y133.375 E44.6404
G0 F2400 X105.756 Y133.375
G1 F2400 X102.258 Y129.878 E44.7699
G0 F2400 X102.258 Y129.284
G1 F2400 X106.350 Y133.375 E44.9215
G0 F2400 X106.944 Y133.375
G1 F2400 X102.258 Y128.690 E45.0950
G0 F2400 X102.258 Y128.096
G1 F2400 X107.538 Y133.375 E45.2906
G0 F2400 X108.132 Y133.375
G1 F2400 X102.258 Y127.502 E45.5081
G0 F2400 X102.258 Y126.908
G1 F2400 X108.726 Y133.375 E45.7477
G0 F2400 X109.320 Y133.375
G1 F2400 X102.258 Y126.314 E46.0093
G0 F2400 X102.258 Y125.720
G1 F2400 X109.914 Y133.375 E46.2929
G0 F2400 X110.508 Y133.375
G1 F2400 X102.258 Y125.126 E46.5984
G0 F2400 X102.258 Y124.532
G1 F2400 X111.102 Y133.375 E46.9260
G0 F2400 X111.696 Y133.375
G1 F2400 X102.258 Y123.938 E47.2756
G0 F2400 X102.258 Y123.344
G1 F2400 X112.289 Y133.375 E47.6472
G0 F2400 X112.883 Y133.375
G1 F2400 X102.258 Y122.750 E48.0407
G0 F2400 X102.258 Y122.156
G1 F2400 X113.477 Y133.375 E48.4563
G0 F2400 X114.071 Y133.375
G1 F2400 X102.258 Y121.562 E48.8939
G0 F2400 X102.258 Y120.968
G1 F2400 X114.665 Y133.375 E49.3534
G0 F2400 X115.259 Y133.375
G1 F2400 X102.258 Y120.375 E49.8350
G0 F2400 X102.258 Y119.781
G1 F2400 X115.853 Y133.375 E50.3386
G0 F2400 X116.447 Y133.375
G1 F2400 X102.258 Y119.187 E50.8641
G0 F2400 X102.258 Y118.593
G1 F2400 X117.041 Y133.375 E51.4117
G0 F2400 X117.635 Y133.375
G1 F2400 X102.258 Y117.999 E51.9813
G0 F2400 X102.258 Y117.405
G1 F2400 X118.229 Y133.375 E52.5728
G0 F2400 X118.823 Y133.375
G1 F2400 X102.258 Y116.811 E53.1864
G0 F2400 X102.664 Y116.622
G1 F2400 X119.417 Y133.375 E53.8070
G0 F2400 X120.011 Y133.375
G1 F2400 X103.258 Y116.622 E54.4275
G0 F2400 X103.852 Y116.622
G1 F2400 X120.605 Y133.375 E55.0481
G0 F2400 X121.199 Y133.375
G1 F2400 X104.446 Y116.622 E55.6686
G0 F2400 X105.040 Y116.622
G1 F2400 X121.793 Y133.375 E56.2892
G0 F2400 X122.387 Y133.375
G1 F2400 X105.633 Y116.622 E56.9098
G0 F2400 X106.227 Y116.622
G1 F2400 X122.981 Y133.375 E57.5303
G0 F2400 X123.575 Y133.375
G1 F2400 X106.821 Y116.622 E58.1509
G0 F2400 X107.415 Y116.622
G1 F2400 X124.169 Y133.375 E58.7715
G0 F2400 X124.763 Y133.375
G1 F2400 X108.009 Y116.622 E59.3921
G0 F2400 X108.603 Y116.622
G1 F2400 X125.358 Y133.376 E60.0127
G0 F2400 X125.951 Y133.376
G1 F2400 X109.197 Y116.622 E60.6333
G0 F2400 X109.791 Y116.622
G1 F2400 X126.545 Y133.376 E61.2539
G0 F2400 X127.139 Y133.376
G1 F2400 X110.385 Y116.622 E61.8745
G0 F2400 X110.979 Y116.622
G1 F2400 X127.733 Y133.376 E62.4951
G0 F2400 X128.327 Y133.376
G1 F2400 X111.573 Y116.622 E63.1157
G0 F2400 X112.167 Y116.622
G1 F2400 X128.921 Y133.376 E63.7363
G0 F2400 X129.515 Y133.376
G1 F2400 X112.761 Y116.622 E64.3569
G0 F2400 X113.355 Y116.622
G1 F2400 X130.109 Y133.376 E64.9774
G0 F2400 X130.703 Y133.376
G1 F2400 X113.949 Y116.622 E65.5980
G0 F2400 X114.543 Y116.622
G1 F2400 X131.297 Y133.376 E66.2186
G0 F2400 X131.891 Y133.376
G1 F2400 X115.137 Y116.622 E66.8392
G0 F2400 X115.731 Y116.622
G1 F2400 X132.485 Y133.376 E67.4598
G0 F2400 X133.079 Y133.376
G1 F2400 X116.325 Y116.622 E68.0804
G0 F2400 X116.919 Y116.622
G1 F2400 X133.673 Y133.376 E68.7010
G0 F2400 X134.267 Y133.376
G1 F2400 X117.513 Y116.622 E69.3216
G0 F2400 X118.107 Y116.622
G1 F2400 X134.861 Y133.376 E69.9422
G0 F2400 X135.455 Y133.376
G1 F2400 X118.701 Y116.622 E70.5628
G0 F2400 X119.295 Y116.622
G1 F2400 X136.049 Y133.376 E71.1834
G0 F2400 X136.643 Y133.376
G1 F2400 X119.889 Y116.622 E71.8040
G0 F2400 X120.483 Y116.622
G1 F2400 X137.237 Y133.376 E72.4246
G0 F2400 X137.831 Y133.376
G1 F2400 X121.077 Y116.622 E73.0452
G0 F2400 X121.671 Y116.622
G1 F2400 X138.425 Y133.376 E73.6658
G0 F2400 X139.019 Y133.376
G1 F2400 X122.265 Y116.622 E74.2864
G0 F2400 X122.859 Y116.622
G1 F2400 X139.613 Y133.376 E74.9070
G0 F2400 X140.207 Y133.376
G1 F2400 X123.453 Y116.622 E75.5276
G0 F2400 X124.047 Y116.622
G1 F2400 X140.801 Y133.376 E76.1482
G0 F2400 X141.395 Y133.376
G1 F2400 X124.641 Y116.622 E76.7687
G0 F2400 X125.235 Y116.623
G1 F2400 X141.989 Y133.376 E77.3893
G0 F2400 X142.583 Y133.376
G1 F2400 X125.829 Y116.623 E78.0099
G0 F2400 X126.423 Y116.623
G1 F2400 X143.177 Y133.376 E78.6305
G0 F2400 X143.771 Y133.376
G1 F2400 X127.017 Y116.623 E79.2511
G0 F2400 X127.611 Y116.623
G1 F2400 X144.365 Y133.376 E79.8716
G0 F2400 X144.959 Y133.376
G1 F2400 X128.205 Y116.623 E80.4922
G0 F2400 X128.799 Y116.623
G1 F2400 X145.552 Y133.376 E81.1128
G0 F2400 X146.146 Y133.376
G1 F2400 X129.393 Y116.623 E81.7333
G0 F2400 X129.987 Y116.623
G1 F2400 X146.740 Y133.376 E82.3539
G0 F2400 X147.334 Y133.376
G1 F2400 X130.581 Y116.623 E82.9744
G0 F2400 X131.175 Y116.623
G1 F2400 X147.740 Y133.187 E83.5880
G0 F2400 X147.740 Y132.593
G1 F2400 X131.769 Y116.623 E84.1796
G0 F2400 X132.363 Y116.623
G1 F2400 X147.740 Y131.999 E84.7492
G0 F2400 X147.740 Y131.405
G1 F2400 X132.957 Y116.623 E85.2967
G0 F2400 X133.551 Y116.623
G1 F2400 X147.740 Y130.811 E85.8223
G0 F2400 X147.740 Y130.217
G1 F2400 X134.145 Y116.623 E86.3258
G0 F2400 X134.739 Y116.623
G1 F2400 X147.740 Y129.623 E86.8074
G0 F2400 X147.740 Y129.030
G1 F2400 X135.333 Y116.623 E87.2670
G0 F2400 X135.927 Y116.623
G1 F2400 X147.740 Y128.436 E87.7046
G0 F2400 X147.740 Y127.842
G1 F2400 X136.521 Y116.623 E88.1201
G0 F2400 X137.115 Y116.623
G1 F2400 X147.740 Y127.248 E88.5137
G0 F2400 X147.740 Y126.654
G1 F2400 X137.709 Y116.623 E88.8853
G0 F2400 X138.303 Y116.623
G1 F2400 X147.740 Y126.060 E89.2348
G0 F2400 X147.740 Y125.466
G1 F2400 X138.896 Y116.623 E89.5624
G0 F2400 X139.490 Y116.623
G1 F2400 X147.740 Y124.872 E89.8680
G0 F2400 X147.740 Y124.278
G1 F2400 X140.084 Y116.623 E90.1515
G0 F2400 X140.678 Y116.623
G1 F2400 X147.740 Y123.684 E90.4131
G0 F2400 X147.740 Y123.090
G1 F2400 X141.272 Y116.623 E90.6527
G0 F2400 X141.866 Y116.623
G1 F2400 X147.740 Y122.496 E90.8702
G0 F2400 X147.740 Y121.902
G1 F2400 X142.460 Y116.623 E91.0658
G0 F2400 X143.054 Y116.623
G1 F2400 X147.740 Y121.308 E91.2394
G0 F2400 X147.740 Y120.714
G1 F2400 X143.648 Y116.623 E91.3909
G0 F2400 X144.242 Y116.623
G1 F2400 X147.740 Y120.120 E91.5205
G0 F2400 X147.740 Y119.526
G1 F2400 X144.836 Y116.623 E91.6280
G0 F2400 X145.430 Y116.623
G1 F2400 X147.740 Y118.932 E91.7136
G0 F2400 X147.740 Y118.338
G1 F2400 X146.024 Y116.623 E91.7771
G0 F2400 X146.618 Y116.623
G1 F2400 X147.740 Y117.744 E91.8186
G0 F2400 X147.740 Y117.150
G1 F2400 X147.212 Y116.623 E91.8382
;PRINTING_TIME: 165
;REMAINING_TIME: 413
;LAYER:1
;Z:0.450
;HEIGHT:0.300
;PRINTING: Breaker_Filler_Plate_-_Schneider_-_1-UP.stl
;PRINTING_ID: 0
G1 F2400 E86.8382
G1 F300 Z0.650
G0 F3900 X102.170 Y116.444
G0 F300 Z0.450
G0 F3900 X101.650 Y116.014
;TYPE:WALL-OUTER
;WIDTH:0.420
G1 F300 Z0.450
G1 F1500 E91.8382
G1 F2100 X148.350 Y116.014 E94.2846
G1 X148.350 Y133.986 E95.2260
G1 X101.650 Y133.986 E97.6724
G1 X101.650 Y116.014 E98.6138
G0 F3900 X102.070 Y116.434
;TYPE:WALL-INNER
;WIDTH:0.420
;FLOW:90.0
G1 F2400 X147.930 Y116.434 E100.7760
G1 X147.930 Y133.566 E101.5837
G1 X102.070 Y133.566 E103.7458
G1 X102.070 Y116.434 E104.5535
G0 F3900 X102.258 Y117.212
;TYPE:SOLID-FILL
;WIDTH:0.420
;FLOW:95.0
G1 F2700 X102.850 Y116.621 E104.5951
G0 F2700 X103.444 Y116.621
G1 F2700 X102.258 Y117.806 E104.6786
G0 F2700 X102.258 Y118.400
G1 F2700 X104.038 Y116.621 E104.8038
G0 F2700 X104.632 Y116.621
G1 F2700 X102.258 Y118.994 E104.9709
G0 F2700 X102.258 Y119.588
G1 F2700 X105.225 Y116.621 E105.1797
G0 F2700 X105.819 Y116.621
G1 F2700 X102.258 Y120.182 E105.4303
G0 F2700 X102.258 Y120.776
G1 F2700 X106.413 Y116.621 E105.7227
G0 F2700 X107.007 Y116.621
G1 F2700 X102.258 Y121.370 E106.0569
G0 F2700 X102.258 Y121.964
G1 F2700 X107.601 Y116.621 E106.4330
G0 F2700 X108.195 Y116.621
G1 F2700 X102.258 Y122.558 E106.8508
G0 F2700 X102.258 Y123.152
G1 F2700 X108.789 Y116.621 E107.3105
G0 F2700 X109.383 Y116.621
G1 F2700 X102.258 Y123.746 E107.8119
G0 F2700 X102.258 Y124.340
G1 F2700 X109.977 Y116.621 E108.3552
G0 F2700 X110.571 Y116.621
G1 F2700 X102.258 Y124.934 E108.9402
G0 F2700 X102.258 Y125.528
G1 F2700 X111.165 Y116.621 E109.5671
G0 F2700 X111.759 Y116.621
G1 F2700 X102.258 Y126.122 E110.2358
G0 F2700 X102.258 Y126.716
G1 F2700 X112.353 Y116.621 E110.9462
G0 F2700 X112.947 Y116.621
G1 F2700 X102.258 Y127.310 E111.6985
G0 F2700 X102.258 Y127.904
G1 F2700 X113.541 Y116.621 E112.4926
G0 F2700 X114.135 Y116.621
G1 F2700 X102.258 Y128.498 E113.3285
G0 F2700 X102.258 Y129.092
G1 F2700 X114.729 Y116.621 E114.2062
G0 F2700 X115.323 Y116.621
G1 F2700 X102.258 Y129.686 E115.1257
G0 F2700 X102.258 Y130.280
G1 F2700 X115.917 Y116.621 E116.0870
G0 F2700 X116.511 Y116.621
G1 F2700 X102.258 Y130.874 E117.0901
G0 F2700 X102.258 Y131.468
G1 F2700 X117.105 Y116.621 E118.1350
G0 F2700 X117.699 Y116.621
G1 F2700 X102.258 Y132.062 E119.2218
G0 F2700 X102.258 Y132.656
G1 F2700 X118.293 Y116.621 E120.3503
G0 F2700 X118.887 Y116.621
G1 F2700 X102.258 Y133.250 E121.5206
G0 F2700 X102.726 Y133.376
G1 F2700 X119.481 Y116.621 E122.6998
G0 F2700 X120.075 Y116.621
G1 F2700 X103.320 Y133.376 E123.8790
G0 F2700 X103.914 Y133.376
G1 F2700 X120.669 Y116.621 E125.0582
G0 F2700 X121.263 Y116.621
G1 F2700 X104.508 Y133.376 E126.2374
G0 F2700 X105.102 Y133.376
G1 F2700 X121.857 Y116.621 E127.4166
G0 F2700 X122.451 Y116.621
G1 F2700 X105.696 Y133.376 E128.5958
G0 F2700 X106.290 Y133.376
G1 F2700 X123.045 Y116.621 E129.7750
G0 F2700 X123.639 Y116.621
G1 F2700 X106.884 Y133.376 E130.9542
G0 F2700 X107.478 Y133.376
G1 F2700 X124.233 Y116.621 E132.1334
G0 F2700 X124.826 Y116.621
G1 F2700 X108.072 Y133.376 E133.3126
G0 F2700 X108.666 Y133.376
G1 F2700 X125.420 Y116.622 E134.4917
G0 F2700 X126.014 Y116.622
G1 F2700 X109.260 Y133.376 E135.6709
G0 F2700 X109.853 Y133.376
G1 F2700 X126.608 Y116.622 E136.8500
G0 F2700 X127.202 Y116.622
G1 F2700 X110.447 Y133.376 E138.0292
G0 F2700 X111.041 Y133.376
G1 F2700 X127.796 Y116.622 E139.2083
G0 F2700 X128.390 Y116.622
G1 F2700 X111.635 Y133.376 E140.3875
G0 F2700 X112.229 Y133.376
G1 F2700 X128.984 Y116.622 E141.5667
G0 F2700 X129.578 Y116.622
G1 F2700 X112.823 Y133.376 E142.7458
G0 F2700 X113.417 Y133.376
G1 F2700 X130.171 Y116.622 E143.9250
G0 F2700 X130.765 Y116.622
G1 F2700 X114.011 Y133.376 E145.1041
