;Sliced by ideaMaker 5.3.2.8640, 2025-12-06 17:37:00 UTC+0100
;Slicer Version: 5.3.0.8620
;Dimension: 250.000 250.000 250.000 0.400
;Plate Shape: 0
;Origin Center: 0
;Extruder Offset #1: 25.000 0.000
;Filament Diameter #1: 1.750
;Filament Diameter #2: 1.750
;Filament Compensation #1: 94.000
;Filament Compensation #2: 90.000
;Filament Density #1: 1240.000
;Filament Density #2: 1240.000
;Filament Type #1: PLA
;Filament Type #2: PLA
;Filament Name #1: [Raise3D] Premium PLA 1.75mm
;Filament Name #2: [Raise3D] Premium PLA 1.75mm
;Filament #1: PLA 1.75mm
;Filament #2: PLA 1.75mm
;Printer Type: floppy
;Firmware: Klipper
;Bounding Box: 96.519 153.480 111.714 138.548 0.000 6.750
;Model Gap: 0.000
M221 T0 S94.00
M140 S45.00
M104 T0 S195.00
M109 T0 S195.00
T0
M190 S45.00
G21 ;metric values
G90 ;absolute positioning
M82 ;set extruder to absolute mode
M107 ;start with the fan off
G28 X0 Y0 ;move X/Y to min endstops
G28 Z0 ;move Z to min endstops
G1 Z15.0 F9000 ;move the platform down 15mm

G92 E0 ;zero the extruded length

G0 X43 Y27 F2000  ;go to the edge of the bed
G92 X0 Y0 E0 ;set zero to edge of the bed
G0 F9000 Z1 ;Z up with 1mm
G1 F200 Z0 ;Z home slowly

G1 Z15.0 F9000 ;move the platform down 15mm

G1 F9000 ;speed setting
G92 E-3 ;retraction
M117 Printing...
M1001
;TOTAL_NUM: 1
;PRINTING_TIME: 0
;REMAINING_TIME: 615
;LAYER:0
;Z:0.150
;HEIGHT:0.150
;PRINTING: NON-OBJECT
;PRINTING_ID: -1
G1 F2400 E-5.0000
SET_VELOCITY_LIMIT ACCEL=500.00
SET_VELOCITY_LIMIT SQUARE_CORNER_VELOCITY=5.00
G0 F3900 X97.497 Y113.125
G0 F300 Z0.150
;TYPE:SKIRT
;WIDTH:0.420
G1 F1500 E0.0000
G1 F900 X99.179 Y111.714 E0.0575
G1 X150.563 Y111.718 E1.4034
G1 X152.503 Y112.849 E1.4622
G1 X153.381 Y115.244 E1.5290
G1 X153.480 Y134.539 E2.0344
G1 X152.503 Y136.873 E2.1007
G1 X150.819 Y138.284 E2.1582
G1 X100.521 Y138.548 E3.4756
G1 X98.016 Y137.424 E3.5476
G1 X96.759 Y135.806 E3.6012
G1 X96.519 Y115.470 E4.1339
G1 X97.497 Y113.125 E4.2005
G0 F3900 X97.882 Y113.292
G1 F900 X99.303 Y112.115 E4.2488
G1 X150.563 Y112.138 E5.5914
G1 X152.166 Y113.100 E5.6404
G1 X152.961 Y115.246 E5.7003
G1 X153.060 Y134.541 E6.2057
G1 X152.118 Y136.705 E6.2675
G1 X150.695 Y137.883 E6.3159
G1 X100.519 Y138.128 E7.6302
G1 X98.194 Y137.043 E7.6974
G1 X97.165 Y135.697 E7.7417
G1 X96.939 Y115.465 E8.2717
G1 X97.882 Y113.292 E8.3337
G0 F3900 X98.264 Y113.466
G1 F900 X99.425 Y112.517 E8.3730
G1 X150.563 Y112.558 E9.7124
G1 X151.825 Y113.345 E9.7514
G1 X152.541 Y115.248 E9.8046
G1 X152.640 Y134.543 E10.3100
G1 X151.736 Y136.531 E10.3672
G1 X150.573 Y137.481 E10.4066
G1 X100.517 Y137.708 E11.7177
G1 X98.378 Y136.665 E11.7800
G1 X97.572 Y135.592 E11.8151
G1 X97.359 Y115.461 E12.3425
G1 X98.264 Y113.466 E12.3998
G0 F3900 X98.643 Y113.647
G1 F900 X99.544 Y112.920 E12.4302
G1 X150.348 Y112.919 E13.7608
G1 X151.489 Y113.597 E13.7956
G1 X152.121 Y115.250 E13.8420
G1 X152.220 Y134.545 E14.3473
G1 X151.357 Y136.350 E14.3997
G1 X150.454 Y137.078 E14.4301
G1 X100.515 Y137.288 E15.7382
G1 X98.570 Y136.291 E15.7954
G1 X97.979 Y135.490 E15.8215
G1 X97.779 Y115.457 E16.3462
G1 X98.643 Y113.647 E16.3987
G0 F3900 X99.018 Y113.837
G1 F900 X99.661 Y113.323 E16.4203
G1 X150.142 Y113.285 E17.7425
G1 X151.159 Y113.857 E17.7731
G1 X151.701 Y115.252 E17.8123
G1 X151.800 Y134.547 E18.3177
G1 X150.982 Y136.160 E18.3650
G1 X150.337 Y136.675 E18.3867
G1 X100.513 Y136.868 E19.6917
G1 X98.770 Y135.922 E19.7436
G1 X98.387 Y135.392 E19.7608
G1 X98.199 Y115.453 E20.2830
G1 X99.018 Y113.837 E20.3305
G0 F3900 X99.387 Y114.038
G1 F900 X99.778 Y113.726 E20.3436
G1 X149.946 Y113.657 E21.6576
G1 X150.836 Y114.126 E21.6839
G1 X151.281 Y115.254 E21.7157
G1 X151.380 Y134.549 E22.2211
G1 X150.613 Y135.959 E22.2631
G1 X150.220 Y136.272 E22.2763
G1 X100.512 Y136.448 E23.5783
G1 X98.981 Y135.559 E23.6246
G1 X98.796 Y135.298 E23.6330
G1 X98.619 Y115.449 E24.1529
G1 X99.387 Y114.038 E24.1950
G0 F3900 X99.748 Y114.253
G1 F900 X100.013 Y114.074 E24.2034
G1 X149.946 Y114.077 E25.5113
G1 X150.508 Y114.388 E25.5281
G1 X150.861 Y115.256 E25.5526
G1 X150.960 Y134.551 E26.0580
G1 X150.252 Y135.745 E26.0944
G1 X149.986 Y135.923 E26.1028
G1 X100.511 Y136.028 E27.3986
G1 X99.205 Y135.204 E27.4391
G1 X99.039 Y115.445 E27.9566
G1 X99.748 Y114.253 E27.9929
G0 F3900 X99.459 Y115.443
G1 F900 X100.097 Y114.486 E28.0231
G1 X149.761 Y114.454 E29.3239
G1 X150.193 Y114.666 E29.3365
G1 X150.441 Y115.258 E29.3533
G1 X150.540 Y134.553 E29.8587
G1 X149.902 Y135.512 E29.8889
G1 X100.510 Y135.608 E31.1826
G1 X99.554 Y134.970 E31.2127
G1 X99.459 Y115.443 E31.7241
G0 F3900 X99.879 Y115.442
G1 F900 X100.316 Y114.845 E31.7435
G1 X149.601 Y114.842 E33.0344
G1 X149.897 Y114.964 E33.0428
G1 X150.021 Y115.260 E33.0512
G1 X150.120 Y134.555 E33.5566
G1 X149.683 Y135.154 E33.5760
G1 X100.510 Y135.188 E34.8640
G1 X99.913 Y134.751 E34.8833
G1 X99.879 Y115.442 E35.3891
G0 F3900 X100.299 Y115.442
G1 F900 X100.415 Y115.253 E35.3949
G1 X149.601 Y115.262 E36.6832
G1 X149.700 Y134.557 E37.1886
G1 X149.584 Y134.746 E37.1944
G1 X100.510 Y134.768 E38.4797
G1 X100.321 Y134.652 E38.4856
G1 X100.299 Y115.442 E38.9887
;PRINTING: Breaker_Filler_Plate_-_Schneider_-_1-UP.stl
;PRINTING_ID: 0
G1 F2400 E33.9887
G1 F300 Z0.350
G0 F3900 X100.719 Y115.651
;TYPE:WALL-OUTER
;WIDTH:0.420
G1 F300 Z0.150
G1 F1500 E38.9887
G1 F2400 X149.280 Y115.651 E40.2606
G1 X149.280 Y134.348 E40.7504
G1 X100.719 Y134.348 E42.0223
G1 X100.719 Y115.651 E42.5120
G0 F3900 X101.139 Y116.071
;TYPE:WALL-INNER
;WIDTH:0.420
G1 F2400 X148.860 Y116.071 E43.7619
G1 X148.860 Y133.928 E44.2296
G1 X101.139 Y133.928 E45.4796
G1 X101.139 Y116.071 E45.9473
G1 F2400 E40.9473
G1 F300 Z0.350
G0 F3900 X101.239 Y116.081
G0 X101.327 Y133.105
;TYPE:SOLID-FILL
;WIDTH:0.420
G1 F300 Z0.150
G1 F1500 E45.9473
G1 F2400 X101.961 Y133.738 E45.9708
G0 F2400 X102.555 Y133.738
G1 F2400 X101.327 Y132.511 E46.0162
G0 F2400 X101.327 Y131.917
G1 F2400 X103.149 Y133.738 E46.0837
G0 F2400 X103.743 Y133.738
G1 F2400 X101.327 Y131.323 E46.1732
G0 F2400 X101.327 Y130.729
G1 F2400 X104.337 Y133.738 E46.2846
G0 F2400 X104.931 Y133.738
G1 F2400 X101.327 Y130.135 E46.4181
G0 F2400 X101.327 Y129.541
G1 F2400 X105.525 Y133.738 E46.5736
G0 F2400 X106.119 Y133.738
G1 F2400 X101.327 Y128.947 E46.7511
G0 F2400 X101.327 Y128.353
G1 F2400 X106.713 Y133.738 E46.9506
G0 F2400 X107.306 Y133.738
G1 F2400 X101.327 Y127.759 E47.1720
G0 F2400 X101.327 Y127.165
G1 F2400 X107.900 Y133.738 E47.4155
G0 F2400 X108.494 Y133.738
G1 F2400 X101.327 Y126.571 E47.6810
G0 F2400 X101.327 Y125.977
G1 F2400 X109.088 Y133.738 E47.9685
G0 F2400 X109.682 Y133.738
G1 F2400 X101.327 Y125.383 E48.2780
G0 F2400 X101.327 Y124.789
G1 F2400 X110.276 Y133.738 E48.6094
G0 F2400 X110.870 Y133.738
G1 F2400 X101.327 Y124.195 E48.9629
G0 F2400 X101.327 Y123.601
G1 F2400 X111.464 Y133.738 E49.3384
G0 F2400 X112.058 Y133.738
G1 F2400 X101.327 Y123.007 E49.7359
G0 F2400 X101.327 Y122.413
G1 F2400 X112.652 Y133.738 E50.1554
G0 F2400 X113.246 Y133.738
G1 F2400 X101.327 Y121.819 E50.5969
G0 F2400 X101.327 Y121.225
G1 F2400 X113.840 Y133.738 E51.0604
G0 F2400 X114.434 Y133.738
G1 F2400 X101.327 Y120.631 E51.5459
G0 F2400 X101.327 Y120.037
G1 F2400 X115.028 Y133.738 E52.0534
G0 F2400 X115.622 Y133.738
G1 F2400 X101.327 Y119.443 E52.5829
G0 F2400 X101.327 Y118.849
G1 F2400 X116.216 Y133.738 E53.1344
G0 F2400 X116.810 Y133.738
G1 F2400 X101.327 Y118.255 E53.7080
G0 F2400 X101.327 Y117.661
G1 F2400 X117.404 Y133.738 E54.3035
G0 F2400 X117.998 Y133.738
G1 F2400 X101.327 Y117.067 E54.9210
G0 F2400 X101.327 Y116.473
G1 F2400 X118.592 Y133.738 E55.5605
G0 F2400 X119.186 Y133.738
G1 F2400 X101.707 Y116.259 E56.2080
G0 F2400 X102.301 Y116.259
G1 F2400 X119.780 Y133.738 E56.8554
G0 F2400 X120.374 Y133.738
G1 F2400 X102.895 Y116.259 E57.5029
G0 F2400 X103.489 Y116.259
G1 F2400 X120.968 Y133.738 E58.1503
G0 F2400 X121.562 Y133.738
G1 F2400 X104.083 Y116.259 E58.7978
G0 F2400 X104.677 Y116.259
G1 F2400 X122.156 Y133.738 E59.4452
G0 F2400 X122.750 Y133.738
G1 F2400 X105.271 Y116.259 E60.0927
G0 F2400 X105.865 Y116.259
G1 F2400 X123.344 Y133.738 E60.7401
G0 F2400 X123.938 Y133.738
G1 F2400 X106.459 Y116.259 E61.3876
G0 F2400 X107.053 Y116.259
G1 F2400 X124.532 Y133.738 E62.0350
G0 F2400 X125.126 Y133.738
G1 F2400 X107.647 Y116.259 E62.6825
G0 F2400 X108.241 Y116.259
G1 F2400 X125.720 Y133.738 E63.3299
G0 F2400 X126.314 Y133.738
G1 F2400 X108.835 Y116.259 E63.9774
G0 F2400 X109.429 Y116.259
G1 F2400 X126.907 Y133.738 E64.6248
G0 F2400 X127.501 Y133.738
G1 F2400 X110.022 Y116.259 E65.2723
G0 F2400 X110.616 Y116.259
G1 F2400 X128.095 Y133.738 E65.9197
G0 F2400 X128.689 Y133.738
G1 F2400 X111.210 Y116.259 E66.5672
G0 F2400 X111.804 Y116.259
G1 F2400 X129.283 Y133.738 E67.2146
G0 F2400 X129.877 Y133.738
G1 F2400 X112.398 Y116.259 E67.8621
G0 F2400 X112.992 Y116.259
G1 F2400 X130.471 Y133.738 E68.5095
G0 F2400 X131.065 Y133.738
G1 F2400 X113.586 Y116.259 E69.1569
G0 F2400 X114.180 Y116.259
G1 F2400 X131.659 Y133.738 E69.8044
G0 F2400 X132.253 Y133.738
G1 F2400 X114.774 Y116.259 E70.4518
G0 F2400 X115.368 Y116.259
G1 F2400 X132.847 Y133.738 E71.0993
G0 F2400 X133.441 Y133.738
G1 F2400 X115.962 Y116.259 E71.7467
G0 F2400 X116.556 Y116.259
G1 F2400 X134.035 Y133.738 E72.3942
G0 F2400 X134.629 Y133.738
G1 F2400 X117.150 Y116.259 E73.0416
G0 F2400 X117.744 Y116.259
G1 F2400 X135.223 Y133.738 E73.6891
G0 F2400 X135.817 Y133.738
G1 F2400 X118.338 Y116.259 E74.3365
G0 F2400 X118.932 Y116.259
G1 F2400 X136.411 Y133.738 E74.9840
G0 F2400 X137.005 Y133.738
G1 F2400 X119.526 Y116.259 E75.6314
G0 F2400 X120.120 Y116.259
G1 F2400 X137.599 Y133.738 E76.2789
G0 F2400 X138.193 Y133.738
G1 F2400 X120.714 Y116.259 E76.9263
G0 F2400 X121.308 Y116.259
G1 F2400 X138.787 Y133.738 E77.5738
G0 F2400 X139.381 Y133.738
G1 F2400 X121.902 Y116.259 E78.2212
G0 F2400 X122.496 Y116.259
G1 F2400 X139.975 Y133.738 E78.8687
G0 F2400 X140.569 Y133.738
G1 F2400 X123.090 Y116.259 E79.5161
G0 F2400 X123.684 Y116.259
G1 F2400 X141.163 Y133.738 E80.1636
G0 F2400 X141.757 Y133.738
G1 F2400 X124.278 Y116.259 E80.8110
G0 F2400 X124.872 Y116.259
G1 F2400 X142.351 Y133.738 E81.4585
G0 F2400 X142.945 Y133.738
G1 F2400 X125.466 Y116.259 E82.1059
G0 F2400 X126.060 Y116.259
G1 F2400 X143.539 Y133.738 E82.7534
G0 F2400 X144.133 Y133.738
G1 F2400 X126.654 Y116.259 E83.4008
G0 F2400 X127.248 Y116.259
G1 F2400 X144.727 Y133.738 E84.0483
G0 F2400 X145.321 Y133.738
G1 F2400 X127.842 Y116.259 E84.6957
G0 F2400 X128.436 Y116.259
G1 F2400 X145.915 Y133.738 E85.3432
G0 F2400 X146.508 Y133.738
G1 F2400 X129.030 Y116.259 E85.9906
G0 F2400 X129.623 Y116.259
G1 F2400 X147.102 Y133.738 E86.6381
G0 F2400 X147.696 Y133.738
G1 F2400 X130.217 Y116.259 E87.2855
G0 F2400 X130.811 Y116.259
G1 F2400 X148.290 Y133.738 E87.9330
G0 F2400 X148.670 Y133.524
G1 F2400 X131.405 Y116.259 E88.5725
G0 F2400 X131.999 Y116.259
G1 F2400 X148.670 Y132.930 E89.1900
G0 F2400 X148.670 Y132.336
G1 F2400 X132.593 Y116.259 E89.7855
G0 F2400 X133.187 Y116.259
G1 F2400 X148.670 Y131.742 E90.3591
G0 F2400 X148.670 Y131.148
G1 F2400 X133.781 Y116.259 E90.9106
G0 F2400 X134.375 Y116.259
G1 F2400 X148.670 Y130.554 E91.4401
G0 F2400 X148.670 Y129.960
G1 F2400 X134.969 Y116.259 E91.9476
G0 F2400 X135.563 Y116.259
G1 F2400 X148.670 Y129.366 E92.4331
G0 F2400 X148.670 Y128.772
G1 F2400 X136.157 Y116.259 E92.8966
G0 F2400 X136.751 Y116.259
G1 F2400 X148.670 Y128.178 E93.3381
G0 F2400 X148.670 Y127.584
G1 F2400 X137.345 Y116.259 E93.7576
G0 F2400 X137.939 Y116.259
G1 F2400 X148.670 Y126.990 E94.1551
G0 F2400 X148.670 Y126.396
G1 F2400 X138.533 Y116.259 E94.5306
G0 F2400 X139.127 Y116.259
G1 F2400 X148.670 Y125.802 E94.8841
G0 F2400 X148.670 Y125.208
G1 F2400 X139.721 Y116.259 E95.2155
G0 F2400 X140.315 Y116.259
G1 F2400 X148.670 Y124.614 E95.5250
G0 F2400 X148.670 Y124.020
G1 F2400 X140.909 Y116.259 E95.8125
G0 F2400 X141.503 Y116.259
G1 F2400 X148.670 Y123.426 E96.0780
G0 F2400 X148.670 Y122.832
G1 F2400 X142.097 Y116.259 E96.3215
G0 F2400 X142.691 Y116.259
G1 F2400 X148.670 Y122.238 E96.5429
G0 F2400 X148.670 Y121.644
G1 F2400 X143.285 Y116.259 E96.7424
G0 F2400 X143.879 Y116.259
G1 F2400 X148.670 Y121.051 E96.9199
G0 F2400 X148.670 Y120.457
G1 F2400 X144.473 Y116.259 E97.0754
G0 F2400 X145.067 Y116.259
G1 F2400 X148.670 Y119.863 E97.2088
G0 F2400 X148.670 Y119.269
G1 F2400 X145.661 Y116.259 E97.3203
G0 F2400 X146.255 Y116.259
G1 F2400 X148.670 Y118.675 E97.4098
G0 F2400 X148.670 Y118.081
G1 F2400 X146.849 Y116.259 E97.4773
G0 F2400 X147.443 Y116.259
G1 F2400 X148.670 Y117.487 E97.5227
G0 F2400 X148.670 Y116.893
G1 F2400 X148.037 Y116.259 E97.5462
;PRINTING_TIME: 173
;REMAINING_TIME: 442
;LAYER:1
;Z:0.450
;HEIGHT:0.300
M106 S64
;PRINTING: Breaker_Filler_Plate_-_Schneider_-_1-UP.stl
;PRINTING_ID: 0
G1 F2400 E92.5462
G1 F300 Z0.650
G0 F3900 X101.239 Y116.081
G0 F300 Z0.450
G0 F3900 X100.719 Y115.651
;TYPE:WALL-OUTER
;WIDTH:0.420
G1 F300 Z0.450
G1 F1500 E97.5462
G1 F2100 X149.280 Y115.651 E100.0900
G1 X149.280 Y134.348 E101.0695
G1 X100.719 Y134.348 E103.6133
G1 X100.719 Y115.651 E104.5928
G0 F3900 X101.139 Y116.071
;TYPE:WALL-INNER
;WIDTH:0.420
;FLOW:90.0
G1 F2400 X148.860 Y116.071 E106.8426
G1 X148.860 Y133.928 E107.6845
G1 X101.139 Y133.928 E109.9344
G1 X101.139 Y116.071 E110.7763
G0 F3900 X101.430 Y116.258
;TYPE:SOLID-FILL
;WIDTH:0.420
;FLOW:95.0
G1 F2700 X101.327 Y116.362 E110.7836
G0 F2700 X101.327 Y116.956
G1 F2700 X102.024 Y116.258 E110.8327
G0 F2700 X102.618 Y116.258
G1 F2700 X101.327 Y117.550 E110.9236
G0 F2700 X101.327 Y118.144
G1 F2700 X103.212 Y116.258 E111.0563
G0 F2700 X103.806 Y116.258
G1 F2700 X101.327 Y118.738 E111.2308
G0 F2700 X101.327 Y119.332
G1 F2700 X104.400 Y116.258 E111.4471
G0 F2700 X104.994 Y116.258
G1 F2700 X101.327 Y119.926 E111.7052
G0 F2700 X101.327 Y120.519
G1 F2700 X105.588 Y116.258 E112.0051
G0 F2700 X106.182 Y116.258
G1 F2700 X101.327 Y121.113 E112.3468
G0 F2700 X101.327 Y121.707
G1 F2700 X106.776 Y116.258 E112.7303
G0 F2700 X107.370 Y116.258
G1 F2700 X101.327 Y122.301 E113.1556
G0 F2700 X101.327 Y122.895
G1 F2700 X107.964 Y116.258 E113.6227
G0 F2700 X108.558 Y116.258
G1 F2700 X101.327 Y123.489 E114.1316
G0 F2700 X101.327 Y124.083
G1 F2700 X109.152 Y116.258 E114.6823
G0 F2700 X109.746 Y116.258
G1 F2700 X101.327 Y124.677 E115.2748
G0 F2700 X101.327 Y125.271
G1 F2700 X110.340 Y116.258 E115.9091
G0 F2700 X110.934 Y116.258
G1 F2700 X101.327 Y125.865 E116.5853
G0 F2700 X101.327 Y126.459
G1 F2700 X111.528 Y116.258 E117.3032
G0 F2700 X112.122 Y116.258
G1 F2700 X101.327 Y127.053 E118.0629
G0 F2700 X101.327 Y127.647
G1 F2700 X112.716 Y116.258 E118.8645
G0 F2700 X113.310 Y116.258
G1 F2700 X101.327 Y128.241 E119.7078
G0 F2700 X101.327 Y128.835
G1 F2700 X113.904 Y116.258 E120.5930
G0 F2700 X114.498 Y116.258
G1 F2700 X101.327 Y129.429 E121.5200
G0 F2700 X101.327 Y130.023
G1 F2700 X115.092 Y116.258 E122.4887
G0 F2700 X115.686 Y116.258
G1 F2700 X101.327 Y130.617 E123.4993
G0 F2700 X101.327 Y131.211
G1 F2700 X116.280 Y116.258 E124.5517
G0 F2700 X116.874 Y116.258
G1 F2700 X101.327 Y131.805 E125.6459
G0 F2700 X101.327 Y132.399
G1 F2700 X117.468 Y116.258 E126.7818
G0 F2700 X118.062 Y116.258
G1 F2700 X101.327 Y132.993 E127.9596
G0 F2700 X101.327 Y133.587
G1 F2700 X118.656 Y116.258 E129.1792
G0 F2700 X119.250 Y116.258
G1 F2700 X101.769 Y133.739 E130.4095
G0 F2700 X102.363 Y133.739
G1 F2700 X119.843 Y116.258 E131.6398
G0 F2700 X120.437 Y116.258
G1 F2700 X102.957 Y133.739 E132.8701
G0 F2700 X103.551 Y133.739
G1 F2700 X121.031 Y116.258 E134.1003
G0 F2700 X121.625 Y116.258
G1 F2700 X104.145 Y133.739 E135.3306
G0 F2700 X104.739 Y133.739
G1 F2700 X122.219 Y116.258 E136.5608
G0 F2700 X122.813 Y116.258
G1 F2700 X105.333 Y133.739 E137.7911
G0 F2700 X105.927 Y133.739
G1 F2700 X123.407 Y116.258 E139.0214
G0 F2700 X124.001 Y116.258
G1 F2700 X106.521 Y133.739 E140.2516
G0 F2700 X107.115 Y133.739
G1 F2700 X124.595 Y116.258 E141.4819
G0 F2700 X125.189 Y116.258
G1 F2700 X107.709 Y133.739 E142.7121
G0 F2700 X108.303 Y133.739
G1 F2700 X125.783 Y116.258 E143.9424
G0 F2700 X126.377 Y116.258
G1 F2700 X108.897 Y133.739 E145.1727
G0 F2700 X109.491 Y133.739
G1 F2700 X126.971 Y116.258 E146.4029
G0 F2700 X127.565 Y116.258
