;Sliced by ideaMaker 5.2.4.8581, 2025-07-19 17:39:29 UTC+0200
;Slicer Version: 5.2.3.8580
;Dimension: 250.000 250.000 250.000 0.400
;Plate Shape: 0
;Origin Center: 0
;Extruder Offset #1: 25.000 0.000
;Filament Diameter #1: 1.750
;Filament Diameter #2: 1.750
;Filament Compensation #1: 94.000
;Filament Compensation #2: 90.000
;Filament Density #1: 1240.000
;Filament Density #2: 1240.000
;Filament Type #1: PLA
;Filament Type #2: PLA
;Filament Name #1: [Raise3D] Premium PLA 1.75mm
;Filament Name #2: [Raise3D] Premium PLA 1.75mm
;Filament #1: PLA 1.75mm
;Filament #2: PLA 1.75mm
;Printer Type: floppy
;Firmware: Klipper
;Bounding Box: 102.950 147.050 102.959 147.050 0.000 39.990
;Model Gap: 0.000
M221 T0 S94.00
M140 S50.00
M104 T0 S190.00
M109 T0 S190.00
T0
M190 S50.00
G21 ;metric values
G90 ;absolute positioning
M82 ;set extruder to absolute mode
M107 ;start with the fan off
G28 X0 Y0 ;move X/Y to min endstops
G28 Z0 ;move Z to min endstops
G1 Z15.0 F9000 ;move the platform down 15mm
G92 E0 ;zero the extruded length
G0 X43 Y27 F2000  ;go to the edge of the bed
G92 X0 Y0 E0 ;set zero to edge of the bed
G0 F9000 Z1 ;Z up with 1mm
G1 F200 Z0 ;Z home slowly
G1 Z15.0 F9000 ;move the platform down 15mm
G1 F9000 ;speed setting
G92 E-3 ;retraction
M117 Printing...
M1001
;TOTAL_NUM: 1
;PRINTING_TIME: 0
;REMAINING_TIME: 5527
;LAYER:0
;Z:0.300
;HEIGHT:0.300
;PRINTING: NON-OBJECT
;PRINTING_ID: -1
G1 F2400 E-5.0000
G0 F3900 X103.559 Y103.558
G0 F300 Z0.300
G0 F3900 X104.142 Y103.154
;TYPE:SKIRT
;WIDTH:0.420
G1 F1500 E0.0000
G1 F900 X104.911 Y102.959 E0.0416
G1 X145.272 Y102.981 E2.1559
G1 X146.645 Y103.775 E2.2389
G1 X147.050 Y104.998 E2.3064
G1 X147.050 Y145.003 E4.4021
G1 X146.441 Y146.442 E4.4839
G1 X145.858 Y146.846 E4.5211
G1 X145.089 Y147.041 E4.5627
G1 X104.997 Y147.050 E6.6629
G1 X103.558 Y146.441 E6.7447
G1 X103.154 Y145.858 E6.7819
G1 X102.959 Y145.089 E6.8234
G1 X102.950 Y104.997 E8.9236
G1 X103.559 Y103.558 E9.0055
G1 X104.142 Y103.154 E9.0426
G0 F3900 X104.911 Y103.379
G1 F900 X145.272 Y103.401 E11.1569
G1 X146.307 Y104.025 E11.2203
G1 X146.630 Y104.998 E11.2740
G1 X146.630 Y145.003 E13.3696
G1 X146.187 Y146.107 E13.4319
G1 X145.747 Y146.441 E13.4609
G1 X145.089 Y146.621 E13.4966
G1 X104.997 Y146.630 E15.5968
G1 X103.893 Y146.187 E15.6591
G1 X103.559 Y145.747 E15.6881
G1 X103.379 Y145.089 E15.7238
G1 X103.370 Y104.997 E17.8240
G1 X103.813 Y103.893 E17.8863
G1 X104.253 Y103.559 E17.9153
G1 X104.911 Y103.379 E17.9510
G0 F3900 X104.998 Y103.790
G1 F900 X145.272 Y103.821 E20.0607
G1 X145.962 Y104.265 E20.1037
G1 X146.210 Y104.998 E20.1443
G1 X146.210 Y145.003 E22.2399
G1 X145.933 Y145.772 E22.2827
G1 X145.493 Y146.106 E22.3117
G1 X145.002 Y146.210 E22.3380
G1 X104.997 Y146.210 E24.4336
G1 X104.228 Y145.933 E24.4764
G1 X103.894 Y145.493 E24.5054
G1 X103.790 Y145.002 E24.5316
G1 X103.790 Y104.997 E26.6273
G1 X104.067 Y104.228 E26.6701
G1 X104.507 Y103.894 E26.6991
G1 X104.998 Y103.790 E26.7253
;PRINTING: CHEPCalibrationCube.stl
;PRINTING_ID: 0
G1 F2400 E21.7253
G0 F3900 X105.210 Y105.210
;TYPE:WALL-OUTER
;WIDTH:0.420
G1 F1500 E26.7253
G1 F2400 X144.790 Y105.210 E28.7987
G1 X144.790 Y144.790 E30.8721
G1 X105.210 Y144.790 E32.9455
G1 X105.210 Y105.210 E35.0189
G0 F3900 X105.630 Y105.630
;TYPE:WALL-INNER
;WIDTH:0.420
G1 F2400 X144.370 Y105.630 E37.0483
G1 X144.370 Y144.370 E39.0777
G1 X105.630 Y144.370 E41.1070
G1 X105.630 Y105.630 E43.1364
G1 F2400 E38.1364
G0 F3900 X105.730 Y105.640
G0 X105.818 Y143.535
;TYPE:SOLID-FILL
;WIDTH:0.420
G1 F1500 E43.1364
G1 F2400 X106.463 Y144.180 E43.1842
G0 F2400 X107.057 Y144.180
G1 F2400 X105.818 Y142.941 E43.2760
G0 F2400 X105.818 Y142.347
G1 F2400 X107.651 Y144.180 E43.4118
G0 F2400 X108.245 Y144.180
G1 F2400 X105.818 Y141.753 E43.5916
G0 F2400 X105.818 Y141.159
G1 F2400 X108.839 Y144.180 E43.8154
G0 F2400 X109.433 Y144.180
G1 F2400 X105.818 Y140.565 E44.0832
G0 F2400 X105.818 Y139.971
G1 F2400 X110.027 Y144.180 E44.3950
G0 F2400 X110.621 Y144.180
G1 F2400 X105.818 Y139.377 E44.7509
G0 F2400 X105.818 Y138.783
G1 F2400 X111.215 Y144.180 E45.1507
G0 F2400 X111.809 Y144.180
G1 F2400 X105.818 Y138.189 E45.5945
G0 F2400 X105.818 Y137.595
G1 F2400 X112.403 Y144.180 E46.0823
G0 F2400 X112.997 Y144.180
G1 F2400 X105.818 Y137.001 E46.6142
G0 F2400 X105.818 Y136.407
G1 F2400 X113.591 Y144.180 E47.1900
G0 F2400 X114.185 Y144.180
G1 F2400 X105.818 Y135.813 E47.8099
G0 F2400 X105.818 Y135.220
G1 F2400 X114.778 Y144.180 E48.4737
G0 F2400 X115.372 Y144.180
G1 F2400 X105.818 Y134.626 E49.1815
G0 F2400 X105.818 Y134.032
G1 F2400 X115.966 Y144.180 E49.9333
G0 F2400 X116.560 Y144.180
G1 F2400 X105.818 Y133.438 E50.7291
G0 F2400 X105.818 Y132.844
G1 F2400 X117.154 Y144.180 E51.5689
G0 F2400 X117.748 Y144.180
G1 F2400 X105.818 Y132.250 E52.4527
G0 F2400 X105.818 Y131.656
G1 F2400 X118.342 Y144.180 E53.3805
G0 F2400 X118.936 Y144.180
G1 F2400 X105.818 Y131.062 E54.3523
G0 F2400 X105.818 Y130.468
G1 F2400 X119.530 Y144.180 E55.3682
G0 F2400 X120.124 Y144.180
G1 F2400 X105.818 Y129.874 E56.4280
G0 F2400 X105.818 Y129.280
G1 F2400 X120.718 Y144.180 E57.5318
G0 F2400 X121.312 Y144.180
G1 F2400 X105.818 Y128.686 E58.6797
G0 F2400 X105.818 Y128.092
G1 F2400 X121.906 Y144.180 E59.8715
G0 F2400 X122.500 Y144.180
G1 F2400 X105.818 Y127.498 E61.1074
G0 F2400 X105.818 Y126.904
G1 F2400 X123.094 Y144.180 E62.3872
G0 F2400 X123.688 Y144.180
G1 F2400 X105.818 Y126.310 E63.7111
G0 F2400 X105.818 Y125.716
G1 F2400 X124.282 Y144.180 E65.0790
G0 F2400 X124.876 Y144.180
G1 F2400 X105.818 Y125.122 E66.4909
G0 F2400 X105.818 Y124.528
G1 F2400 X125.470 Y144.180 E67.9467
G0 F2400 X126.064 Y144.180
G1 F2400 X105.818 Y123.934 E69.4466
G0 F2400 X105.818 Y123.340
G1 F2400 X126.658 Y144.180 E70.9905
G0 F2400 X127.252 Y144.180
G1 F2400 X105.818 Y122.746 E72.5784
G0 F2400 X105.818 Y122.152
G1 F2400 X127.846 Y144.180 E74.2103
G0 F2400 X128.440 Y144.180
G1 F2400 X105.818 Y121.558 E75.8862
G0 F2400 X105.818 Y120.964
G1 F2400 X129.034 Y144.180 E77.6061
G0 F2400 X129.628 Y144.180
G1 F2400 X105.818 Y120.370 E79.3701
G0 F2400 X105.818 Y119.776
G1 F2400 X130.222 Y144.180 E81.1780
G0 F2400 X130.816 Y144.180
G1 F2400 X105.818 Y119.182 E83.0299
G0 F2400 X105.818 Y118.588
G1 F2400 X131.410 Y144.180 E84.9259
G0 F2400 X132.004 Y144.180
G1 F2400 X105.818 Y117.994 E86.8658
G0 F2400 X105.818 Y117.400
G1 F2400 X132.598 Y144.180 E88.8497
G0 F2400 X133.192 Y144.180
G1 F2400 X105.818 Y116.806 E90.8777
G0 F2400 X105.818 Y116.212
G1 F2400 X133.786 Y144.180 E92.9497
G0 F2400 X134.379 Y144.180
G1 F2400 X105.818 Y115.619 E95.0655
G0 F2400 X105.818 Y115.025
G1 F2400 X134.973 Y144.180 E97.2254
G0 F2400 X135.567 Y144.180
G1 F2400 X105.818 Y114.431 E99.4293
G0 F2400 X105.818 Y113.837
G1 F2400 X136.161 Y144.180 E101.6772
G0 F2400 X136.755 Y144.180
G1 F2400 X105.818 Y113.243 E103.9692
G0 F2400 X105.818 Y112.649
G1 F2400 X137.349 Y144.180 E106.3051
G0 F2400 X137.943 Y144.180
G1 F2400 X105.818 Y112.055 E108.6850
G0 F2400 X105.818 Y111.461
G1 F2400 X138.537 Y144.180 E111.1089
G0 F2400 X139.131 Y144.180
G1 F2400 X105.818 Y110.867 E113.5769
G0 F2400 X105.818 Y110.273
G1 F2400 X139.725 Y144.180 E116.0888
G0 F2400 X140.319 Y144.180
G1 F2400 X105.818 Y109.679 E118.6447
G0 F2400 X105.818 Y109.085
G1 F2400 X140.913 Y144.180 E121.2447
G0 F2400 X141.507 Y144.180
G1 F2400 X105.818 Y108.491 E123.8886
G0 F2400 X105.818 Y107.897
G1 F2400 X142.101 Y144.180 E126.5766
G0 F2400 X142.695 Y144.180
G1 F2400 X105.818 Y107.303 E129.3086
G0 F2400 X105.818 Y106.709
G1 F2400 X143.289 Y144.180 E132.0845
G0 F2400 X143.883 Y144.180
G1 F2400 X105.818 Y106.115 E134.9045
G0 F2400 X106.115 Y105.818
G1 F2400 X144.180 Y143.883 E137.7245
G0 F2400 X144.180 Y143.289
G1 F2400 X106.709 Y105.818 E140.5005
G0 F2400 X107.303 Y105.818
G1 F2400 X144.180 Y142.695 E143.2324
G0 F2400 X144.180 Y142.101
G1 F2400 X107.897 Y105.818 E145.9204
G0 F2400 X108.491 Y105.818
G1 F2400 X144.180 Y141.507 E148.5643
G0 F2400 X144.180 Y140.913
G1 F2400 X109.085 Y105.818 E151.1643
G0 F2400 X109.679 Y105.818
G1 F2400 X144.180 Y140.319 E153.7202
G0 F2400 X144.180 Y139.725
G1 F2400 X110.273 Y105.818 E156.2322
G0 F2400 X110.867 Y105.818
G1 F2400 X144.180 Y139.131 E158.7001
G0 F2400 X144.180 Y138.537
G1 F2400 X111.461 Y105.818 E161.1240
G0 F2400 X112.055 Y105.818
G1 F2400 X144.180 Y137.943 E163.5040
G0 F2400 X144.180 Y137.349
G1 F2400 X112.649 Y105.818 E165.8399
G0 F2400 X113.243 Y105.818
G1 F2400 X144.180 Y136.755 E168.1318
G0 F2400 X144.180 Y136.161
G1 F2400 X113.837 Y105.818 E170.3797
G0 F2400 X114.431 Y105.818
G1 F2400 X144.180 Y135.567 E172.5836
G0 F2400 X144.180 Y134.973
G1 F2400 X115.025 Y105.818 E174.7435
G0 F2400 X115.619 Y105.818
G1 F2400 X144.180 Y134.379 E176.8594
G0 F2400 X144.180 Y133.786
G1 F2400 X116.212 Y105.818 E178.9313
G0 F2400 X116.806 Y105.818
G1 F2400 X144.180 Y133.192 E180.9593
G0 F2400 X144.180 Y132.598
G1 F2400 X117.400 Y105.818 E182.9432
G0 F2400 X117.994 Y105.818
G1 F2400 X144.180 Y132.004 E184.8832
G0 F2400 X144.180 Y131.410
G1 F2400 X118.588 Y105.818 E186.7791
G0 F2400 X119.182 Y105.818
G1 F2400 X144.180 Y130.816 E188.6310
G0 F2400 X144.180 Y130.222
G1 F2400 X119.776 Y105.818 E190.4390
G0 F2400 X120.370 Y105.818
G1 F2400 X144.180 Y129.628 E192.2029
G0 F2400 X144.180 Y129.034
G1 F2400 X120.964 Y105.818 E193.9228
G0 F2400 X121.558 Y105.818
G1 F2400 X144.180 Y128.440 E195.5987
G0 F2400 X144.180 Y127.846
G1 F2400 X122.152 Y105.818 E197.2306
G0 F2400 X122.746 Y105.818
G1 F2400 X144.180 Y127.252 E198.8185
G0 F2400 X144.180 Y126.658
G1 F2400 X123.340 Y105.818 E200.3624
G0 F2400 X123.934 Y105.818
G1 F2400 X144.180 Y126.064 E201.8623
G0 F2400 X144.180 Y125.470
G1 F2400 X124.528 Y105.818 E203.3182
G0 F2400 X125.122 Y105.818
G1 F2400 X144.180 Y124.876 E204.7301
G0 F2400 X144.180 Y124.282
G1 F2400 X125.716 Y105.818 E206.0979
G0 F2400 X126.310 Y105.818
G1 F2400 X144.180 Y123.688 E207.4218
G0 F2400 X144.180 Y123.094
G1 F2400 X126.904 Y105.818 E208.7016
G0 F2400 X127.498 Y105.818
G1 F2400 X144.180 Y122.500 E209.9375
G0 F2400 X144.180 Y121.906
G1 F2400 X128.092 Y105.818 E211.1294
G0 F2400 X128.686 Y105.818
G1 F2400 X144.180 Y121.312 E212.2772
G0 F2400 X144.180 Y120.718
G1 F2400 X129.280 Y105.818 E213.3810
G0 F2400 X129.874 Y105.818
G1 F2400 X144.180 Y120.124 E214.4409
G0 F2400 X144.180 Y119.530
G1 F2400 X130.468 Y105.818 E215.4567
G0 F2400 X131.062 Y105.818
G1 F2400 X144.180 Y118.936 E216.4285
G0 F2400 X144.180 Y118.342
G1 F2400 X131.656 Y105.818 E217.3563
G0 F2400 X132.250 Y105.818
G1 F2400 X144.180 Y117.748 E218.2402
G0 F2400 X144.180 Y117.154
G1 F2400 X132.844 Y105.818 E219.0800
G0 F2400 X133.438 Y105.818
G1 F2400 X144.180 Y116.560 E219.8758
G0 F2400 X144.180 Y115.966
G1 F2400 X134.032 Y105.818 E220.6276
G0 F2400 X134.626 Y105.818
G1 F2400 X144.180 Y115.372 E221.3353
G0 F2400 X144.180 Y114.778
G1 F2400 X135.220 Y105.818 E221.9991
G0 F2400 X135.813 Y105.818
G1 F2400 X144.180 Y114.185 E222.6190
G0 F2400 X144.180 Y113.591
G1 F2400 X136.407 Y105.818 E223.1948
G0 F2400 X137.001 Y105.818
G1 F2400 X144.180 Y112.997 E223.7267
G0 F2400 X144.180 Y112.403
G1 F2400 X137.595 Y105.818 E224.2145
G0 F2400 X138.189 Y105.818
G1 F2400 X144.180 Y111.809 E224.6583
G0 F2400 X144.180 Y111.215
G1 F2400 X138.783 Y105.818 E225.0582
G0 F2400 X139.377 Y105.818
G1 F2400 X144.180 Y110.621 E225.4140
G0 F2400 X144.180 Y110.027
G1 F2400 X139.971 Y105.818 E225.7258
G0 F2400 X140.565 Y105.818
G1 F2400 X144.180 Y109.433 E225.9936
G0 F2400 X144.180 Y108.839
G1 F2400 X141.159 Y105.818 E226.2174
G0 F2400 X141.753 Y105.818
G1 F2400 X144.180 Y108.245 E226.3972
G0 F2400 X144.180 Y107.651
G1 F2400 X142.347 Y105.818 E226.5330
G0 F2400 X142.941 Y105.818
G1 F2400 X144.180 Y107.057 E226.6248
G0 F2400 X144.180 Y106.463
G1 F2400 X143.535 Y105.818 E226.6726
;PRINTING_TIME: 143
;REMAINING_TIME: 5383
;LAYER:1
;Z:0.570
;HEIGHT:0.270
M106 S64
;PRINTING: CHEPCalibrationCube.stl
;PRINTING_ID: 0
G1 F2400 E221.6726
G0 F300 Z0.570
G0 F3900 X143.535 Y105.818
G0 X105.730 Y105.640
G0 X105.210 Y105.210
;TYPE:WALL-OUTER
;WIDTH:0.420
G1 F1500 E226.6726
G1 F2100 X144.790 Y105.210 E228.5386
G1 X144.790 Y144.790 E230.4047
G1 X105.210 Y144.790 E232.2707
G1 X105.210 Y105.210 E234.1368
G0 F3900 X105.630 Y105.630
;TYPE:WALL-INNER
;WIDTH:0.420
;FLOW:90.0
G1 F2400 X144.370 Y105.630 E235.7806
G1 X144.370 Y144.370 E237.4244
G1 X105.630 Y144.370 E239.0682
G1 X105.630 Y105.630 E240.7120
G0 F3900 X105.818 Y105.931
;TYPE:SOLID-FILL
;WIDTH:0.420
;FLOW:95.0
G1 F2700 X105.931 Y105.818 E240.7192
G0 F2700 X106.525 Y105.818
G1 F2700 X105.818 Y106.525 E240.7639
G0 F2700 X105.818 Y107.119
G1 F2700 X107.119 Y105.818 E240.8463
G0 F2700 X107.713 Y105.818
G1 F2700 X105.818 Y107.713 E240.9664
G0 F2700 X105.818 Y108.307
G1 F2700 X108.307 Y105.818 E241.1240
G0 F2700 X108.901 Y105.818
G1 F2700 X105.818 Y108.901 E241.3193
G0 F2700 X105.818 Y109.495
G1 F2700 X109.495 Y105.818 E241.5522
G0 F2700 X110.089 Y105.818
G1 F2700 X105.818 Y110.089 E241.8227
G0 F2700 X105.818 Y110.683
G1 F2700 X110.683 Y105.818 E242.1309
G0 F2700 X111.277 Y105.818
G1 F2700 X105.818 Y111.277 E242.4767
G0 F2700 X105.818 Y111.871
G1 F2700 X111.871 Y105.818 E242.8601
G0 F2700 X112.465 Y105.818
G1 F2700 X105.818 Y112.465 E243.2811
G0 F2700 X105.818 Y113.059
G1 F2700 X113.059 Y105.818 E243.7398
G0 F2700 X113.653 Y105.818
G1 F2700 X105.818 Y113.653 E244.2360
G0 F2700 X105.818 Y114.247
G1 F2700 X114.247 Y105.818 E244.7699
G0 F2700 X114.841 Y105.818
G1 F2700 X105.818 Y114.841 E245.3415
G0 F2700 X105.818 Y115.435
G1 F2700 X115.435 Y105.818 E245.9506
G0 F2700 X116.029 Y105.818
G1 F2700 X105.818 Y116.029 E246.5974
G0 F2700 X105.818 Y116.623
G1 F2700 X116.623 Y105.818 E247.2818
G0 F2700 X117.217 Y105.818
G1 F2700 X105.818 Y117.217 E248.0038
G0 F2700 X105.818 Y117.811
G1 F2700 X117.811 Y105.818 E248.7635
G0 F2700 X118.405 Y105.818
G1 F2700 X105.818 Y118.405 E249.5607
G0 F2700 X105.818 Y118.999
G1 F2700 X118.999 Y105.818 E250.3956
G0 F2700 X119.592 Y105.818
G1 F2700 X105.818 Y119.592 E251.2681
G0 F2700 X105.818 Y120.186
G1 F2700 X120.186 Y105.818 E252.1782
G0 F2700 X120.780 Y105.818
G1 F2700 X105.818 Y120.780 E253.1259
G0 F2700 X105.818 Y121.374
G1 F2700 X121.374 Y105.818 E254.1112
G0 F2700 X121.968 Y105.818
G1 F2700 X105.818 Y121.968 E255.1342
G0 F2700 X105.818 Y122.562
G1 F2700 X122.562 Y105.818 E256.1948
G0 F2700 X123.156 Y105.818
G1 F2700 X105.818 Y123.156 E257.2930
G0 F2700 X105.818 Y123.750
G1 F2700 X123.750 Y105.818 E258.4288
G0 F2700 X124.344 Y105.818
G1 F2700 X105.818 Y124.344 E259.6023
G0 F2700 X105.818 Y124.938
G1 F2700 X124.938 Y105.818 E260.8134
G0 F2700 X125.532 Y105.818
G1 F2700 X105.818 Y125.532 E262.0621
G0 F2700 X105.818 Y126.126
G1 F2700 X126.126 Y105.818 E263.3484
G0 F2700 X126.720 Y105.818
G1 F2700 X105.818 Y126.720 E264.6724
G0 F2700 X105.818 Y127.314
G1 F2700 X127.314 Y105.818 E266.0339
G0 F2700 X127.908 Y105.818
G1 F2700 X105.818 Y127.908 E267.4331
G0 F2700 X105.818 Y128.502
G1 F2700 X128.502 Y105.818 E268.8700
G0 F2700 X129.096 Y105.818
G1 F2700 X105.818 Y129.096 E270.3444
G0 F2700 X105.818 Y129.690
G1 F2700 X129.690 Y105.818 E271.8565
G0 F2700 X130.284 Y105.818
G1 F2700 X105.818 Y130.284 E273.4062
G0 F2700 X105.818 Y130.878
G1 F2700 X130.878 Y105.818 E274.9935
G0 F2700 X131.472 Y105.818
G1 F2700 X105.818 Y131.472 E276.6185
G0 F2700 X105.818 Y132.066
G1 F2700 X132.066 Y105.818 E278.2811
G0 F2700 X132.660 Y105.818
G1 F2700 X105.818 Y132.660 E279.9813
G0 F2700 X105.818 Y133.254
G1 F2700 X133.254 Y105.818 E281.7191
G0 F2700 X133.848 Y105.818
G1 F2700 X105.818 Y133.848 E283.4945
G0 F2700 X105.818 Y134.442
G1 F2700 X134.442 Y105.818 E285.3076
G0 F2700 X135.036 Y105.818
G1 F2700 X105.818 Y135.036 E287.1583
G0 F2700 X105.818 Y135.630
G1 F2700 X135.630 Y105.818 E289.0466
G0 F2700 X136.224 Y105.818
G1 F2700 X105.818 Y136.224 E290.9726
G0 F2700 X105.818 Y136.818
G1 F2700 X136.818 Y105.818 E292.9362
G0 F2700 X137.412 Y105.818
G1 F2700 X105.818 Y137.412 E294.9374
G0 F2700 X105.818 Y138.006
G1 F2700 X138.006 Y105.818 E296.9762
G0 F2700 X138.600 Y105.818
G1 F2700 X105.818 Y138.600 E299.0526
G0 F2700 X105.818 Y139.193
G1 F2700 X139.193 Y105.818 E301.1667
G0 F2700 X139.787 Y105.818
G1 F2700 X105.818 Y139.787 E303.3183
