;Sliced by ideaMaker 5.2.4.8581, 2025-10-21 16:28:53 UTC+0200
;Slicer Version: 5.2.3.8580
;Dimension: 250.000 250.000 250.000 0.400
;Plate Shape: 0
;Origin Center: 0
;Extruder Offset #1: 25.000 0.000
;Filament Diameter #1: 1.750
;Filament Diameter #2: 1.750
;Filament Compensation #1: 94.000
;Filament Compensation #2: 90.000
;Filament Density #1: 1240.000
;Filament Density #2: 1240.000
;Filament Type #1: PLA
;Filament Type #2: PLA
;Filament Name #1: [Raise3D] Premium PLA 1.75mm
;Filament Name #2: [Raise3D] Premium PLA 1.75mm
;Filament #1: PLA 1.75mm
;Filament #2: PLA 1.75mm
;Printer Type: floppy
;Firmware: Klipper
;Bounding Box: 91.553 158.380 91.793 148.818 0.000 40.050
;Model Gap: 0.000
M221 T0 S94.00
M140 S45.00
M104 T0 S195.00
M109 T0 S195.00
T0
M190 S45.00
G21 ;metric values
G90 ;absolute positioning
M82 ;set extruder to absolute mode
M107 ;start with the fan off
G28 X0 Y0 ;move X/Y to min endstops
G28 Z0 ;move Z to min endstops
G1 Z15.0 F9000 ;move the platform down 15mm
G92 E0 ;zero the extruded length
G0 X43 Y27 F2000  ;go to the edge of the bed
G92 X0 Y0 E0 ;set zero to edge of the bed
G0 F9000 Z1 ;Z up with 1mm
G1 F200 Z0 ;Z home slowly
G1 Z15.0 F9000 ;move the platform down 15mm
G1 F9000 ;speed setting
G92 E-3 ;retraction
M117 Printing...
M1001
;TOTAL_NUM: 1
;PRINTING_TIME: 0
;REMAINING_TIME: 6421
;LAYER:0
;Z:0.150
;HEIGHT:0.150
M106 S153
;PRINTING: NON-OBJECT
;PRINTING_ID: -1
G1 F2400 E-5.0000
SET_VELOCITY_LIMIT ACCEL=500.00
SET_VELOCITY_LIMIT SQUARE_CORNER_VELOCITY=5.00
G0 F3900 X102.834 Y101.686
G0 F300 Z0.150
;TYPE:SKIRT
;WIDTH:0.420
G1 F1500 E0.0000
G1 F900 X117.027 Y101.102 E0.3721
G1 X116.929 Y98.580 E0.4382
G1 X117.886 Y95.661 E0.5186
G1 X119.624 Y93.541 E0.5904
G1 X122.329 Y92.037 E0.6715
G1 X126.425 Y91.793 E0.7790
G1 X128.584 Y92.592 E0.8393
G1 X130.322 Y93.892 E0.8961
G1 X132.226 Y96.974 E0.9910
G1 X132.670 Y99.987 E1.0708
G1 X132.460 Y101.006 E1.0980
G1 X145.120 Y101.041 E1.4296
G1 X147.775 Y102.139 E1.5049
G1 X148.891 Y104.803 E1.5805
G1 X148.959 Y117.578 E1.9151
G1 X151.642 Y117.420 E1.9855
G1 X154.298 Y118.327 E2.0590
G1 X156.413 Y120.039 E2.1303
G1 X157.980 Y122.789 E2.2132
G1 X158.380 Y125.385 E2.2820
G1 X157.937 Y127.841 E2.3474
G1 X156.035 Y130.799 E2.4395
G1 X153.216 Y132.632 E2.5276
G1 X150.194 Y133.139 E2.6078
G1 X149.001 Y132.911 E2.6396
G1 X148.990 Y144.999 E2.9563
G1 X148.009 Y147.322 E3.0223
G1 X146.078 Y148.818 E3.0863
G1 X103.444 Y148.671 E4.2030
G1 X101.259 Y145.700 E4.2996
G1 X101.080 Y142.737 E4.3773
G1 X98.501 Y142.248 E4.4461
G1 X96.247 Y140.753 E4.5169
G1 X95.022 Y138.984 E4.5733
G1 X94.183 Y138.369 E4.6005
G1 X93.006 Y137.018 E4.6475
G1 X92.017 Y135.054 E4.7050
G1 X91.616 Y132.478 E4.7733
G1 X92.211 Y129.553 E4.8515
G1 X93.718 Y127.127 E4.9263
G1 X94.900 Y126.060 E4.9680
G1 X95.551 Y125.672 E4.9879
G1 X95.906 Y125.161 E5.0042
G1 X93.589 Y123.362 E5.0810
G1 X92.052 Y120.819 E5.1588
G1 X91.553 Y117.984 E5.2342
G1 X92.132 Y115.073 E5.3120
G1 X93.981 Y112.335 E5.3985
G1 X96.805 Y110.561 E5.4859
G1 X99.986 Y110.089 E5.5701
G1 X100.966 Y110.303 E5.5964
G1 X101.010 Y104.984 E5.7357
G1 X102.834 Y101.686 E5.8344
G0 F3900 X103.095 Y102.015
G1 F900 X117.586 Y101.503 E6.2142
G1 X117.447 Y101.111 E6.2251
G1 X117.328 Y98.711 E6.2880
G1 X118.285 Y95.792 E6.3685
G1 X119.946 Y93.811 E6.4362
G1 X122.358 Y92.456 E6.5087
G1 X126.282 Y92.188 E6.6117
G1 X128.337 Y92.932 E6.6689
G1 X129.967 Y94.116 E6.7217
G1 X131.810 Y97.035 E6.8121
G1 X132.254 Y100.048 E6.8919
G1 X131.930 Y101.425 E6.9289
G1 X145.119 Y101.461 E7.2744
G1 X147.479 Y102.437 E7.3413
G1 X148.471 Y104.805 E7.4085
G1 X148.541 Y118.028 E7.7549
G1 X151.510 Y117.819 E7.8328
G1 X154.037 Y118.656 E7.9025
G1 X156.050 Y120.250 E7.9698
G1 X157.565 Y122.853 E8.0487
G1 X157.965 Y125.449 E8.1175
G1 X157.524 Y127.762 E8.1792
G1 X155.684 Y130.569 E8.2671
G1 X152.991 Y132.277 E8.3506
G1 X150.129 Y132.724 E8.4265
G1 X148.581 Y132.391 E8.4679
G1 X148.570 Y144.999 E8.7982
G1 X147.624 Y147.153 E8.8598
G1 X145.970 Y148.412 E8.9142
G1 X103.605 Y148.283 E10.0239
G1 X101.602 Y145.457 E10.1146
G1 X101.488 Y142.387 E10.1951
G1 X98.579 Y141.835 E10.2726
G1 X96.484 Y140.406 E10.3390
G1 X95.328 Y138.688 E10.3933
G1 X94.431 Y138.030 E10.4224
G1 X93.324 Y136.744 E10.4669
G1 X92.393 Y134.867 E10.5217
G1 X92.028 Y132.562 E10.5829
G1 X92.623 Y129.637 E10.6610
G1 X93.999 Y127.439 E10.7290
G1 X95.181 Y126.372 E10.7707
G1 X95.843 Y125.988 E10.7907
G1 X96.557 Y124.961 E10.8235
G1 X96.037 Y124.762 E10.8381
G1 X93.946 Y123.141 E10.9074
G1 X92.466 Y120.746 E10.9811
G1 X91.967 Y117.911 E11.0565
G1 X92.543 Y115.159 E11.1301
G1 X94.327 Y112.574 E11.2124
G1 X97.025 Y110.919 E11.2953
G1 X100.043 Y110.505 E11.3751
G1 X101.382 Y110.840 E11.4113
G1 X101.430 Y104.987 E11.5646
G1 X103.095 Y102.015 E11.6538
G0 F3900 X103.353 Y102.346
G1 F900 X118.211 Y101.905 E12.0431
G1 X117.866 Y101.085 E12.0664
G1 X117.727 Y98.842 E12.1253
G1 X118.684 Y95.923 E12.2058
G1 X120.264 Y94.085 E12.2692
G1 X122.391 Y92.875 E12.3333
G1 X126.139 Y92.583 E12.4318
G1 X128.194 Y93.327 E12.4890
G1 X129.717 Y94.454 E12.5387
G1 X131.453 Y97.256 E12.6250
G1 X131.838 Y100.104 E12.7003
G1 X131.387 Y101.844 E12.7474
G1 X145.118 Y101.881 E13.1070
G1 X147.183 Y102.735 E13.1655
G1 X148.051 Y104.807 E13.2244
G1 X148.124 Y118.652 E13.5870
G1 X148.919 Y118.328 E13.6095
G1 X151.382 Y118.219 E13.6741
G1 X153.776 Y118.985 E13.7399
G1 X155.789 Y120.579 E13.8072
G1 X157.151 Y122.921 E13.8781
G1 X157.552 Y125.370 E13.9431
G1 X157.111 Y127.683 E14.0048
G1 X155.335 Y130.335 E14.0884
G1 X152.770 Y131.920 E14.1674
G1 X150.069 Y132.308 E14.2389
G1 X148.161 Y131.861 E14.2902
G1 X148.150 Y144.999 E14.6343
G1 X147.242 Y146.978 E14.6913
G1 X145.866 Y148.005 E14.7363
G1 X103.766 Y147.895 E15.8390
G1 X101.949 Y145.221 E15.9237
G1 X101.901 Y141.917 E16.0102
G1 X101.285 Y141.988 E16.0265
G1 X98.667 Y141.424 E16.0966
G1 X96.725 Y140.062 E16.1587
G1 X95.638 Y138.394 E16.2109
G1 X94.679 Y137.691 E16.2420
G1 X93.644 Y136.472 E16.2839
G1 X92.770 Y134.683 E16.3361
G1 X92.440 Y132.642 E16.3902
G1 X92.979 Y129.860 E16.4644
G1 X94.355 Y127.662 E16.5324
G1 X95.459 Y126.687 E16.5709
G1 X96.152 Y126.296 E16.5918
G1 X96.580 Y125.526 E16.6149
G1 X97.343 Y124.782 E16.6428
G1 X96.294 Y124.430 E16.6718
G1 X94.203 Y122.809 E16.7411
G1 X92.826 Y120.529 E16.8108
G1 X92.381 Y117.842 E16.8822
G1 X92.953 Y115.249 E16.9517
G1 X94.670 Y112.816 E17.0297
G1 X97.240 Y111.280 E17.1081
G1 X100.095 Y110.922 E17.1835
G1 X101.797 Y111.389 E17.2297
G1 X101.850 Y104.990 E17.3973
G1 X103.353 Y102.346 E17.4770
G0 F3900 X103.609 Y102.679
G1 F900 X118.860 Y102.309 E17.8766
G1 X118.285 Y101.059 E17.9126
G1 X118.146 Y98.816 E17.9715
G1 X119.002 Y96.197 E18.0436
G1 X120.582 Y94.359 E18.1071
G1 X122.595 Y93.242 E18.1674
G1 X125.999 Y92.979 E18.2568
G1 X127.944 Y93.665 E18.3109
G1 X129.467 Y94.792 E18.3605
G1 X131.094 Y97.474 E18.4426
G1 X131.421 Y100.155 E18.5134
G1 X130.835 Y102.263 E18.5707
G1 X145.117 Y102.301 E18.9448
G1 X146.887 Y103.033 E18.9949
G1 X147.631 Y104.809 E19.0454
G1 X147.707 Y119.298 E19.4249
G1 X148.942 Y118.747 E19.4603
G1 X151.254 Y118.619 E19.5210
G1 X153.648 Y119.385 E19.5868
G1 X155.525 Y120.905 E19.6501
G1 X156.737 Y122.993 E19.7133
G1 X157.138 Y125.298 E19.7746
G1 X156.762 Y127.449 E19.8318
G1 X154.986 Y130.101 E19.9154
G1 X152.554 Y131.560 E19.9896
G1 X150.015 Y131.892 E20.0567
G1 X147.741 Y131.323 E20.1181
G1 X147.730 Y144.999 E20.4763
G1 X146.864 Y146.796 E20.5286
G1 X145.766 Y147.597 E20.5642
G1 X103.927 Y147.507 E21.6600
G1 X102.369 Y145.215 E21.7326
G1 X102.314 Y141.424 E21.8319
G1 X101.373 Y141.577 E21.8569
G1 X98.755 Y141.013 E21.9270
G1 X96.971 Y139.722 E21.9847
G1 X95.949 Y138.101 E22.0349
G1 X94.999 Y137.419 E22.0655
G1 X93.964 Y136.200 E22.1074
G1 X93.149 Y134.501 E22.1568
G1 X92.853 Y132.718 E22.2041
G1 X93.336 Y130.080 E22.2744
G1 X94.633 Y127.977 E22.3391
G1 X95.737 Y127.002 E22.3777
G1 X96.465 Y126.603 E22.3994
G1 X96.873 Y125.827 E22.4224
G1 X98.142 Y124.589 E22.4688
G1 X96.551 Y124.098 E22.5124
G1 X94.460 Y122.477 E22.5817
G1 X93.188 Y120.316 E22.6474
G1 X92.791 Y117.932 E22.7107
G1 X93.363 Y115.339 E22.7802
G1 X95.010 Y113.062 E22.8538
G1 X97.451 Y111.643 E22.9278
G1 X100.142 Y111.339 E22.9987
G1 X102.212 Y111.949 E23.0553
G1 X102.270 Y104.994 E23.2374
G1 X103.609 Y102.679 E23.3075
G0 F3900 X103.862 Y103.014
G1 F900 X119.526 Y102.716 E23.7178
G1 X118.704 Y101.033 E23.7669
G1 X118.565 Y98.790 E23.8258
G1 X119.324 Y96.467 E23.8898
G1 X120.786 Y94.726 E23.9493
G1 X122.799 Y93.609 E24.0096
G1 X125.859 Y93.375 E24.0900
G1 X127.804 Y94.061 E24.1440
G1 X129.214 Y95.127 E24.1903
G1 X130.733 Y97.688 E24.2683
G1 X131.003 Y100.200 E24.3345
G1 X130.574 Y101.893 E24.3802
G1 X130.063 Y102.681 E24.4048
G1 X145.116 Y102.721 E24.7991
G1 X146.591 Y103.331 E24.8409
G1 X147.211 Y104.811 E24.8829
G1 X147.290 Y119.959 E25.2797
G1 X148.971 Y119.166 E25.3284
G1 X151.126 Y119.019 E25.3850
G1 X153.520 Y119.785 E25.4508
G1 X155.257 Y121.228 E25.5099
G1 X156.324 Y123.070 E25.5657
G1 X156.724 Y125.226 E25.6231
G1 X156.348 Y127.377 E25.6803
G1 X154.640 Y129.863 E25.7593
G1 X152.343 Y131.197 E25.8289
G1 X149.966 Y131.475 E25.8916
G1 X147.959 Y130.966 E25.9458
G1 X147.322 Y130.553 E25.9657
G1 X147.310 Y144.999 E26.3441
G1 X146.490 Y146.605 E26.3913
G1 X145.671 Y147.188 E26.4176
G1 X104.088 Y147.119 E27.5068
G1 X102.789 Y145.209 E27.5673
G1 X102.727 Y140.913 E27.6798
G1 X101.461 Y141.166 E27.7136
G1 X98.843 Y140.602 E27.7838
G1 X97.223 Y139.386 E27.8368
G1 X96.262 Y137.807 E27.8853
G1 X95.319 Y137.147 E27.9154
G1 X94.284 Y135.928 E27.9573
G1 X93.562 Y134.427 E28.0009
G1 X93.267 Y132.789 E28.0445
G1 X93.695 Y130.298 E28.1107
G1 X94.911 Y128.292 E28.1722
G1 X96.015 Y127.317 E28.2107
G1 X96.780 Y126.911 E28.2334
G1 X97.181 Y126.113 E28.2568
G1 X98.166 Y125.053 E28.2947
G1 X99.523 Y124.325 E28.3350
G1 X98.834 Y124.353 E28.3531
G1 X96.808 Y123.766 E28.4084
G1 X94.717 Y122.145 E28.4777
G1 X93.553 Y120.108 E28.5391
G1 X93.206 Y117.868 E28.5985
G1 X93.772 Y115.434 E28.6639
G1 X95.347 Y113.312 E28.7331
G1 X97.657 Y112.009 E28.8026
G1 X100.184 Y111.757 E28.8691
G1 X102.627 Y112.518 E28.9361
G1 X102.690 Y104.998 E29.1331
G1 X103.862 Y103.014 E29.1935
G0 F3900 X104.111 Y103.353
G1 F900 X120.208 Y103.126 E29.6151
G1 X119.123 Y101.007 E29.6775
G1 X118.984 Y98.764 E29.7363
G1 X119.646 Y96.737 E29.7922
G1 X121.108 Y94.996 E29.8517
G1 X122.998 Y93.979 E29.9080
G1 X125.723 Y93.772 E29.9795
G1 X127.551 Y94.396 E30.0301
G1 X128.961 Y95.462 E30.0764
G1 X130.369 Y97.898 E30.1501
G1 X130.596 Y100.097 E30.2080
G1 X130.167 Y101.790 E30.2538
G1 X129.265 Y103.099 E30.2954
G1 X145.115 Y103.141 E30.7106
G1 X146.295 Y103.629 E30.7440
G1 X146.791 Y104.813 E30.7776
G1 X146.874 Y120.633 E31.1920
G1 X149.000 Y119.585 E31.2541
G1 X151.155 Y119.438 E31.3107
G1 X153.252 Y120.108 E31.3683
G1 X154.989 Y121.551 E31.4275
G1 X155.958 Y123.276 E31.4793
G1 X156.310 Y125.298 E31.5330
G1 X155.935 Y127.300 E31.5864
G1 X154.297 Y129.621 E31.6608
G1 X152.138 Y130.831 E31.7256
G1 X150.069 Y131.068 E31.7802
G1 X148.062 Y130.559 E31.8344
G1 X146.903 Y129.746 E31.8715
G1 X146.890 Y144.999 E32.2710
G1 X146.122 Y146.403 E32.3129
G1 X145.581 Y146.778 E32.3302
G1 X104.249 Y146.731 E33.4127
G1 X103.209 Y145.203 E33.4612
G1 X103.139 Y140.388 E33.5873
G1 X101.543 Y140.754 E33.6302
G1 X99.092 Y140.264 E33.6956
G1 X97.561 Y139.137 E33.7454
G1 X96.890 Y138.224 E33.7751
G1 X96.602 Y137.531 E33.7948
G1 X95.639 Y136.875 E33.8253
G1 X94.604 Y135.656 E33.8672
G1 X93.974 Y134.346 E33.9052
G1 X93.682 Y132.855 E33.9450
G1 X94.056 Y130.513 E34.0072
G1 X95.189 Y128.607 E34.0652
G1 X96.293 Y127.632 E34.1038
G1 X97.098 Y127.220 E34.1275
G1 X97.489 Y126.399 E34.1513
G1 X98.474 Y125.339 E34.1892
G1 X99.971 Y124.567 E34.2333
G1 X101.625 Y124.397 E34.2769
G1 X103.107 Y124.789 E34.3170
G1 X103.108 Y122.758 E34.3702
G1 X101.028 Y123.782 E34.4310
G1 X98.951 Y123.950 E34.4855
G1 X96.925 Y123.363 E34.5408
G1 X95.079 Y121.932 E34.6020
G1 X93.968 Y120.044 E34.6593
G1 X93.621 Y117.804 E34.7187
G1 X94.180 Y115.534 E34.7799
G1 X95.681 Y113.567 E34.8448
G1 X97.858 Y112.378 E34.9097
G1 X100.063 Y112.159 E34.9678
G1 X102.379 Y112.857 E35.0311
G1 X103.099 Y113.383 E35.0545
G1 X103.110 Y104.999 E35.2741
G1 X104.111 Y103.353 E35.3245
G0 F3900 X104.354 Y103.696
G1 F900 X121.218 Y103.537 E35.7663
G1 X120.638 Y103.040 E35.7863
G1 X119.542 Y100.975 E35.8475
G1 X119.385 Y98.889 E35.9023
G1 X119.971 Y97.003 E35.9540
G1 X121.307 Y95.366 E36.0094
G1 X123.197 Y94.349 E36.0656
G1 X125.592 Y94.171 E36.1285
G1 X127.298 Y94.731 E36.1755
G1 X128.708 Y95.797 E36.2218
G1 X130.003 Y98.104 E36.2911
G1 X130.189 Y99.994 E36.3408
G1 X129.760 Y101.687 E36.3866
G1 X128.449 Y103.517 E36.4456
G1 X145.114 Y103.561 E36.8821
G1 X145.999 Y103.927 E36.9071
G1 X146.371 Y104.815 E36.9324
G1 X146.460 Y121.691 E37.3744
G1 X147.123 Y120.963 E37.4002
G1 X149.034 Y120.004 E37.4562
G1 X151.033 Y119.840 E37.5087
G1 X152.988 Y120.434 E37.5622
G1 X154.623 Y121.757 E37.6173
G1 X155.592 Y123.482 E37.6691
G1 X155.895 Y125.365 E37.7191
G1 X155.523 Y127.217 E37.7686
G1 X153.957 Y129.374 E37.8384
G1 X152.084 Y130.414 E37.8945
G1 X150.172 Y130.661 E37.9450
G1 X148.165 Y130.152 E37.9992
G1 X146.484 Y128.917 E38.0539
G1 X146.470 Y144.999 E38.4751
G1 X145.761 Y146.188 E38.5113
G1 X145.496 Y146.367 E38.5197
G1 X104.409 Y146.343 E39.5959
G1 X103.629 Y145.197 E39.6322
G1 X103.549 Y139.664 E39.7771
G1 X102.981 Y140.004 E39.7945
G1 X101.625 Y140.342 E39.8311
G1 X99.174 Y139.852 E39.8965
G1 X97.818 Y138.805 E39.9414
G1 X97.232 Y137.981 E39.9679
G1 X96.945 Y137.254 E39.9884
G1 X95.957 Y136.600 E40.0194
G1 X94.983 Y135.474 E40.0584
G1 X94.353 Y134.164 E40.0965
G1 X94.095 Y132.778 E40.1334
G1 X94.470 Y130.584 E40.1917
G1 X95.467 Y128.922 E40.2425
G1 X96.571 Y127.947 E40.2810
G1 X97.419 Y127.530 E40.3058
G1 X97.797 Y126.685 E40.3300
G1 X98.782 Y125.625 E40.3679
G1 X100.158 Y124.943 E40.4082
G1 X101.661 Y124.815 E40.4477
G1 X102.898 Y125.147 E40.4812
G1 X103.526 Y125.604 E40.5016
G1 X103.529 Y121.706 E40.6037
G1 X102.940 Y122.373 E40.6270
G1 X100.994 Y123.363 E40.6842
G1 X98.917 Y123.531 E40.7387
G1 X97.048 Y122.961 E40.7899
G1 X95.340 Y121.603 E40.8471
G1 X94.333 Y119.836 E40.9003
G1 X94.037 Y117.745 E40.9557
G1 X94.586 Y115.640 E41.0126
G1 X96.011 Y113.827 E41.0730
G1 X97.906 Y112.795 E41.1296
G1 X99.942 Y112.561 E41.1832
G1 X102.258 Y113.259 E41.2466
G1 X103.518 Y114.242 E41.2884
G1 X103.530 Y105.000 E41.5305
G1 X104.354 Y103.696 E41.5709
G0 F3900 X103.950 Y105.001
G1 F900 X104.588 Y104.045 E41.6010
G1 X122.424 Y103.951 E42.0682
G1 X121.006 Y102.837 E42.1154
G1 X119.960 Y100.937 E42.1722
G1 X119.786 Y99.014 E42.2228
G1 X120.372 Y97.128 E42.2745
G1 X121.628 Y95.636 E42.3256
G1 X123.390 Y94.722 E42.3776
G1 X125.467 Y94.572 E42.4322
G1 X127.045 Y95.066 E42.4755
G1 X128.455 Y96.132 E42.5218
G1 X129.634 Y98.304 E42.5865
G1 X129.770 Y100.027 E42.6318
G1 X129.354 Y101.578 E42.6738
G1 X128.205 Y103.181 E42.7255
G1 X126.982 Y103.933 E42.7631
G1 X145.113 Y103.981 E43.2380
G1 X145.703 Y104.225 E43.2547
G1 X145.951 Y104.817 E43.2715
G1 X146.046 Y122.819 E43.7430
G1 X147.317 Y121.336 E43.7942
G1 X149.074 Y120.422 E43.8461
G1 X150.917 Y120.244 E43.8946
G1 X152.729 Y120.764 E43.9439
G1 X154.257 Y121.963 E43.9948
G1 X155.226 Y123.688 E44.0466
G1 X155.479 Y125.426 E44.0926
G1 X155.112 Y127.128 E44.1382
G1 X153.621 Y129.122 E44.2035
G1 X152.023 Y129.998 E44.2512
G1 X150.275 Y130.254 E44.2975
G1 X148.268 Y129.745 E44.3517
G1 X146.814 Y128.667 E44.3991
G1 X146.065 Y127.447 E44.4366
G1 X146.050 Y144.999 E44.8963
G1 X145.412 Y145.955 E44.9264
G1 X104.569 Y145.955 E45.9962
G1 X104.049 Y145.191 E46.0204
G1 X103.958 Y138.902 E46.1851
G1 X102.879 Y139.596 E46.2188
G1 X101.523 Y139.934 E46.2554
G1 X99.431 Y139.520 E46.3112
G1 X98.075 Y138.473 E46.3561
G1 X97.579 Y137.745 E46.3792
G1 X97.289 Y136.976 E46.4007
G1 X96.275 Y136.325 E46.4322
G1 X95.301 Y135.199 E46.4712
G1 X94.733 Y133.986 E46.5063
G1 X94.509 Y132.706 E46.5404
G1 X94.883 Y130.659 E46.5949
G1 X95.824 Y129.143 E46.6416
G1 X96.845 Y128.266 E46.6768
G1 X97.745 Y127.841 E46.7029
G1 X98.111 Y126.964 E46.7278
G1 X98.969 Y126.001 E46.7616
