;Sliced by ideaMaker 5.2.3.8580, 2025-05-24 13:22:56 UTC+0200
;Slicer Version: 5.2.3.8580
;Dimension: 250.000 250.000 250.000 0.400
;Plate Shape: 0
;Origin Center: 0
;Extruder Offset #1: 25.000 0.000
;Filament Diameter #1: 1.750
;Filament Diameter #2: 1.750
;Filament Compensation #1: 94.000
;Filament Compensation #2: 90.000
;Filament Density #1: 1240.000
;Filament Density #2: 1240.000
;Filament Type #1: PLA
;Filament Type #2: PLA
;Filament Name #1: [Raise3D] Premium PLA 1.75mm
;Filament Name #2: [Raise3D] Premium PLA 1.75mm
;Filament #1: PLA 1.75mm
;Filament #2: PLA 1.75mm
;Printer Type: floppy
;Firmware: Klipper
;Bounding Box: 93.632 158.251 107.278 142.820 0.000 39.300
;Model Gap: 0.000
M221 T0 S94.00
M140 S50.00
M104 T0 S190.00
M109 T0 S190.00
T0
M190 S50.00
G21 ;metric values
G90 ;absolute positioning
M82 ;set extruder to absolute mode
M107 ;start with the fan off
G28 X0 Y0 ;move X/Y to min endstops
G28 Z0 ;move Z to min endstops
G1 Z15.0 F9000 ;move the platform down 15mm
G92 E0 ;zero the extruded length
G0 X43 Y27 F2000  ;go to the edge of the bed
G92 X0 Y0 E0 ;set zero to edge of the bed
G0 F9000 Z1 ;Z up with 1mm
G1 F200 Z0 ;Z home slowly
G1 Z15.0 F9000 ;move the platform down 15mm
G1 F9000 ;speed setting
G92 E-3 ;retraction
M117 Printing...
M1001
;TOTAL_NUM: 1
;PRINTING_TIME: 0
;REMAINING_TIME: 3901
;LAYER:0
;Z:0.300
;HEIGHT:0.300
;PRINTING: NON-OBJECT
;PRINTING_ID: -1
G1 F2400 E-3.0000
G0 F3900 X100.013 Y110.382
G0 F300 Z0.300
;TYPE:SKIRT
;WIDTH:0.420
G1 F1500 E0.0000
G1 F900 X101.564 Y109.346 E0.0977
G1 X105.949 Y107.843 E0.3405
G1 X115.873 Y107.968 E0.8604
G1 X116.656 Y108.178 E0.9029
G1 X117.603 Y107.792 E0.9565
G1 X124.815 Y107.278 E1.3352
G1 X126.809 Y107.966 E1.4457
G1 X127.514 Y109.195 E1.5200
G1 X127.452 Y110.018 E1.5632
G1 X128.290 Y110.549 E1.6152
G1 X128.985 Y111.464 E1.6753
G1 X129.057 Y112.858 E1.7485
G1 X128.695 Y113.537 E1.7888
G1 X127.789 Y114.445 E1.8560
G1 X127.786 Y114.693 E1.8690
G1 X130.539 Y113.164 E2.0339
G1 X135.574 Y112.451 E2.3003
G1 X140.556 Y112.964 E2.5627
G1 X143.570 Y114.103 E2.7315
G1 X145.068 Y114.382 E2.8113
G1 X146.991 Y112.086 E2.9682
G1 X148.476 Y111.543 E3.0510
G1 X149.471 Y111.883 E3.1061
G1 X150.159 Y112.486 E3.1540
G1 X150.507 Y113.494 E3.2099
G1 X151.454 Y113.240 E3.2612
G1 X154.035 Y112.924 E3.3974
G1 X155.421 Y113.257 E3.4721
G1 X156.244 Y114.375 E3.5448
G1 X156.207 Y115.246 E3.5905
G1 X157.483 Y116.102 E3.6710
G1 X158.091 Y117.319 E3.7423
G1 X157.922 Y118.528 E3.8062
G1 X157.456 Y119.320 E3.8544
G1 X156.283 Y120.000 E3.9254
G1 X156.929 Y121.469 E4.0094
G1 X156.700 Y122.530 E4.0663
G1 X155.945 Y123.389 E4.1262
G1 X154.860 Y123.681 E4.1851
G1 X150.837 Y123.595 E4.3959
G1 X147.179 Y122.962 E4.5903
G1 X145.006 Y122.170 E4.7115
G1 X144.322 Y121.628 E4.7572
G1 X138.848 Y121.362 E5.0443
G1 X136.820 Y121.780 E5.1528
G1 X136.769 Y127.511 E5.4530
G1 X136.930 Y128.084 E5.4842
G1 X141.175 Y128.716 E5.7090
G1 X145.082 Y128.201 E5.9154
G1 X147.191 Y127.045 E6.0414
G1 X150.398 Y126.527 E6.2116
G1 X155.503 Y126.485 E6.4790
G1 X156.516 Y127.169 E6.5431
G1 X156.923 Y128.314 E6.6067
G1 X156.328 Y130.095 E6.7051
G1 X157.967 Y131.291 E6.8114
G1 X158.251 Y132.549 E6.8789
G1 X157.923 Y133.636 E6.9384
G1 X157.119 Y134.325 E6.9939
G1 X156.023 Y134.849 E7.0575
G1 X155.744 Y136.013 E7.1202
G1 X154.782 Y136.902 E7.1888
G1 X152.357 Y137.048 E7.3161
G1 X150.619 Y136.612 E7.4100
G1 X150.385 Y137.350 E7.4505
G1 X149.882 Y138.028 E7.4947
G1 X148.328 Y138.637 E7.5822
G1 X147.563 Y138.525 E7.6227
G1 X146.754 Y138.023 E7.6726
G1 X145.300 Y135.864 E7.8089
G1 X144.181 Y135.834 E7.8676
G1 X138.935 Y137.434 E8.1549
G1 X135.578 Y137.509 E8.3308
G1 X130.960 Y136.964 E8.5744
G1 X129.230 Y136.107 E8.6755
G1 X128.352 Y135.396 E8.7347
G1 X127.546 Y135.232 E8.7778
G1 X127.557 Y135.381 E8.7856
G1 X129.158 Y136.227 E8.8804
G1 X129.597 Y137.157 E8.9343
G1 X129.561 Y138.085 E8.9830
G1 X129.238 Y138.748 E9.0216
G1 X128.716 Y139.246 E9.0594
G1 X127.176 Y139.872 E9.1465
G1 X127.233 Y140.701 E9.1900
G1 X126.819 Y141.564 E9.2401
G1 X125.712 Y142.475 E9.3152
G1 X124.717 Y142.820 E9.3704
G1 X117.688 Y142.294 E9.7397
G1 X115.792 Y141.488 E9.8476
G1 X114.520 Y141.345 E9.9146
G1 X111.043 Y142.376 E10.1046
G1 X107.264 Y142.385 E10.3026
G1 X102.384 Y141.143 E10.5664
G1 X101.669 Y140.780 E10.6084
G1 X99.214 Y138.590 E10.7807
G1 X94.911 Y131.001 E11.2377
G1 X94.159 Y129.024 E11.3485
G1 X94.209 Y127.364 E11.4355
G1 X96.228 Y116.674 E12.0054
G1 X98.488 Y112.072 E12.2740
G1 X100.013 Y110.382 E12.3932
G0 F3900 X100.325 Y110.663
G1 F900 X101.795 Y109.697 E12.4854
G1 X106.084 Y108.241 E12.7226
G1 X115.867 Y108.388 E13.2352
G1 X116.684 Y108.623 E13.2797
G1 X117.635 Y108.211 E13.3340
G1 X124.684 Y107.677 E13.7043
G1 X126.536 Y108.285 E13.8064
G1 X127.098 Y109.252 E13.8650
G1 X127.012 Y110.237 E13.9168
G1 X128.065 Y110.904 E13.9821
G1 X128.644 Y111.709 E14.0341
G1 X128.681 Y112.671 E14.0845
G1 X128.398 Y113.240 E14.1178
G1 X127.371 Y114.269 E14.1939
G1 X127.358 Y115.291 E14.2475
G1 X128.325 Y114.947 E14.3012
G1 X130.599 Y113.580 E14.4402
G1 X135.531 Y112.869 E14.7013
G1 X140.513 Y113.382 E14.9636
G1 X143.458 Y114.509 E15.1288
G1 X145.233 Y114.840 E15.2234
G1 X147.313 Y112.356 E15.3931
G1 X148.452 Y111.962 E15.4562
G1 X149.328 Y112.278 E15.5050
G1 X149.870 Y112.791 E15.5441
G1 X150.217 Y114.007 E15.6104
G1 X151.563 Y113.646 E15.6834
G1 X154.085 Y113.341 E15.8164
G1 X155.176 Y113.598 E15.8752
G1 X155.837 Y114.480 E15.9329
G1 X155.771 Y115.470 E15.9849
G1 X157.112 Y116.298 E16.0674
G1 X157.673 Y117.359 E16.1303
G1 X157.507 Y118.466 E16.1889
G1 X157.103 Y119.092 E16.2280
G1 X155.735 Y119.815 E16.3090
G1 X156.509 Y121.487 E16.4055
G1 X156.377 Y122.262 E16.4467
G1 X155.749 Y123.018 E16.4982
G1 X154.869 Y123.261 E16.5460
G1 X150.846 Y123.175 E16.7568
G1 X147.251 Y122.548 E16.9480
G1 X145.151 Y121.776 E17.0652
G1 X144.483 Y121.215 E17.1109
G1 X138.818 Y120.940 E17.4080
G1 X136.463 Y121.425 E17.5340
G1 X136.349 Y121.985 E17.5639
G1 X136.349 Y127.568 E17.8564
G1 X136.600 Y128.459 E17.9049
G1 X141.172 Y129.140 E18.1470
G1 X145.218 Y128.606 E18.3608
G1 X147.258 Y127.460 E18.4834
G1 X150.465 Y126.942 E18.6535
G1 X155.348 Y126.875 E18.9094
G1 X156.171 Y127.408 E18.9607
G1 X156.525 Y128.449 E19.0183
G1 X156.176 Y129.540 E19.0783
G1 X155.755 Y130.223 E19.1204
G1 X157.562 Y131.402 E19.2334
G1 X157.846 Y132.439 E19.2897
G1 X157.590 Y133.380 E19.3408
G1 X156.938 Y133.946 E19.3860
G1 X155.655 Y134.560 E19.4605
G1 X155.397 Y135.776 E19.5256
G1 X154.629 Y136.511 E19.5813
G1 X152.335 Y136.629 E19.7017
G1 X150.325 Y136.100 E19.8105
G1 X150.048 Y137.100 E19.8649
G1 X149.545 Y137.778 E19.9091
G1 X148.389 Y138.221 E19.9740
G1 X147.624 Y138.109 E20.0145
G1 X146.991 Y137.676 E20.0546
G1 X145.530 Y135.450 E20.1941
G1 X144.123 Y135.412 E20.2679
G1 X138.812 Y137.032 E20.5587
G1 X135.571 Y137.089 E20.7285
G1 X131.010 Y136.547 E20.9691
G1 X129.421 Y135.733 E21.0627
G1 X128.563 Y135.025 E21.1209
G1 X127.972 Y134.811 E21.1539
G1 X127.093 Y134.814 E21.1999
G1 X127.157 Y135.657 E21.2442
G1 X128.787 Y136.423 E21.3385
G1 X129.177 Y137.160 E21.3822
G1 X129.183 Y137.901 E21.4210
G1 X128.860 Y138.564 E21.4597
G1 X128.440 Y138.929 E21.4888
G1 X126.714 Y139.602 E21.5859
G1 X126.846 Y140.537 E21.6353
G1 X126.547 Y141.244 E21.6756
G1 X125.559 Y142.084 E21.7435
G1 X124.748 Y142.401 E21.7891
G1 X117.719 Y141.875 E22.1583
G1 X115.905 Y141.078 E22.2621
G1 X114.481 Y140.918 E22.3372
G1 X111.042 Y141.956 E22.5254
G1 X107.263 Y141.965 E22.7233
G1 X102.489 Y140.736 E22.9816
G1 X101.946 Y140.465 E23.0134
G1 X99.579 Y138.383 E23.1785
G1 X95.276 Y130.794 E23.6355
G1 X94.579 Y129.037 E23.7345
G1 X94.629 Y127.377 E23.8215
G1 X96.641 Y116.752 E24.3880
G1 X98.800 Y112.353 E24.6447
G1 X100.325 Y110.663 E24.7639
G0 F3900 X100.637 Y110.944
G1 F900 X102.023 Y110.050 E24.8503
G1 X106.218 Y108.639 E25.0822
G1 X115.860 Y108.808 E25.5874
G1 X116.714 Y109.072 E25.6342
G1 X117.669 Y108.630 E25.6893
G1 X124.560 Y108.078 E26.0515
G1 X126.268 Y108.608 E26.1451
G1 X126.682 Y109.311 E26.1879
G1 X126.569 Y110.453 E26.2480
G1 X127.840 Y111.259 E26.3268
G1 X128.294 Y111.942 E26.3698
G1 X128.301 Y112.492 E26.3986
G1 X128.075 Y112.971 E26.4264
G1 X127.446 Y113.727 E26.4779
G1 X126.954 Y114.033 E26.5082
G1 X126.930 Y115.889 E26.6055
G1 X128.506 Y115.329 E26.6931
G1 X130.659 Y113.996 E26.8257
G1 X135.591 Y113.285 E27.0868
G1 X140.469 Y113.800 E27.3437
G1 X143.341 Y114.914 E27.5051
G1 X145.397 Y115.298 E27.6146
G1 X147.635 Y112.626 E27.7972
G1 X148.416 Y112.380 E27.8401
G1 X149.039 Y112.583 E27.8744
G1 X149.581 Y113.096 E27.9135
G1 X149.903 Y114.526 E27.9903
G1 X151.672 Y114.052 E28.0863
G1 X154.135 Y113.758 E28.2162
G1 X154.933 Y113.941 E28.2591
G1 X155.432 Y114.590 E28.3020
G1 X155.328 Y115.690 E28.3599
G1 X156.891 Y116.655 E28.4561
G1 X157.254 Y117.388 E28.4989
G1 X157.092 Y118.400 E28.5526
G1 X156.765 Y118.843 E28.5815
G1 X155.169 Y119.624 E28.6745
G1 X156.090 Y121.454 E28.7819
G1 X156.046 Y122.004 E28.8108
G1 X155.541 Y122.653 E28.8538
G1 X154.878 Y122.841 E28.8899
G1 X150.855 Y122.755 E29.1007
G1 X147.324 Y122.134 E29.2885
G1 X145.297 Y121.382 E29.4018
G1 X144.658 Y120.808 E29.4468
G1 X142.603 Y120.640 E29.5548
G1 X138.784 Y120.519 E29.7550
G1 X136.108 Y121.070 E29.8981
G1 X135.929 Y121.945 E29.9449
G1 X135.929 Y127.625 E30.2424
G1 X136.270 Y128.834 E30.3082
G1 X141.169 Y129.564 E30.5677
G1 X145.357 Y129.011 E30.7890
G1 X147.325 Y127.875 E30.9080
G1 X150.532 Y127.357 E31.0782
G1 X155.131 Y127.235 E31.3192
G1 X155.833 Y127.658 E31.3621
G1 X156.106 Y128.428 E31.4049
G1 X155.778 Y129.407 E31.4590
G1 X155.174 Y130.352 E31.5178
G1 X157.219 Y131.645 E31.6445
G1 X157.437 Y132.342 E31.6828
G1 X157.249 Y133.135 E31.7255
G1 X156.757 Y133.567 E31.7598
G1 X155.281 Y134.273 E31.8455
G1 X155.044 Y135.548 E31.9134
G1 X154.468 Y136.123 E31.9560
G1 X152.442 Y136.223 E32.0623
G1 X150.031 Y135.588 E32.1929
G1 X149.643 Y136.988 E32.2690
G1 X149.218 Y137.514 E32.3044
G1 X148.450 Y137.805 E32.3475
G1 X147.685 Y137.693 E32.3880
G1 X147.253 Y137.348 E32.4169
G1 X146.766 Y136.397 E32.4729
G1 X145.744 Y135.036 E32.5620
G1 X144.065 Y134.990 E32.6500
G1 X138.689 Y136.630 E32.9445
G1 X135.566 Y136.669 E33.1081
G1 X131.060 Y136.130 E33.3458
G1 X129.618 Y135.362 E33.4314
G1 X128.776 Y134.655 E33.4890
G1 X128.045 Y134.391 E33.5297
G1 X126.640 Y134.395 E33.6033
G1 X126.757 Y135.938 E33.6844
G1 X128.482 Y136.712 E33.7834
G1 X128.758 Y137.188 E33.8122
G1 X128.795 Y137.740 E33.8412
G1 X128.584 Y138.247 E33.8700
G1 X128.164 Y138.612 E33.8991
G1 X126.232 Y139.335 E34.0072
G1 X126.447 Y140.405 E34.0644
G1 X126.275 Y140.924 E34.0930
G1 X125.287 Y141.764 E34.1609
G1 X124.779 Y141.982 E34.1899
G1 X117.750 Y141.456 E34.5591
G1 X116.018 Y140.668 E34.6588
G1 X114.442 Y140.491 E34.7419
G1 X111.041 Y141.536 E34.9283
G1 X107.262 Y141.545 E35.1262
G1 X102.595 Y140.330 E35.3789
G1 X102.140 Y140.093 E35.4057
G1 X99.944 Y138.176 E35.5584
G1 X95.641 Y130.587 E36.0154
G1 X94.999 Y129.050 E36.1027
G1 X95.049 Y127.390 E36.1897
G1 X97.054 Y116.830 E36.7528
G1 X99.112 Y112.634 E36.9976
G1 X100.637 Y110.944 E37.1168
;PRINTING: Capybara_PHONE_15mm.stl
;PRINTING_ID: 0
G1 F2400 E34.1168
G0 F3900 X103.763 Y120.598
;TYPE:WALL-OUTER
;WIDTH:0.420
G1 F1500 E37.1168
G1 F2400 X102.877 Y119.668 E37.1841
G1 X102.573 Y118.996 E37.2228
G1 X103.317 Y118.095 E37.2840
G1 X104.164 Y117.732 E37.3322
G1 X104.586 Y117.707 E37.3544
G1 X105.397 Y118.041 E37.4003
G1 X106.014 Y118.595 E37.4438
G1 X106.980 Y118.574 E37.4944
G1 X107.076 Y118.299 E37.5096
G1 X105.376 Y116.885 E37.6255
G1 X104.668 Y116.610 E37.6653
G1 X104.035 Y116.619 E37.6984
G1 X103.031 Y116.828 E37.7521
G1 X102.301 Y117.251 E37.7963
G1 X101.481 Y118.300 E37.8661
G1 X101.370 Y118.859 E37.8959
G1 X101.681 Y119.758 E37.9458
G1 X102.933 Y121.135 E38.0433
G1 X103.763 Y120.598 E38.0951
G1 F2400 E35.0951
G0 F3900 X104.201 Y120.290
G1 F1500 E38.0951
G1 F2400 X105.299 Y121.387 E38.1764
G1 X104.093 Y122.176 E38.2519
G1 X105.141 Y123.228 E38.3296
G1 X106.347 Y122.439 E38.4051
G1 X106.899 Y122.992 E38.4461
G1 X107.993 Y122.838 E38.5039
G1 X108.075 Y122.592 E38.5175
G1 X107.315 Y121.828 E38.5740
G1 X109.275 Y120.640 E38.6940
G1 X108.185 Y119.545 E38.7750
G1 X106.018 Y119.566 E38.8885
G1 X105.303 Y119.574 E38.9260
G1 X104.201 Y120.290 E38.9948
G1 F2400 E35.9948
G0 F3900 X104.138 Y120.367
G0 X103.920 Y121.977
G0 X106.449 Y126.457
G0 X106.512 Y126.380
G1 F1500 E38.9948
G1 F2400 X109.029 Y128.900 E39.1814
G1 X109.808 Y128.416 E39.2294
G1 X107.292 Y125.895 E39.4160
G1 X106.512 Y126.380 E39.4641
G1 F2400 E36.4641
G0 F3900 X110.309 Y128.500
G1 F1500 E39.4641
G1 F2400 X112.300 Y130.311 E39.6051
G1 X112.898 Y130.522 E39.6383
G1 X113.967 Y130.344 E39.6951
G1 X114.387 Y129.997 E39.7236
G1 X114.685 Y129.316 E39.7626
G1 X115.482 Y129.210 E39.8047
G1 X116.266 Y128.549 E39.8584
G1 X116.335 Y128.040 E39.8853
G1 X115.852 Y127.153 E39.9382
G1 X114.974 Y126.236 E40.0047
G1 X114.424 Y126.519 E40.0371
G1 X114.050 Y126.715 E40.0593
G1 X115.060 Y127.884 E40.1402
G1 X114.555 Y128.353 E40.1763
G1 X113.316 Y127.346 E40.2599
G1 X112.528 Y127.665 E40.3045
G1 X113.639 Y128.869 E40.3903
G1 X113.223 Y129.339 E40.4232
G1 X112.952 Y129.388 E40.4376
G1 X111.470 Y127.999 E40.5440
G1 X110.309 Y128.500 E40.6102
G1 F2400 E37.6102
G0 F3900 X113.616 Y131.681
G1 F1500 E40.6102
G1 F2400 X114.439 Y132.507 E40.6713
G1 X115.183 Y132.911 E40.7157
G1 X116.026 Y133.115 E40.7611
G1 X117.061 Y132.973 E40.8158
G1 X117.910 Y132.486 E40.8671
G1 X118.591 Y131.699 E40.9216
G1 X118.800 Y130.879 E40.9659
G1 X118.678 Y130.226 E41.0007
G1 X117.769 Y129.104 E41.0764
G1 X115.566 Y130.471 E41.2122
G1 X113.616 Y131.681 E41.3324
G1 F2400 E38.3324
G0 F3900 X113.553 Y131.758
G0 X110.112 Y128.467
G0 X112.711 Y123.935
G0 X112.648 Y124.012
G1 F1500 E41.3324
G1 F2400 X109.985 Y121.344 E41.5299
G1 X109.570 Y121.613 E41.5558
G1 X108.907 Y122.042 E41.5972
G1 X110.427 Y123.557 E41.7096
G1 X106.257 Y123.977 E41.9291
G1 X106.168 Y124.226 E41.9430
G1 X107.005 Y125.076 E42.0055
G1 X111.581 Y124.525 E42.2469
G1 X112.648 Y124.012 E42.3089
G1 F2400 E39.3089
G0 F3900 X112.872 Y124.481
G0 X124.406 Y121.796
G0 X124.406 Y122.316
G1 F1500 E42.3089
G1 F2400 X124.406 Y127.714 E42.5917
G1 X125.253 Y127.714 E42.6361
G1 X125.253 Y122.316 E42.9188
G1 X124.406 Y122.316 E42.9632
G1 F2400 E39.9632
G0 F3900 X125.865 Y122.882
G1 F1500 E42.9632
G1 F2400 X125.865 Y123.606 E43.0011
G1 X126.255 Y123.909 E43.0270
G1 X131.785 Y123.806 E43.3168
G1 X131.785 Y123.091 E43.3542
G1 X131.509 Y122.674 E43.3804
G1 X130.668 Y122.032 E43.4358
G1 X130.434 Y122.148 E43.4495
G1 X130.352 Y122.778 E43.4828
G1 X125.865 Y122.882 E43.7179
G1 F2400 E40.7179
G0 F3900 X127.746 Y124.440
G1 F1500 E43.7179
G1 F2400 X126.781 Y124.431 E43.7685
G1 X126.130 Y125.068 E43.8162
G1 X125.861 Y125.900 E43.8620
G1 X126.026 Y126.762 E43.9079
G1 X126.595 Y127.431 E43.9540
G1 X127.408 Y127.750 E43.9997
G1 X128.282 Y127.646 E44.0458
G1 X128.961 Y127.134 E44.0904
G1 X130.355 Y125.418 E44.2062
G1 X130.664 Y125.523 E44.2233
G1 X130.814 Y127.855 E44.3457
G1 X131.785 Y127.500 E44.3998
G1 X131.785 Y124.980 E44.5319
G1 X131.499 Y124.252 E44.5728
G1 X130.562 Y124.252 E44.6219
G1 X129.743 Y124.382 E44.6654
G1 X128.244 Y126.235 E44.7902
G1 X127.733 Y126.598 E44.8230
G1 X127.215 Y126.443 E44.8514
G1 X127.021 Y125.923 E44.8804
G1 X127.746 Y124.440 E44.9669
G1 F2400 E41.9669
G0 F3900 X127.736 Y124.340
G0 X126.192 Y124.098
G0 X125.686 Y123.693
G0 X123.990 Y117.321
G0 X123.052 Y115.553
G0 X123.939 Y111.233
G0 X123.961 Y111.136
G1 F1500 E44.9669
G1 F2400 X126.386 Y111.944 E45.1008
G1 X126.822 Y112.269 E45.1293
G1 X126.551 Y112.617 E45.1524
G1 X124.333 Y113.655 E45.2807
G1 X124.352 Y113.942 E45.2958
G1 X125.428 Y114.277 E45.3548
G1 X125.555 Y114.506 E45.3685
G1 X124.591 Y115.327 E45.4348
G1 X123.291 Y115.157 E45.5035
G1 X123.146 Y115.367 E45.5169
G1 X124.089 Y117.148 E45.6225
G1 X128.123 Y116.972 E45.8340
G1 X129.132 Y116.612 E45.8901
G1 X131.134 Y115.339 E46.0144
G1 X135.757 Y114.695 E46.2589
G1 X140.276 Y115.207 E46.4971
G1 X142.942 Y116.284 E46.6478
G1 X145.961 Y116.848 E46.8086
G1 X148.191 Y114.134 E46.9926
G1 X149.733 Y116.047 E47.1214
G1 X151.849 Y115.462 E47.2364
