;Sliced by ideaMaker 5.2.4.8581, 2025-08-06 14:02:02 UTC+0200
;Slicer Version: 5.2.3.8580
;Dimension: 250.000 250.000 250.000 0.400
;Plate Shape: 0
;Origin Center: 0
;Extruder Offset #1: 25.000 0.000
;Filament Diameter #1: 1.750
;Filament Diameter #2: 1.750
;Filament Compensation #1: 94.000
;Filament Compensation #2: 90.000
;Filament Density #1: 1240.000
;Filament Density #2: 1240.000
;Filament Type #1: PLA
;Filament Type #2: PLA
;Filament Name #1: [Raise3D] Premium PLA 1.75mm
;Filament Name #2: [Raise3D] Premium PLA 1.75mm
;Filament #1: PLA 1.75mm
;Filament #2: PLA 1.75mm
;Printer Type: floppy
;Firmware: Klipper
;Bounding Box: 70.592 176.825 98.059 134.057 0.000 15.000
;Model Gap: 0.000
M221 T0 S94.00
M140 S50.00
M104 T0 S190.00
M109 T0 S190.00
T0
M190 S50.00
G21 ;metric values
G90 ;absolute positioning
M82 ;set extruder to absolute mode
M107 ;start with the fan off
G28 X0 Y0 ;move X/Y to min endstops
G28 Z0 ;move Z to min endstops
G1 Z15.0 F9000 ;move the platform down 15mm
G92 E0 ;zero the extruded length
G0 X43 Y27 F2000  ;go to the edge of the bed
G92 X0 Y0 E0 ;set zero to edge of the bed
G0 F9000 Z1 ;Z up with 1mm
G1 F200 Z0 ;Z home slowly
G1 Z15.0 F9000 ;move the platform down 15mm
G1 F9000 ;speed setting
G92 E-3 ;retraction
M117 Printing...
M1001
;TOTAL_NUM: 1
;PRINTING_TIME: 0
;REMAINING_TIME: 3063
;LAYER:0
;Z:0.300
;HEIGHT:0.300
;PRINTING: NON-OBJECT
;PRINTING_ID: -1
G1 F2400 E-5.0000
G0 F3900 X73.368 Y120.720
G0 F300 Z0.300
;TYPE:SKIRT
;WIDTH:0.420
G1 F1500 E0.0000
G1 F900 X75.682 Y119.339 E0.1412
G1 X78.102 Y118.581 E0.2740
G1 X80.878 Y118.300 E0.4202
G1 X84.004 Y118.744 E0.5856
G1 X84.377 Y118.297 E0.6161
G1 X85.543 Y117.601 E0.6872
G1 X159.627 Y98.059 E4.7008
G1 X160.952 Y98.658 E4.7770
G1 X170.685 Y107.266 E5.4576
G1 X175.327 Y109.684 E5.7318
G1 X176.031 Y110.230 E5.7785
G1 X176.673 Y111.270 E5.8425
G1 X176.825 Y112.559 E5.9105
G1 X175.843 Y114.461 E6.0226
G1 X173.400 Y116.385 E6.1855
G1 X172.055 Y116.724 E6.2582
G1 X170.736 Y116.431 E6.3290
G1 X165.528 Y113.677 E6.6376
G1 X157.633 Y106.778 E7.1868
G1 X156.772 Y106.604 E7.2329
G1 X155.389 Y106.976 E7.3079
G1 X155.220 Y107.905 E7.3573
G1 X154.553 Y108.579 E7.4070
G1 X151.364 Y109.785 E7.5856
G1 X104.841 Y122.295 E10.1093
G1 X161.765 Y122.328 E13.0912
G1 X163.516 Y122.797 E13.1862
G1 X164.148 Y122.523 E13.2223
G1 X168.002 Y122.481 E13.4242
G1 X169.506 Y123.210 E13.5117
G1 X169.901 Y124.550 E13.5849
G1 X171.565 Y128.549 E13.8118
G1 X171.640 Y131.022 E13.9414
G1 X170.691 Y132.268 E14.0235
G1 X165.740 Y132.519 E14.2832
G1 X165.217 Y132.827 E14.3149
G1 X164.231 Y133.056 E14.3680
G1 X89.316 Y133.065 E18.2924
G1 X86.696 Y133.219 E18.4299
G1 X83.076 Y133.894 E18.6228
G1 X81.126 Y134.057 E18.7253
G1 X79.255 Y133.963 E18.8234
G1 X77.401 Y133.613 E18.9222
G1 X75.668 Y133.016 E19.0183
G1 X74.267 Y132.285 E19.1010
G1 X72.132 Y130.421 E19.2495
G1 X70.837 Y128.017 E19.3925
G1 X70.592 Y125.399 E19.5303
G1 X71.510 Y122.796 E19.6749
G1 X73.368 Y120.720 E19.8208
G0 F3900 X73.678 Y121.004
G1 F900 X75.895 Y119.701 E19.9555
G1 X78.226 Y118.982 E20.0833
G1 X80.919 Y118.718 E20.2251
G1 X84.190 Y119.196 E20.3982
G1 X84.597 Y118.655 E20.4337
G1 X85.651 Y118.007 E20.4985
G1 X159.459 Y98.444 E24.4984
G1 X160.674 Y98.973 E24.5679
G1 X170.443 Y107.613 E25.2510
G1 X175.133 Y110.056 E25.5281
G1 X175.771 Y110.560 E25.5706
G1 X176.311 Y111.482 E25.6266
G1 X176.407 Y112.595 E25.6851
G1 X175.580 Y114.134 E25.7767
G1 X173.283 Y115.982 E25.9311
G1 X172.141 Y116.313 E25.9934
G1 X170.932 Y116.060 E26.0581
G1 X165.724 Y113.306 E26.3667
G1 X157.860 Y106.418 E26.9143
G1 X157.381 Y106.212 E26.9416
G1 X156.727 Y106.181 E26.9759
G1 X155.015 Y106.641 E27.0688
G1 X154.859 Y107.690 E27.1244
G1 X154.404 Y108.186 E27.1596
G1 X151.215 Y109.392 E27.3382
G1 X101.666 Y122.713 E30.0260
G1 X161.765 Y122.748 E33.1743
G1 X163.561 Y123.245 E33.2719
G1 X164.153 Y122.943 E33.3067
G1 X168.007 Y122.901 E33.5086
G1 X169.190 Y123.487 E33.5778
G1 X169.500 Y124.681 E33.6424
G1 X171.177 Y128.710 E33.8710
G1 X171.247 Y130.875 E33.9845
G1 X170.476 Y131.907 E34.0520
G1 X165.610 Y132.104 E34.3071
G1 X165.117 Y132.419 E34.3377
G1 X164.231 Y132.636 E34.3855
G1 X89.308 Y132.645 E38.3103
G1 X86.642 Y132.802 E38.4502
G1 X82.999 Y133.481 E38.6443
G1 X81.092 Y133.638 E38.7446
G1 X79.277 Y133.544 E38.8398
G1 X77.480 Y133.200 E38.9356
G1 X75.806 Y132.619 E39.0284
G1 X74.462 Y131.913 E39.1080
G1 X72.502 Y130.222 E39.2436
G1 X71.207 Y127.818 E39.3866
G1 X71.011 Y125.366 E39.5155
G1 X71.904 Y122.941 E39.6509
G1 X73.678 Y121.004 E39.7884
G0 F3900 X73.891 Y121.366
G1 F900 X76.108 Y120.063 E39.9232
G1 X78.348 Y119.384 E40.0458
G1 X80.959 Y119.136 E40.1832
G1 X84.391 Y119.650 E40.3650
G1 X84.822 Y119.009 E40.4054
G1 X85.759 Y118.413 E40.4636
G1 X159.298 Y98.832 E44.4501
G1 X160.396 Y99.288 E44.5124
G1 X170.201 Y107.960 E45.1981
G1 X174.939 Y110.428 E45.4780
G1 X175.507 Y110.887 E45.5162
G1 X175.943 Y111.684 E45.5638
G1 X175.987 Y112.615 E45.6126
G1 X175.314 Y113.809 E45.6844
G1 X173.147 Y115.585 E45.8312
G1 X172.221 Y115.901 E45.8825
G1 X171.128 Y115.689 E45.9408
G1 X165.920 Y112.935 E46.2494
G1 X158.087 Y106.058 E46.7954
G1 X157.476 Y105.795 E46.8303
G1 X156.681 Y105.758 E46.8720
G1 X154.623 Y106.311 E46.9836
G1 X154.524 Y107.437 E47.0428
G1 X154.255 Y107.793 E47.0662
G1 X151.066 Y108.999 E47.2448
G1 X98.491 Y123.131 E50.0967
G1 X161.765 Y123.168 E53.4113
G1 X163.627 Y123.701 E53.5127
G1 X164.158 Y123.363 E53.5457
G1 X168.012 Y123.321 E53.7476
G1 X168.871 Y123.760 E53.7981
G1 X169.099 Y124.810 E53.8544
G1 X170.789 Y128.871 E54.0848
G1 X170.853 Y130.728 E54.1822
G1 X170.256 Y131.549 E54.2354
G1 X165.472 Y131.688 E54.4861
G1 X165.011 Y132.013 E54.5156
G1 X164.231 Y132.216 E54.5578
G1 X89.300 Y132.225 E58.4831
G1 X86.588 Y132.385 E58.6254
G1 X82.922 Y133.068 E58.8207
G1 X81.058 Y133.219 E58.9187
G1 X79.299 Y133.125 E59.0110
G1 X77.560 Y132.788 E59.1038
G1 X75.945 Y132.223 E59.1934
G1 X74.658 Y131.542 E59.2697
G1 X72.778 Y129.905 E59.4003
G1 X71.579 Y127.623 E59.5353
G1 X71.430 Y125.339 E59.6552
G1 X72.296 Y123.092 E59.7813
G1 X73.891 Y121.366 E59.9045
G0 F3900 X74.196 Y121.655
G1 F900 X76.318 Y120.427 E60.0329
G1 X78.468 Y119.787 E60.1504
G1 X80.998 Y119.554 E60.2835
G1 X83.816 Y119.896 E60.4322
G1 X84.576 Y120.158 E60.4743
G1 X85.054 Y119.359 E60.5231
G1 X85.868 Y118.819 E60.5743
G1 X159.145 Y99.223 E64.5477
G1 X160.118 Y99.603 E64.6025
G1 X169.959 Y108.307 E65.2907
G1 X174.745 Y110.800 E65.5734
G1 X175.238 Y111.210 E65.6070
G1 X175.567 Y111.871 E65.6456
G1 X175.567 Y112.615 E65.6846
G1 X175.045 Y113.487 E65.7379
G1 X173.011 Y115.188 E65.8768
G1 X172.085 Y115.504 E65.9280
G1 X171.324 Y115.318 E65.9690
G1 X166.116 Y112.564 E66.2777
G1 X158.312 Y105.698 E66.8222
G1 X157.571 Y105.379 E66.8644
G1 X156.636 Y105.335 E66.9135
G1 X154.231 Y105.981 E67.0439
G1 X154.106 Y107.400 E67.1185
G1 X150.917 Y108.606 E67.2971
G1 X98.022 Y122.822 E70.1664
G1 X98.118 Y123.551 E70.2049
G1 X161.765 Y123.588 E73.5390
G1 X163.703 Y124.162 E73.6449
G1 X164.252 Y123.772 E73.6802
G1 X168.015 Y123.741 E73.8773
G1 X168.546 Y124.026 E73.9089
G1 X168.692 Y124.925 E73.9566
G1 X170.401 Y129.032 E74.1896
G1 X170.459 Y130.583 E74.2709
G1 X170.030 Y131.195 E74.3101
G1 X165.322 Y131.270 E74.5567
G1 X164.897 Y131.609 E74.5852
G1 X164.231 Y131.796 E74.6214
G1 X89.292 Y131.805 E78.5471
G1 X86.534 Y131.968 E78.6918
G1 X82.845 Y132.655 E78.8884
G1 X81.025 Y132.800 E78.9840
G1 X79.322 Y132.706 E79.0734
G1 X77.641 Y132.376 E79.1631
G1 X76.085 Y131.827 E79.2496
G1 X74.856 Y131.171 E79.3225
G1 X73.055 Y129.589 E79.4481
G1 X71.953 Y127.432 E79.5750
G1 X71.822 Y125.490 E79.6770
G1 X72.688 Y123.243 E79.8031
G1 X74.196 Y121.655 E79.9178
G0 F3900 X74.406 Y122.019
G1 F900 X76.528 Y120.791 E80.0463
G1 X78.586 Y120.190 E80.1586
G1 X81.035 Y119.972 E80.2874
G1 X83.764 Y120.313 E80.4314
G1 X84.775 Y120.676 E80.4877
G1 X85.295 Y119.703 E80.5455
G1 X85.977 Y119.225 E80.5891
G1 X159.003 Y99.618 E84.5501
G1 X159.840 Y99.918 E84.5966
G1 X169.717 Y108.654 E85.2874
G1 X174.551 Y111.172 E85.5729
G1 X174.964 Y111.528 E85.6015
G1 X175.181 Y112.036 E85.6304
G1 X175.148 Y112.590 E85.6595
G1 X174.773 Y113.167 E85.6955
G1 X172.863 Y114.795 E85.8270
G1 X172.098 Y115.084 E85.8698
G1 X171.520 Y114.947 E85.9010
G1 X166.312 Y112.193 E86.2096
G1 X158.539 Y105.338 E86.7525
G1 X157.666 Y104.963 E86.8023
G1 X156.591 Y104.912 E86.8586
G1 X153.812 Y105.658 E87.0094
G1 X153.809 Y107.103 E87.0851
G1 X150.773 Y108.211 E87.2544
G1 X97.558 Y122.511 E90.1409
G1 X97.750 Y123.971 E90.2180
G1 X161.765 Y124.008 E93.5715
G1 X163.826 Y124.640 E93.6844
G1 X164.255 Y124.192 E93.7169
G1 X168.018 Y124.161 E93.9140
G1 X168.209 Y124.276 E93.9257
G1 X168.280 Y125.032 E93.9655
G1 X169.579 Y128.044 E94.1373
G1 X169.663 Y128.557 E94.1645
G1 X169.981 Y129.048 E94.1952
G1 X170.039 Y130.599 E94.2765
G1 X169.926 Y130.788 E94.2880
G1 X165.173 Y130.852 E94.5370
G1 X164.635 Y131.281 E94.5731
G1 X164.144 Y131.385 E94.5994
G1 X89.284 Y131.385 E98.5209
G1 X86.480 Y131.551 E98.6680
G1 X82.768 Y132.242 E98.8658
G1 X80.992 Y132.381 E98.9591
G1 X79.346 Y132.287 E99.0455
G1 X77.723 Y131.964 E99.1322
G1 X76.226 Y131.431 E99.2154
G1 X75.055 Y130.801 E99.2851
G1 X73.429 Y129.398 E99.3976
G1 X72.327 Y127.241 E99.5245
G1 X72.216 Y125.636 E99.6087
G1 X72.995 Y123.530 E99.7264
G1 X74.406 Y122.019 E99.8347
;PRINTING: clip_bag_02.stl
;PRINTING_ID: 0
G1 F2400 E94.8347
G1 F300 Z0.500
G0 F3900 X84.260 Y126.067
;TYPE:WALL-OUTER
;WIDTH:0.420
G1 F300 Z0.300
G1 F1500 E99.8347
G1 F2400 X83.965 Y127.057 E99.8888
G1 X82.965 Y127.883 E99.9567
G1 X81.460 Y128.317 E100.0388
G1 X79.813 Y128.234 E100.1252
G1 X78.419 Y127.654 E100.2043
G1 X77.864 Y127.141 E100.2439
G1 X77.559 Y126.559 E100.2783
G1 X77.518 Y125.955 E100.3100
G1 X77.743 Y125.357 E100.3435
G1 X78.221 Y124.817 E100.3812
G1 X78.942 Y124.373 E100.4256
G1 X79.833 Y124.083 E100.4747
G1 X81.134 Y123.980 E100.5430
G1 X82.710 Y124.322 E100.6275
G1 X83.827 Y125.090 E100.6985
G1 X84.260 Y126.067 E100.7545
G1 F2400 E95.7545
G1 F300 Z0.500
G0 F3900 X83.716 Y126.077
G0 X78.071 Y126.448
G0 X77.972 Y126.442
;TYPE:WALL-INNER
;WIDTH:0.420
G1 F300 Z0.300
G1 F1500 E100.7545
G1 F2400 X78.109 Y125.577 E100.8004
G1 X79.120 Y124.757 E100.8686
G1 X79.916 Y124.498 E100.9124
G1 X81.105 Y124.404 E100.9749
G1 X82.540 Y124.715 E101.0518
G1 X83.491 Y125.369 E101.1123
G1 X83.813 Y126.096 E101.1539
G1 X83.599 Y126.815 E101.1932
G1 X82.765 Y127.504 E101.2499
G1 X81.411 Y127.894 E101.3237
G1 X79.907 Y127.818 E101.4026
G1 X78.649 Y127.295 E101.4740
G1 X77.972 Y126.442 E101.5310
G0 F3900 X78.227 Y126.041
;TYPE:SOLID-FILL
;WIDTH:0.420
G1 F2400 X79.720 Y127.535 E101.6417
G0 F2400 X80.434 Y127.654
G1 F2400 X78.379 Y125.600 E101.7939
G0 F2400 X78.708 Y125.334
G1 F2400 X81.058 Y127.685 E101.9680
G0 F2400 X81.606 Y127.639
G1 F2400 X79.036 Y125.068 E102.1584
G0 F2400 X79.419 Y124.858
G1 F2400 X82.067 Y127.506 E102.3546
G0 F2400 X82.529 Y127.373
G1 F2400 X79.867 Y124.711 E102.5518
G0 F2400 X80.398 Y124.648
G1 F2400 X82.897 Y127.148 E102.7370
G0 F2400 X83.222 Y126.879
G1 F2400 X80.948 Y124.605 E102.9055
G0 F2400 X81.653 Y124.715
G1 F2400 X83.482 Y126.545 E103.0410
G0 F2400 X83.591 Y126.060
G1 F2400 X82.411 Y124.880 E103.1284
G1 F2400 E98.1284
G1 F300 Z0.500
G0 F3900 X82.948 Y123.097
G0 X80.690 Y122.667
G0 X78.297 Y123.156
G0 X76.841 Y124.177
G0 X75.947 Y125.887
G0 X76.046 Y125.872
;TYPE:WALL-OUTER
;WIDTH:0.420
G1 F300 Z0.300
G1 F1500 E103.1284
G1 F2400 X76.102 Y126.751 E103.1745
G1 X76.478 Y127.570 E103.2218
G1 X77.138 Y128.284 E103.2727
G1 X78.039 Y128.860 E103.3287
G1 X79.902 Y129.418 E103.4306
G1 X82.288 Y129.348 E103.5556
G1 X83.411 Y129.009 E103.6171
G1 X84.375 Y128.491 E103.6744
G1 X85.305 Y127.575 E103.7428
G1 X85.682 Y126.751 E103.7903
G1 X85.739 Y125.879 E103.8360
G1 X85.311 Y124.785 E103.8976
G1 X84.643 Y124.062 E103.9491
G1 X83.415 Y123.341 E104.0237
G1 X82.294 Y123.004 E104.0851
G1 X80.692 Y122.867 E104.1693
G1 X79.488 Y123.004 E104.2328
G1 X78.373 Y123.340 E104.2938
G1 X77.413 Y123.857 E104.3509
G1 X76.660 Y124.536 E104.4040
G1 X76.046 Y125.872 E104.4810
G1 F2400 E99.4810
G1 F300 Z0.500
G0 F3900 X75.575 Y125.654
G0 X76.153 Y124.164
G0 X78.135 Y122.766
G0 X80.684 Y122.245
G0 X83.663 Y122.770
G0 X87.670 Y125.644
G0 X88.120 Y125.385
G1 F300 Z0.300
G1 F1500 E104.4810
G1 F2400 X161.730 Y125.428 E108.3371
G1 X163.036 Y125.871 E108.4093
G1 X163.805 Y126.661 E108.4671
G1 X163.932 Y127.198 E108.4960
G1 X163.932 Y129.965 E108.6409
G1 X89.238 Y129.965 E112.5537
G1 X86.301 Y130.139 E112.7079
G1 X82.518 Y130.844 E112.9094
G1 X81.059 Y130.963 E112.9861
G1 X78.186 Y130.620 E113.1377
G1 X76.875 Y130.168 E113.2103
G1 X75.749 Y129.563 E113.2773
G1 X74.572 Y128.551 E113.3586
G1 X73.737 Y127.070 E113.4477
G1 X73.626 Y125.835 E113.5126
G1 X74.188 Y124.305 E113.5980
G1 X75.165 Y123.220 E113.6745
G1 X76.968 Y122.143 E113.7845
G1 X78.739 Y121.601 E113.8815
G1 X81.137 Y121.389 E114.0076
G1 X83.548 Y121.717 E114.1351
G1 X85.633 Y122.543 E114.2526
G1 X87.184 Y123.767 E114.3561
G1 X88.120 Y125.385 E114.4540
G1 F2400 E109.4540
G1 F300 Z0.500
G0 F3900 X87.670 Y125.644
G0 X83.663 Y122.770
G0 X80.684 Y122.245
G0 X78.135 Y122.766
G0 X76.352 Y124.024
G0 X75.521 Y125.808
G0 X75.620 Y125.793
;TYPE:WALL-INNER
;WIDTH:0.420
G1 F300 Z0.300
G1 F1500 E114.4540
G1 F2400 X75.688 Y126.855 E114.5098
G1 X76.124 Y127.806 E114.5646
G1 X76.866 Y128.609 E114.6218
G1 X77.862 Y129.245 E114.6837
G1 X79.846 Y129.840 E114.7922
G1 X82.356 Y129.766 E114.9238
G1 X83.573 Y129.399 E114.9904
G1 X84.627 Y128.832 E115.0531
G1 X85.655 Y127.820 E115.1286
G1 X86.096 Y126.855 E115.1842
G1 X86.164 Y125.813 E115.2389
G1 X85.673 Y124.558 E115.3095
G1 X84.909 Y123.731 E115.3685
G1 X83.584 Y122.953 E115.4490
G1 X82.373 Y122.589 E115.5152
G1 X80.686 Y122.445 E115.6039
G1 X79.403 Y122.591 E115.6716
G1 X78.211 Y122.950 E115.7368
G1 X77.169 Y123.511 E115.7988
G1 X76.314 Y124.282 E115.8591
G1 X75.620 Y125.793 E115.9462
G1 F2400 E110.9462
G1 F300 Z0.500
G0 F3900 X75.521 Y125.808
G0 X75.495 Y126.903
G0 X76.738 Y128.762
G0 X77.779 Y129.426
G0 X79.820 Y130.038
G0 X82.387 Y129.963
G0 X84.296 Y129.178
G0 X87.888 Y125.905
G0 X87.878 Y125.805
G1 F300 Z0.300
G1 F1500 E115.9462
G1 F2400 X161.661 Y125.848 E119.8113
G1 X162.805 Y126.236 E119.8746
G1 X163.423 Y126.871 E119.9210
G1 X163.512 Y129.545 E120.0611
G1 X89.226 Y129.545 E123.9526
G1 X86.250 Y129.721 E124.1088
G1 X82.462 Y130.427 E124.3106
G1 X81.067 Y130.541 E124.3839
G1 X78.280 Y130.208 E124.5310
G1 X77.044 Y129.782 E124.5994
G1 X75.988 Y129.215 E124.6622
G1 X74.902 Y128.281 E124.7373
G1 X74.147 Y126.942 E124.8178
G1 X74.053 Y125.891 E124.8731
G1 X74.554 Y124.526 E124.9492
G1 X75.435 Y123.548 E125.0182
G1 X77.140 Y122.530 E125.1222
G1 X78.820 Y122.015 E125.2143
G1 X81.127 Y121.812 E125.3356
G1 X83.441 Y122.126 E125.4579
G1 X85.421 Y122.911 E125.5695
G1 X86.861 Y124.047 E125.6656
G1 X87.878 Y125.805 E125.7720
G1 F2400 E120.7720
G1 F300 Z0.500
G0 F3900 X87.888 Y125.905
G0 X86.107 Y127.654
G0 X83.964 Y129.403
;TYPE:SOLID-FILL
;WIDTH:0.420
;WIDTH:0.333
G1 F300 Z0.300
G1 F1500 E125.7720
G1 F2400 X84.678 Y129.820 E125.8063
;WIDTH:0.420
G1 X84.350 Y129.195 E125.8433
G0 F2400 X84.737 Y128.988
G1 F2400 X85.430 Y129.681 E125.8946
G0 F2400 X85.931 Y129.587
G1 F2400 X85.037 Y128.694 E125.9608
G0 F2400 X85.336 Y128.399
G1 F2400 X86.455 Y129.518 E126.0437
G0 F2400 X87.016 Y129.485
G1 F2400 X85.635 Y128.104 E126.1460
G0 F2400 X85.888 Y127.762
G1 F2400 X87.577 Y129.452 E126.2712
G0 F2400 X88.138 Y129.418
G1 F2400 X86.073 Y127.354 E126.4241
G0 F2400 X86.259 Y126.946
G1 F2400 X88.698 Y129.385 E126.6048
G0 F2400 X89.262 Y129.355
G1 F2400 X86.314 Y126.407 E126.8232
G0 F2400 X86.351 Y125.850
G1 F2400 X89.856 Y129.355 E127.0829
G0 F2400 X90.450 Y129.355
G1 F2400 X86.018 Y124.923 E127.4112
G0 F2400 X87.072 Y124.789
G1 F2400 X85.481 Y123.198 E127.5291
G0 F2400 X84.511 Y122.822
G1 F2400 X91.044 Y129.355 E128.0131
G0 F2400 X91.638 Y129.355
G1 F2400 X88.277 Y125.994 E128.2621
G0 F2400 X88.871 Y125.994
G1 F2400 X92.232 Y129.355 E128.5111
G0 F2400 X92.826 Y129.355
G1 F2400 X89.465 Y125.995 E128.7600
G0 F2400 X90.059 Y125.995
G1 F2400 X93.420 Y129.355 E129.0090
