;Sliced by ideaMaker 5.3.2.8640, 2025-12-10 17:41:12 UTC+0100
;Slicer Version: 5.3.0.8620
;Dimension: 250.000 250.000 250.000 0.400
;Plate Shape: 0
;Origin Center: 0
;Extruder Offset #1: 25.000 0.000
;Filament Diameter #1: 1.750
;Filament Diameter #2: 1.750
;Filament Compensation #1: 94.000
;Filament Compensation #2: 90.000
;Filament Density #1: 1240.000
;Filament Density #2: 1240.000
;Filament Type #1: PLA
;Filament Type #2: PLA
;Filament Name #1: [Raise3D] Premium PLA 1.75mm
;Filament Name #2: [Raise3D] Premium PLA 1.75mm
;Filament #1: PLA 1.75mm
;Filament #2: PLA 1.75mm
;Printer Type: floppy
;Firmware: Klipper
;Bounding Box: 94.700 155.300 94.784 155.215 0.000 1.050
;Model Gap: 0.000
M221 T0 S94.00
M140 S45.00
M104 T0 S195.00
M109 T0 S195.00
T0
M190 S45.00
G21 ;metric values
G90 ;absolute positioning
M82 ;set extruder to absolute mode
M107 ;start with the fan off
G28 X0 Y0 ;move X/Y to min endstops
G28 Z0 ;move Z to min endstops
G1 Z15.0 F9000 ;move the platform down 15mm

G92 E0 ;zero the extruded length

G0 X43 Y27 F2000  ;go to the edge of the bed
G92 X0 Y0 E0 ;set zero to edge of the bed
G0 F9000 Z1 ;Z up with 1mm
G1 F200 Z0 ;Z home slowly

G1 Z15.0 F9000 ;move the platform down 15mm

G1 F9000 ;speed setting
G92 E-3 ;retraction
M117 Printing...
M1001
;TOTAL_NUM: 1
;PRINTING_TIME: 0
;REMAINING_TIME: 702
;LAYER:0
;Z:0.150
;HEIGHT:0.150
;PRINTING: Dani_al??t??t.stl
;PRINTING_ID: 0
G1 F2400 E-5.0000
SET_VELOCITY_LIMIT ACCEL=500.00
SET_VELOCITY_LIMIT SQUARE_CORNER_VELOCITY=5.00
G0 F3900 X102.941 Y104.535
G0 F300 Z0.150
;TYPE:WALL-OUTER
;WIDTH:0.420
G1 F1500 E0.0000
G1 F2400 X106.239 Y101.475 E0.1178
G1 X109.958 Y98.940 E0.2357
G1 X114.003 Y96.991 E0.3533
G1 X118.304 Y95.665 E0.4712
G1 X122.751 Y94.994 E0.5890
G1 X127.618 Y95.050 E0.7165
G1 X131.695 Y95.665 E0.8245
G1 X135.996 Y96.991 E0.9424
G1 X140.041 Y98.940 E1.0600
G1 X143.760 Y101.475 E1.1779
G1 X147.058 Y104.535 E1.2957
G1 X149.860 Y108.048 E1.4134
G1 X152.248 Y112.296 E1.5410
G1 X153.750 Y116.126 E1.6488
G1 X154.754 Y120.520 E1.7669
G1 X155.090 Y125.000 E1.8845
G1 X154.754 Y129.479 E2.0022
G1 X153.750 Y133.873 E2.1202
G1 X152.111 Y138.052 E2.2378
G1 X149.860 Y141.951 E2.3557
G1 X147.058 Y145.464 E2.4734
G1 X143.760 Y148.524 E2.5913
G1 X140.041 Y151.059 E2.7091
G1 X135.996 Y153.008 E2.8268
G1 X131.695 Y154.334 E2.9446
G1 X127.246 Y155.005 E3.0625
G1 X122.753 Y155.005 E3.1802
G1 X118.304 Y154.334 E3.2980
G1 X114.003 Y153.008 E3.4159
G1 X109.956 Y151.058 E3.5336
G1 X105.966 Y148.270 E3.6611
G1 X102.941 Y145.464 E3.7691
G1 X100.139 Y141.951 E3.8868
G1 X97.751 Y137.703 E4.0145
G1 X96.249 Y133.873 E4.1222
G1 X95.245 Y129.479 E4.2403
G1 X94.910 Y125.000 E4.3579
G1 X95.245 Y120.520 E4.4756
G1 X96.247 Y116.132 E4.5935
G1 X98.079 Y111.617 E4.7211
G1 X100.139 Y108.048 E4.8290
G1 X102.941 Y104.535 E4.9467
G1 F2400 E-0.0533
G1 F300 Z0.350
G0 F3900 X103.321 Y104.891
G0 X120.519 Y121.355
G0 X120.968 Y121.616
G1 F300 Z0.150
G1 F1500 E4.9467
G1 F2400 X120.054 Y123.199 E4.9946
G1 X119.737 Y125.000 E5.0425
G1 X120.054 Y126.800 E5.0904
G1 X120.968 Y128.383 E5.1383
G1 X122.368 Y129.558 E5.1861
G1 X124.086 Y130.183 E5.2340
G1 X125.913 Y130.183 E5.2819
G1 X127.632 Y129.558 E5.3298
G1 X129.034 Y128.381 E5.3777
G1 X129.971 Y126.653 E5.4292
G1 X130.263 Y125.000 E5.4732
G1 X129.945 Y123.199 E5.5211
G1 X129.031 Y121.616 E5.5690
G1 X127.632 Y120.441 E5.6168
G1 X125.913 Y119.816 E5.6647
G1 X124.086 Y119.816 E5.7126
G1 X122.368 Y120.441 E5.7605
G1 X120.968 Y121.616 E5.8083
G1 F2400 E0.8083
G1 F300 Z0.350
G0 F3900 X120.519 Y121.355
G0 X103.325 Y104.888
G0 X103.250 Y104.821
;TYPE:WALL-INNER
;WIDTH:0.420
G1 F300 Z0.150
G1 F1500 E5.8083
G1 F2400 X106.502 Y101.804 E5.9245
G1 X110.169 Y99.305 E6.0407
G1 X114.157 Y97.383 E6.1567
G1 X118.398 Y96.076 E6.2729
G1 X122.780 Y95.414 E6.3890
G1 X127.584 Y95.470 E6.5148
G1 X131.601 Y96.076 E6.6213
G1 X135.842 Y97.383 E6.7375
G1 X139.830 Y99.305 E6.8534
G1 X143.497 Y101.804 E6.9697
G1 X146.749 Y104.821 E7.0859
G1 X149.511 Y108.283 E7.2019
G1 X151.868 Y112.476 E7.3279
G1 X153.348 Y116.250 E7.4340
G1 X154.338 Y120.583 E7.5504
G1 X154.669 Y125.000 E7.6665
G1 X154.338 Y129.416 E7.7825
G1 X153.348 Y133.749 E7.8989
G1 X151.732 Y137.869 E8.0148
G1 X149.512 Y141.714 E8.1311
G1 X146.749 Y145.178 E8.2471
G1 X143.497 Y148.195 E8.3633
G1 X139.830 Y150.694 E8.4796
G1 X135.842 Y152.616 E8.5955
G1 X131.601 Y153.923 E8.7117
G1 X127.215 Y154.585 E8.8279
G1 X122.784 Y154.585 E8.9440
G1 X118.398 Y153.923 E9.0602
G1 X114.157 Y152.616 E9.1764
G1 X110.169 Y150.694 E9.2924
G1 X106.230 Y147.942 E9.4182
G1 X103.250 Y145.177 E9.5247
G1 X100.488 Y141.716 E9.6407
G1 X98.131 Y137.523 E9.7667
G1 X96.651 Y133.749 E9.8728
G1 X95.661 Y129.416 E9.9892
G1 X95.331 Y125.000 E10.1052
G1 X95.661 Y120.583 E10.2212
G1 X96.649 Y116.259 E10.3374
G1 X98.457 Y111.802 E10.4634
G1 X100.487 Y108.285 E10.5698
G1 X103.250 Y104.821 E10.6858
G1 F2400 E5.6858
G1 F300 Z0.350
G0 F3900 X103.325 Y104.888
G0 X120.550 Y121.300
G0 X120.641 Y121.342
G1 F300 Z0.150
G1 F1500 E10.6858
G1 F2400 X119.653 Y123.053 E10.7376
G1 X119.311 Y125.000 E10.7893
G1 X119.653 Y126.946 E10.8411
G1 X120.641 Y128.657 E10.8929
G1 X122.155 Y129.927 E10.9446
G1 X124.012 Y130.603 E10.9964
G1 X125.987 Y130.603 E11.0481
G1 X127.845 Y129.927 E11.0999
G1 X129.365 Y128.651 E11.1519
G1 X130.373 Y126.793 E11.2072
G1 X130.689 Y125.000 E11.2549
G1 X130.346 Y123.053 E11.3067
G1 X129.358 Y121.342 E11.3585
G1 X127.845 Y120.072 E11.4102
G1 X125.987 Y119.396 E11.4620
G1 X124.012 Y119.396 E11.5137
G1 X122.155 Y120.072 E11.5655
G1 X120.641 Y121.342 E11.6172
G1 F2400 E6.6172
G1 F300 Z0.350
G0 F3900 X120.550 Y121.300
G0 X101.899 Y143.179
;TYPE:SOLID-FILL
;WIDTH:0.420
G1 F300 Z0.150
G1 F1500 E11.6172
G1 F2400 X106.894 Y148.174 E11.8023
G0 F3900 X108.864 Y149.550
G1 F2400 X100.290 Y140.977 E12.1198
G0 F2400 X99.527 Y139.620
G1 F2400 X110.595 Y150.688 E12.5298
G0 F2400 X111.742 Y151.241
G1 F2400 X98.764 Y138.263 E13.0105
G0 F2400 X98.151 Y137.056
G1 F2400 X112.889 Y151.794 E13.5565
G0 F2400 X114.036 Y152.347
G1 F2400 X97.768 Y136.079 E14.1590
G0 F2400 X97.384 Y135.101
G1 F2400 X114.943 Y152.660 E14.8095
G0 F2400 X115.801 Y152.924
G1 F2400 X97.000 Y134.124 E15.5059
G0 F2400 X96.732 Y133.261
G1 F2400 X116.660 Y153.189 E16.2440
G0 F2400 X117.519 Y153.454
G1 F2400 X96.556 Y132.492 E17.0205
G0 F2400 X96.380 Y131.721
G1 F2400 X118.377 Y153.718 E17.8353
G0 F2400 X119.088 Y153.835
G1 F2400 X96.204 Y130.951 E18.6830
G0 F2400 X96.029 Y130.182
G1 F2400 X119.787 Y153.940 E19.5630
G0 F2400 X120.486 Y154.046
G1 F2400 X95.853 Y129.412 E20.4755
G0 F2400 X95.801 Y128.766
G1 F2400 X121.186 Y154.151 E21.4158
G0 F2400 X121.886 Y154.257
G1 F2400 X95.753 Y128.124 E22.3838
G0 F2400 X95.705 Y127.482
G1 F2400 X122.585 Y154.362 E23.3795
G0 F2400 X123.211 Y154.395
G1 F2400 X95.658 Y126.841 E24.4001
G0 F2400 X95.610 Y126.199
G1 F2400 X123.805 Y154.395 E25.4445
G0 F2400 X124.399 Y154.395
G1 F2400 X95.561 Y125.557 E26.5127
G0 F2400 X95.525 Y124.927
G1 F2400 X124.993 Y154.395 E27.6042
G0 F2400 X125.587 Y154.395
G1 F2400 X95.566 Y124.374 E28.7163
G0 F2400 X95.608 Y123.822
G1 F2400 X126.181 Y154.395 E29.8487
G0 F2400 X126.775 Y154.395
G1 F2400 X95.649 Y123.269 E31.0017
G0 F2400 X95.690 Y122.716
G1 F2400 X127.347 Y154.372 E32.1743
G0 F2400 X127.863 Y154.294
G1 F2400 X95.732 Y122.164 E33.3645
G0 F2400 X95.773 Y121.611
G1 F2400 X128.379 Y154.217 E34.5722
G0 F2400 X128.895 Y154.139
G1 F2400 X95.814 Y121.058 E35.7976
G0 F2400 X95.868 Y120.518
G1 F2400 X129.411 Y154.061 E37.0401
G0 F2400 X129.927 Y153.983
G1 F2400 X95.979 Y120.034 E38.2976
G0 F2400 X96.089 Y119.551
G1 F2400 X130.443 Y153.905 E39.5701
G0 F2400 X130.959 Y153.827
G1 F2400 X96.199 Y119.067 E40.8577
G0 F2400 X96.310 Y118.583
G1 F2400 X131.475 Y153.749 E42.1603
G0 F2400 X131.940 Y153.620
G1 F2400 X96.421 Y118.100 E43.4760
G0 F2400 X96.531 Y117.617
G1 F2400 X132.394 Y153.480 E44.8044
G0 F2400 X132.848 Y153.340
G1 F2400 X96.641 Y117.133 E46.1456
G0 F2400 X96.752 Y116.649
G1 F2400 X133.302 Y153.200 E47.4995
G0 F2400 X133.756 Y153.060
G1 F2400 X96.882 Y116.186 E48.8653
G0 F2400 X97.053 Y115.763
G1 F2400 X134.210 Y152.920 E50.2417
G0 F2400 X134.664 Y152.780
G1 F2400 X97.225 Y115.341 E51.6285
G0 F2400 X97.396 Y114.918
G1 F2400 X135.118 Y152.641 E53.0258
G0 F2400 X135.572 Y152.501
G1 F2400 X97.568 Y114.496 E54.4335
G0 F2400 X97.739 Y114.073
G1 F2400 X135.996 Y152.330 E55.8506
G0 F2400 X136.397 Y152.137
G1 F2400 X97.910 Y113.650 E57.2762
G0 F2400 X98.082 Y113.228
G1 F2400 X136.798 Y151.944 E58.7103
G0 F2400 X137.199 Y151.751
G1 F2400 X98.253 Y112.805 E60.1530
G0 F2400 X98.424 Y112.382
G1 F2400 X137.600 Y151.558 E61.6041
G0 F2400 X138.000 Y151.364
G1 F2400 X98.595 Y111.959 E63.0637
G0 F2400 X98.804 Y111.575
G1 F2400 X138.401 Y151.171 E64.5305
G0 F2400 X138.802 Y150.978
G1 F2400 X99.021 Y111.198 E66.0040
G0 F2400 X99.239 Y110.822
G1 F2400 X139.203 Y150.785 E67.4843
G0 F2400 X139.604 Y150.592
G1 F2400 X99.456 Y110.445 E68.9714
G0 F2400 X99.674 Y110.068
G1 F2400 X139.972 Y150.366 E70.4641
G0 F2400 X140.326 Y150.126
G1 F2400 X99.891 Y109.692 E71.9619
G0 F2400 X100.108 Y109.315
G1 F2400 X140.678 Y149.885 E73.4647
G0 F2400 X141.032 Y149.645
G1 F2400 X100.326 Y108.938 E74.9725
G0 F2400 X100.543 Y108.562
G1 F2400 X120.129 Y128.148 E75.6980
G0 F2400 X119.450 Y126.875
G1 F2400 X100.786 Y108.211 E76.3893
G0 F2400 X101.049 Y107.880
G1 F2400 X119.324 Y126.154 E77.0662
G0 F2400 X119.197 Y125.434
G1 F2400 X101.313 Y107.550 E77.7287
G0 F2400 X101.577 Y107.220
G1 F2400 X119.155 Y124.798 E78.3798
G0 F2400 X119.245 Y124.293
G1 F2400 X101.840 Y106.889 E79.0245
G0 F2400 X102.104 Y106.558
G1 F2400 X119.334 Y123.788 E79.6627
G0 F2400 X119.422 Y123.283
G1 F2400 X102.367 Y106.228 E80.2945
G0 F2400 X102.630 Y105.897
G1 F2400 X119.563 Y122.830 E80.9217
G0 F2400 X119.781 Y122.453
G1 F2400 X102.894 Y105.567 E81.5472
G0 F2400 X103.158 Y105.237
G1 F2400 X119.998 Y122.077 E82.1710
G0 F2400 X120.215 Y121.700
G1 F2400 X103.428 Y104.913 E82.7928
G0 F2400 X103.736 Y104.627
G1 F2400 X120.433 Y121.323 E83.4113
G0 F2400 X120.725 Y121.022
G1 F2400 X104.044 Y104.341 E84.0292
G0 F2400 X104.352 Y104.055
G1 F2400 X121.048 Y120.751 E84.6476
G0 F2400 X121.372 Y120.481
G1 F2400 X104.660 Y103.770 E85.2666
G0 F2400 X104.969 Y103.484
G1 F2400 X121.694 Y120.209 E85.8861
G0 F2400 X122.017 Y119.938
G1 F2400 X105.277 Y103.198 E86.5062
G0 F2400 X105.585 Y102.912
G1 F2400 X122.439 Y119.766 E87.1305
G0 F2400 X122.874 Y119.607
G1 F2400 X105.893 Y102.626 E87.7595
G0 F2400 X106.201 Y102.340
G1 F2400 X123.310 Y119.449 E88.3933
G0 F2400 X123.745 Y119.291
G1 F2400 X106.510 Y102.055 E89.0317
G0 F2400 X106.846 Y101.797
G1 F2400 X124.255 Y119.206 E89.6766
G0 F2400 X124.849 Y119.206
G1 F2400 X107.200 Y101.557 E90.3303
G0 F2400 X107.553 Y101.316
G1 F2400 X125.443 Y119.206 E90.9930
G0 F2400 X126.047 Y119.216
G1 F2400 X107.906 Y101.075 E91.6649
G0 F2400 X108.259 Y100.834
G1 F2400 X126.981 Y119.556 E92.3584
G0 F2400 X127.914 Y119.896
G1 F2400 X108.613 Y100.594 E93.0734
G0 F2400 X108.965 Y100.353
G1 F2400 X149.671 Y141.059 E94.5812
G0 F2400 X149.454 Y141.436
G1 F2400 X129.868 Y121.850 E95.3067
G0 F2400 X130.547 Y123.122
G1 F2400 X149.211 Y141.786 E95.9981
G0 F2400 X148.948 Y142.117
G1 F2400 X130.674 Y123.843 E96.6750
G0 F2400 X130.801 Y124.564
G1 F2400 X148.684 Y142.448 E97.3374
G0 F2400 X148.421 Y142.778
G1 F2400 X130.843 Y125.200 E97.9885
G0 F2400 X130.753 Y125.705
G1 F2400 X148.157 Y143.109 E98.6332
G0 F2400 X147.894 Y143.439
G1 F2400 X130.665 Y126.210 E99.2714
G0 F2400 X130.576 Y126.715
G1 F2400 X147.630 Y143.769 E99.9031
G0 F2400 X147.367 Y144.100
G1 F2400 X130.401 Y127.134 E100.5315
G0 F2400 X130.192 Y127.519
G1 F2400 X147.103 Y144.430 E101.1579
G0 F2400 X146.839 Y144.761
G1 F2400 X129.983 Y127.905 E101.7823
G0 F2400 X129.775 Y128.290
G1 F2400 X146.569 Y145.084 E102.4044
G0 F2400 X146.262 Y145.371
G1 F2400 X129.566 Y128.675 E103.0228
G0 F2400 X129.273 Y128.976
G1 F2400 X145.953 Y145.656 E103.6407
G0 F2400 X145.645 Y145.942
G1 F2400 X128.950 Y129.247 E104.2591
G0 F2400 X128.626 Y129.517
G1 F2400 X145.337 Y146.228 E104.8781
G0 F2400 X145.029 Y146.513
G1 F2400 X128.304 Y129.789 E105.4976
G0 F2400 X127.981 Y130.060
G1 F2400 X144.720 Y146.799 E106.1176
G0 F2400 X144.413 Y147.085
G1 F2400 X127.559 Y130.232 E106.7419
G0 F2400 X127.123 Y130.390
G1 F2400 X144.104 Y147.371 E107.3709
G0 F2400 X143.796 Y147.657
G1 F2400 X126.688 Y130.548 E108.0046
G0 F2400 X126.252 Y130.707
G1 F2400 X143.488 Y147.943 E108.6431
G0 F2400 X143.151 Y148.200
G1 F2400 X125.742 Y130.791 E109.2879
G0 F2400 X125.148 Y130.791
G1 F2400 X142.798 Y148.440 E109.9417
G0 F2400 X142.445 Y148.681
G1 F2400 X124.554 Y130.791 E110.6044
G0 F2400 X123.950 Y130.781
G1 F2400 X142.091 Y148.922 E111.2764
G0 F2400 X141.738 Y149.163
G1 F2400 X123.016 Y130.441 E111.9699
G0 F2400 X122.082 Y130.101
G1 F2400 X141.385 Y149.403 E112.6849
G1 F2400 E107.6849
G1 F300 Z0.350
G0 F3900 X149.888 Y140.682
G1 F300 Z0.150
G1 F1500 E112.6849
G1 F2400 X109.319 Y100.112 E114.1876
G0 F2400 X109.672 Y99.871
G1 F2400 X150.106 Y140.306 E115.6854
G0 F2400 X150.323 Y139.929
G1 F2400 X110.025 Y99.631 E117.1781
G0 F2400 X110.394 Y99.405
G1 F2400 X150.541 Y139.553 E118.6652
G0 F2400 X150.758 Y139.176
G1 F2400 X110.795 Y99.212 E120.1455
G0 F2400 X111.196 Y99.019
G1 F2400 X150.976 Y138.800 E121.6191
G0 F2400 X151.193 Y138.423
G1 F2400 X111.597 Y98.826 E123.0858
G0 F2400 X111.997 Y98.633
G1 F2400 X151.410 Y138.046 E124.5457
G0 F2400 X151.612 Y137.653
G1 F2400 X112.398 Y98.439 E125.9982
G0 F2400 X112.799 Y98.246
G1 F2400 X151.779 Y137.227 E127.4421
G0 F2400 X151.947 Y136.801
G1 F2400 X113.200 Y98.053 E128.8774
G0 F2400 X113.600 Y97.860
G1 F2400 X152.114 Y136.374 E130.3040
G0 F2400 X152.281 Y135.947
G1 F2400 X114.001 Y97.667 E131.7220
G0 F2400 X114.425 Y97.497
G1 F2400 X152.449 Y135.521 E133.1304
G0 F2400 X152.616 Y135.094
G1 F2400 X114.879 Y97.357 E134.5283
G0 F2400 X115.334 Y97.217
G1 F2400 X152.784 Y134.668 E135.9155
G0 F2400 X152.951 Y134.241
G1 F2400 X115.788 Y97.077 E137.2921
G0 F2400 X116.241 Y96.937
G1 F2400 X153.119 Y133.815 E138.6581
G0 F2400 X153.246 Y133.348
G1 F2400 X116.695 Y96.797 E140.0120
G0 F2400 X117.149 Y96.657
G1 F2400 X153.356 Y132.864 E141.3532
G0 F2400 X153.466 Y132.380
G1 F2400 X117.603 Y96.517 E142.6816
G0 F2400 X118.057 Y96.377
G1 F2400 X153.577 Y131.898 E143.9974
G0 F2400 X153.688 Y131.414
G1 F2400 X118.522 Y96.248 E145.3000
G0 F2400 X119.038 Y96.170
G1 F2400 X153.798 Y130.930 E146.5875
G0 F2400 X153.908 Y130.447
G1 F2400 X119.554 Y96.092 E147.8601
G0 F2400 X120.070 Y96.014
G1 F2400 X154.019 Y129.963 E149.1176
G0 F2400 X154.129 Y129.479
G1 F2400 X120.586 Y95.936 E150.3601
G0 F2400 X121.102 Y95.858
G1 F2400 X154.183 Y128.940 E151.5855
G0 F2400 X154.224 Y128.387
G1 F2400 X121.618 Y95.781 E152.7933
G0 F2400 X122.135 Y95.703
G1 F2400 X154.266 Y127.835 E153.9835
G0 F2400 X154.307 Y127.282
G1 F2400 X122.650 Y95.624 E155.1561
G0 F2400 X123.228 Y95.608
G1 F2400 X154.349 Y126.729 E156.3089
G0 F2400 X154.390 Y126.176
G1 F2400 X123.829 Y95.615 E157.4409
G0 F2400 X124.430 Y95.622
G1 F2400 X154.431 Y125.623 E158.5522
G0 F2400 X154.473 Y125.071
G1 F2400 X125.031 Y95.629 E159.6428
G0 F2400 X125.631 Y95.636
G1 F2400 X154.437 Y124.441 E160.7098
G0 F2400 X154.388 Y123.799
G1 F2400 X126.232 Y95.643 E161.7527
G0 F2400 X126.833 Y95.650
G1 F2400 X154.340 Y123.157 E162.7716
G0 F2400 X154.292 Y122.515
G1 F2400 X127.434 Y95.657 E163.7665
G0 F2400 X128.112 Y95.741
G1 F2400 X154.244 Y121.873 E164.7344
G0 F2400 X154.196 Y121.231
G1 F2400 X128.812 Y95.846 E165.6747
G0 F2400 X129.511 Y95.952
G1 F2400 X154.145 Y120.585 E166.5872
G0 F2400 X153.968 Y119.815
G1 F2400 X130.210 Y96.057 E167.4672
G0 F2400 X130.910 Y96.162
G1 F2400 X153.793 Y119.046 E168.3149
G0 F2400 X153.617 Y118.276
G1 F2400 X131.620 Y96.279 E169.1297
G0 F2400 X132.479 Y96.544
G1 F2400 X153.441 Y117.506 E169.9061
G0 F2400 X153.266 Y116.736
G1 F2400 X133.337 Y96.808 E170.6443
G0 F2400 X134.196 Y97.073
G1 F2400 X152.997 Y115.874 E171.3407
G0 F2400 X152.614 Y114.897
G1 F2400 X135.055 Y97.338 E171.9911
G0 F2400 X135.961 Y97.650
G1 F2400 X152.230 Y113.919 E172.5938
G0 F2400 X151.846 Y112.941
