;Sliced by ideaMaker 5.3.2.8640, 2026-01-07 19:30:52 UTC+0100
;Slicer Version: 5.3.0.8620
;Dimension: 250.000 250.000 250.000 0.400
;Plate Shape: 0
;Origin Center: 0
;Extruder Offset #1: 25.000 0.000
;Filament Diameter #1: 1.750
;Filament Diameter #2: 1.750
;Filament Compensation #1: 94.000
;Filament Compensation #2: 90.000
;Filament Density #1: 1240.000
;Filament Density #2: 1240.000
;Filament Type #1: PLA
;Filament Type #2: PLA
;Filament Name #1: [Raise3D] Premium PLA 1.75mm
;Filament Name #2: [Raise3D] Premium PLA 1.75mm
;Filament #1: PLA 1.75mm
;Filament #2: PLA 1.75mm
;Printer Type: floppy
;Firmware: Klipper
;Bounding Box: 110.897 187.658 85.979 160.375 0.000 13.050
;Model Gap: 0.000
M221 T0 S94.00
M140 S45.00
M104 T0 S195.00
M109 T0 S195.00
T0
M190 S45.00
G21 ;metric values
G90 ;absolute positioning
M82 ;set extruder to absolute mode
M107 ;start with the fan off
G28 X0 Y0 ;move X/Y to min endstops
G28 Z0 ;move Z to min endstops
G1 Z15.0 F9000 ;move the platform down 15mm

G92 E0 ;zero the extruded length

G0 X43 Y27 F2000  ;go to the edge of the bed
G92 X0 Y0 E0 ;set zero to edge of the bed
G0 F9000 Z1 ;Z up with 1mm
G1 F200 Z0 ;Z home slowly

G1 Z15.0 F9000 ;move the platform down 15mm

G1 F9000 ;speed setting
G92 E-3 ;retraction
M117 Printing...
M1001
;TOTAL_NUM: 2
;PRINTING_TIME: 0
;REMAINING_TIME: 3280
;LAYER:0
;Z:0.150
;HEIGHT:0.150
;PRINTING: K??rper2
;PRINTING_ID: 0
G1 F2400 E-5.0000
SET_VELOCITY_LIMIT ACCEL=500.00
SET_VELOCITY_LIMIT SQUARE_CORNER_VELOCITY=5.00
G0 F3900 X111.124 Y90.099
G0 F300 Z0.150
;TYPE:WALL-OUTER
;WIDTH:0.420
G1 F1500 E0.0000
G1 F2400 X111.469 Y89.835 E0.0114
G1 X138.660 Y89.849 E0.7236
G1 X138.892 Y90.167 E0.7339
G1 X138.875 Y159.900 E2.5604
G1 X138.530 Y160.165 E2.5718
G1 X111.371 Y160.147 E3.2831
G1 X111.107 Y159.804 E3.2944
G1 X111.124 Y90.099 E5.1202
G0 F3900 X111.544 Y90.307
;TYPE:WALL-INNER
;WIDTH:0.420
G1 F2400 X138.472 Y90.269 E5.8255
G1 X138.455 Y159.693 E7.6439
G1 X111.578 Y159.727 E8.3478
G1 X111.544 Y90.307 E10.1661
G1 F2400 E5.1661
G1 F300 Z0.350
G0 F3900 X111.554 Y90.407
G0 X137.680 Y90.459
;TYPE:SOLID-FILL
;WIDTH:0.420
G1 F300 Z0.150
G1 F1500 E10.1661
G1 F2400 X138.282 Y91.061 E10.1884
G0 F2400 X138.282 Y91.655
G1 F2400 X137.086 Y90.460 E10.2327
G0 F2400 X136.493 Y90.460
G1 F2400 X138.282 Y92.249 E10.2990
G0 F2400 X138.282 Y92.843
G1 F2400 X135.900 Y90.461 E10.3872
G0 F2400 X135.307 Y90.462
G1 F2400 X138.282 Y93.437 E10.4974
G0 F2400 X138.281 Y94.031
G1 F2400 X134.714 Y90.463 E10.6295
G0 F2400 X134.121 Y90.464
G1 F2400 X138.281 Y94.625 E10.7837
G0 F2400 X138.281 Y95.218
G1 F2400 X133.527 Y90.465 E10.9597
G0 F2400 X132.934 Y90.465
G1 F2400 X138.281 Y95.812 E11.1578
G0 F2400 X138.281 Y96.406
G1 F2400 X132.342 Y90.467 E11.3778
G0 F2400 X131.748 Y90.467
G1 F2400 X138.281 Y97.000 E11.6198
G0 F2400 X138.281 Y97.594
G1 F2400 X131.155 Y90.468 E11.8837
G0 F2400 X130.562 Y90.469
G1 F2400 X138.281 Y98.188 E12.1697
G0 F2400 X138.281 Y98.782
G1 F2400 X129.969 Y90.470 E12.4775
G0 F2400 X129.376 Y90.471
G1 F2400 X138.281 Y99.376 E12.8074
G0 F2400 X138.280 Y99.969
G1 F2400 X128.783 Y90.472 E13.1592
G0 F2400 X128.189 Y90.472
G1 F2400 X138.280 Y100.563 E13.5330
G0 F2400 X138.280 Y101.157
G1 F2400 X127.596 Y90.473 E13.9287
G0 F2400 X127.003 Y90.474
G1 F2400 X138.280 Y101.751 E14.3464
G0 F2400 X138.280 Y102.345
G1 F2400 X126.410 Y90.475 E14.7861
G0 F2400 X125.817 Y90.476
G1 F2400 X138.279 Y102.938 E15.2477
G0 F2400 X138.279 Y103.532
G1 F2400 X125.224 Y90.477 E15.7313
G0 F2400 X124.631 Y90.477
G1 F2400 X138.279 Y104.126 E16.2369
G0 F2400 X138.279 Y104.720
G1 F2400 X124.037 Y90.478 E16.7644
G0 F2400 X123.445 Y90.479
G1 F2400 X138.279 Y105.314 E17.3139
G0 F2400 X138.278 Y105.907
G1 F2400 X122.852 Y90.480 E17.8853
G0 F2400 X122.258 Y90.481
G1 F2400 X138.278 Y106.501 E18.4787
G0 F2400 X138.278 Y107.095
G1 F2400 X121.665 Y90.482 E19.0941
G0 F2400 X121.072 Y90.483
G1 F2400 X138.278 Y107.689 E19.7315
G0 F2400 X138.278 Y108.283
G1 F2400 X120.479 Y90.484 E20.3908
G0 F2400 X119.886 Y90.484
G1 F2400 X138.278 Y108.876 E21.0720
G0 F2400 X138.278 Y109.470
G1 F2400 X119.293 Y90.485 E21.7753
G0 F2400 X118.699 Y90.486
G1 F2400 X138.278 Y110.064 E22.5005
G0 F2400 X138.278 Y110.658
G1 F2400 X118.107 Y90.487 E23.2476
G0 F2400 X117.514 Y90.488
G1 F2400 X138.278 Y111.252 E24.0168
G0 F2400 X138.277 Y111.845
G1 F2400 X116.920 Y90.489 E24.8079
G0 F2400 X116.327 Y90.489
G1 F2400 X138.277 Y112.439 E25.6209
G0 F2400 X138.277 Y113.033
G1 F2400 X115.734 Y90.490 E26.4560
G0 F2400 X115.141 Y90.491
G1 F2400 X138.277 Y113.627 E27.3129
G0 F2400 X138.277 Y114.221
G1 F2400 X114.548 Y90.492 E28.1919
G0 F2400 X113.955 Y90.493
G1 F2400 X138.276 Y114.815 E29.0928
G0 F2400 X138.276 Y115.409
G1 F2400 X113.361 Y90.494 E30.0157
G0 F2400 X112.768 Y90.494
G1 F2400 X138.276 Y116.002 E30.9606
G0 F2400 X138.276 Y116.596
G1 F2400 X112.176 Y90.496 E31.9273
G0 F2400 X111.732 Y90.646
G1 F2400 X138.276 Y117.190 E32.9106
G0 F2400 X138.276 Y117.784
G1 F2400 X111.732 Y91.240 E33.8938
G0 F2400 X111.732 Y91.834
G1 F2400 X138.276 Y118.378 E34.8770
G0 F2400 X138.276 Y118.972
G1 F2400 X111.732 Y92.428 E35.8603
G0 F2400 X111.732 Y93.022
G1 F2400 X138.276 Y119.566 E36.8435
G0 F2400 X138.276 Y120.160
G1 F2400 X111.733 Y93.617 E37.8267
G0 F2400 X111.733 Y94.211
G1 F2400 X138.275 Y120.753 E38.8099
G0 F2400 X138.275 Y121.347
G1 F2400 X111.734 Y94.806 E39.7930
G0 F2400 X111.734 Y95.400
G1 F2400 X138.275 Y121.941 E40.7761
G0 F2400 X138.275 Y122.535
G1 F2400 X111.734 Y95.993 E41.7592
G0 F2400 X111.734 Y96.588
G1 F2400 X138.275 Y123.129 E42.7424
G0 F2400 X138.274 Y123.722
G1 F2400 X111.734 Y97.182 E43.7254
G0 F2400 X111.735 Y97.777
G1 F2400 X138.274 Y124.316 E44.7085
G0 F2400 X138.274 Y124.910
G1 F2400 X111.735 Y98.371 E45.6915
G0 F2400 X111.736 Y98.965
G1 F2400 X138.274 Y125.504 E46.6746
G0 F2400 X138.274 Y126.098
G1 F2400 X111.736 Y99.559 E47.6576
G0 F2400 X111.736 Y100.153
G1 F2400 X138.274 Y126.691 E48.6406
G0 F2400 X138.274 Y127.285
G1 F2400 X111.737 Y100.748 E49.6236
G0 F2400 X111.737 Y101.342
G1 F2400 X138.274 Y127.879 E50.6065
G0 F2400 X138.274 Y128.473
G1 F2400 X111.737 Y101.937 E51.5895
G0 F2400 X111.737 Y102.531
G1 F2400 X138.274 Y129.067 E52.5725
G0 F2400 X138.273 Y129.660
G1 F2400 X111.737 Y103.125 E53.5554
G0 F2400 X111.738 Y103.719
G1 F2400 X138.273 Y130.254 E54.5383
G0 F2400 X138.273 Y130.848
G1 F2400 X111.738 Y104.313 E55.5212
G0 F2400 X111.739 Y104.908
G1 F2400 X138.273 Y131.442 E56.5040
G0 F2400 X138.273 Y132.036
G1 F2400 X111.739 Y105.502 E57.4869
G0 F2400 X111.739 Y106.097
G1 F2400 X138.272 Y132.629 E58.4697
G0 F2400 X138.272 Y133.223
G1 F2400 X111.739 Y106.691 E59.4525
G0 F2400 X111.739 Y107.285
G1 F2400 X138.272 Y133.817 E60.4353
G0 F2400 X138.272 Y134.411
G1 F2400 X111.740 Y107.879 E61.4181
G0 F2400 X111.740 Y108.473
G1 F2400 X138.272 Y135.005 E62.4009
G0 F2400 X138.271 Y135.599
G1 F2400 X111.741 Y109.068 E63.3836
G0 F2400 X111.741 Y109.662
G1 F2400 X138.271 Y136.193 E64.3663
G0 F2400 X138.271 Y136.786
G1 F2400 X111.741 Y110.257 E65.3490
G0 F2400 X111.741 Y110.851
G1 F2400 X138.271 Y137.380 E66.3317
G0 F2400 X138.271 Y137.974
G1 F2400 X111.741 Y111.444 E67.3144
G0 F2400 X111.742 Y112.039
G1 F2400 X138.271 Y138.568 E68.2971
G0 F2400 X138.271 Y139.162
G1 F2400 X111.742 Y112.633 E69.2798
G0 F2400 X111.743 Y113.228
G1 F2400 X138.271 Y139.756 E70.2624
G0 F2400 X138.271 Y140.350
G1 F2400 X111.743 Y113.822 E71.2451
G0 F2400 X111.743 Y114.416
G1 F2400 X138.271 Y140.944 E72.2277
G0 F2400 X138.270 Y141.537
G1 F2400 X111.744 Y115.010 E73.2103
G0 F2400 X111.744 Y115.604
G1 F2400 X138.270 Y142.131 E74.1929
G0 F2400 X138.270 Y142.725
G1 F2400 X111.744 Y116.199 E75.1755
G0 F2400 X111.744 Y116.793
G1 F2400 X138.270 Y143.319 E76.1580
G0 F2400 X138.270 Y143.913
G1 F2400 X111.745 Y117.388 E77.1405
G0 F2400 X111.745 Y117.982
G1 F2400 X138.269 Y144.506 E78.1230
G0 F2400 X138.269 Y145.100
G1 F2400 X111.745 Y118.576 E79.1055
G0 F2400 X111.746 Y119.170
G1 F2400 X138.269 Y145.694 E80.0880
G0 F2400 X138.269 Y146.288
G1 F2400 X111.746 Y119.764 E81.0705
G0 F2400 X111.746 Y120.359
G1 F2400 X138.269 Y146.882 E82.0529
G0 F2400 X138.269 Y147.476
G1 F2400 X111.746 Y120.953 E83.0354
G0 F2400 X111.747 Y121.548
G1 F2400 X138.269 Y148.069 E84.0178
G0 F2400 X138.269 Y148.663
G1 F2400 X111.747 Y122.142 E85.0002
G0 F2400 X111.747 Y122.736
G1 F2400 X138.269 Y149.257 E85.9826
G0 F2400 X138.269 Y149.851
G1 F2400 X111.748 Y123.330 E86.9650
G0 F2400 X111.748 Y123.924
G1 F2400 X138.269 Y150.445 E87.9473
G0 F2400 X138.268 Y151.038
G1 F2400 X111.749 Y124.519 E88.9296
G0 F2400 X111.749 Y125.113
G1 F2400 X138.268 Y151.632 E89.9119
G0 F2400 X138.268 Y152.226
G1 F2400 X111.749 Y125.707 E90.8943
G0 F2400 X111.749 Y126.301
G1 F2400 X138.268 Y152.820 E91.8766
G0 F2400 X138.268 Y153.414
G1 F2400 X111.749 Y126.895 E92.8589
G0 F2400 X111.750 Y127.490
G1 F2400 X138.267 Y154.007 E93.8411
G0 F2400 X138.267 Y154.601
G1 F2400 X111.750 Y128.084 E94.8233
G0 F2400 X111.751 Y128.679
G1 F2400 X138.267 Y155.195 E95.8055
G0 F2400 X138.267 Y155.789
G1 F2400 X111.751 Y129.273 E96.7877
G0 F2400 X111.751 Y129.867
G1 F2400 X138.267 Y156.383 E97.7699
G0 F2400 X138.266 Y156.976
G1 F2400 X111.751 Y130.461 E98.7521
G0 F2400 X111.751 Y131.055
G1 F2400 X138.266 Y157.570 E99.7342
G0 F2400 X138.266 Y158.164
G1 F2400 X111.752 Y131.650 E100.7163
G0 F2400 X111.752 Y132.244
G1 F2400 X138.266 Y158.758 E101.6985
G0 F2400 X138.266 Y159.352
G1 F2400 X111.753 Y132.839 E102.6806
G0 F2400 X111.753 Y133.433
G1 F2400 X137.823 Y159.503 E103.6462
G0 F2400 X137.230 Y159.504
G1 F2400 X111.753 Y134.027 E104.5899
G0 F2400 X111.753 Y134.621
G1 F2400 X136.637 Y159.504 E105.5117
G0 F2400 X136.044 Y159.506
G1 F2400 X111.753 Y135.215 E106.4114
G0 F2400 X111.754 Y135.810
G1 F2400 X135.451 Y159.507 E107.2892
G0 F2400 X134.857 Y159.507
G1 F2400 X111.754 Y136.404 E108.1450
G0 F2400 X111.755 Y136.999
G1 F2400 X134.264 Y159.508 E108.9788
G0 F2400 X133.671 Y159.509
G1 F2400 X111.755 Y137.593 E109.7906
G0 F2400 X111.755 Y138.187
G1 F2400 X133.078 Y159.509 E110.5804
G0 F2400 X132.484 Y159.510
G1 F2400 X111.756 Y138.781 E111.3482
G0 F2400 X111.756 Y139.375
G1 F2400 X131.891 Y159.511 E112.0940
G0 F2400 X131.298 Y159.511
G1 F2400 X111.756 Y139.970 E112.8179
G0 F2400 X111.756 Y140.564
G1 F2400 X130.705 Y159.512 E113.5198
G0 F2400 X130.111 Y159.513
G1 F2400 X111.756 Y141.158 E114.1997
G0 F2400 X111.757 Y141.752
G1 F2400 X129.518 Y159.514 E114.8576
G0 F2400 X128.925 Y159.514
G1 F2400 X111.757 Y142.346 E115.4935
G0 F2400 X111.758 Y142.941
G1 F2400 X128.332 Y159.515 E116.1074
G0 F2400 X127.739 Y159.516
G1 F2400 X111.758 Y143.535 E116.6994
G0 F2400 X111.758 Y144.130
G1 F2400 X127.146 Y159.517 E117.2694
G0 F2400 X126.553 Y159.518
G1 F2400 X111.758 Y144.724 E117.8174
G0 F2400 X111.758 Y145.318
G1 F2400 X125.959 Y159.519 E118.3434
G0 F2400 X125.366 Y159.519
G1 F2400 X111.759 Y145.912 E118.8474
G0 F2400 X111.759 Y146.506
G1 F2400 X124.773 Y159.520 E119.3295
G0 F2400 X124.179 Y159.521
G1 F2400 X111.760 Y147.101 E119.7895
G0 F2400 X111.760 Y147.695
G1 F2400 X123.586 Y159.521 E120.2276
G0 F2400 X122.993 Y159.522
G1 F2400 X111.761 Y148.290 E120.6436
G0 F2400 X111.761 Y148.884
G1 F2400 X122.400 Y159.523 E121.0377
G0 F2400 X121.806 Y159.523
G1 F2400 X111.761 Y149.478 E121.4098
G0 F2400 X111.761 Y150.072
G1 F2400 X121.213 Y159.524 E121.7599
G0 F2400 X120.620 Y159.525
G1 F2400 X111.761 Y150.666 E122.0881
G0 F2400 X111.762 Y151.261
G1 F2400 X120.027 Y159.526 E122.3942
G0 F2400 X119.434 Y159.527
G1 F2400 X111.762 Y151.855 E122.6784
G0 F2400 X111.762 Y152.449
G1 F2400 X118.841 Y159.528 E122.9406
G0 F2400 X118.248 Y159.528
G1 F2400 X111.763 Y153.044 E123.1808
G0 F2400 X111.763 Y153.638
G1 F2400 X117.654 Y159.529 E123.3990
G0 F2400 X117.061 Y159.530
G1 F2400 X111.763 Y154.232 E123.5953
G0 F2400 X111.763 Y154.826
G1 F2400 X116.468 Y159.531 E123.7696
G0 F2400 X115.875 Y159.531
G1 F2400 X111.764 Y155.421 E123.9218
G0 F2400 X111.764 Y156.015
G1 F2400 X115.281 Y159.532 E124.0521
G0 F2400 X114.688 Y159.533
G1 F2400 X111.764 Y156.609 E124.1604
G0 F2400 X111.765 Y157.203
G1 F2400 X114.095 Y159.533 E124.2467
G0 F2400 X113.501 Y159.534
G1 F2400 X111.765 Y157.797 E124.3110
G0 F2400 X111.766 Y158.392
G1 F2400 X112.908 Y159.535 E124.3534
G0 F2400 X112.316 Y159.536
G1 F2400 X111.766 Y158.986 E124.3737
;PRINTING: K??rper1
;PRINTING_ID: 1
G1 F2400 E119.3737
G1 F300 Z0.350
G0 F3900 X177.901 Y90.307
;TYPE:WALL-OUTER
;WIDTH:0.420
G1 F300 Z0.150
G1 F1500 E124.3737
G1 F2400 X177.981 Y159.525 E126.1867
G1 X177.636 Y159.790 E126.1981
G1 X151.683 Y159.772 E126.8779
G1 X151.418 Y159.427 E126.8893
G1 X151.435 Y90.474 E128.6953
G1 X151.780 Y90.210 E128.7067
G1 X177.901 Y90.307 E129.3909
G1 F2400 E124.3909
G1 F300 Z0.350
G0 F3900 X177.471 Y90.824
G0 X151.865 Y90.782
G0 X151.855 Y90.682
;TYPE:WALL-INNER
;WIDTH:0.420
G1 F300 Z0.150
G1 F1500 E129.3909
G1 F2400 X177.481 Y90.725 E130.0621
G1 X177.561 Y159.318 E131.8587
G1 X151.890 Y159.352 E132.5311
G1 X151.855 Y90.682 E134.3297
G1 F2400 E129.3297
G1 F300 Z0.350
G0 F3900 X151.865 Y90.782
G0 X176.742 Y90.913
;TYPE:SOLID-FILL
;WIDTH:0.420
G1 F300 Z0.150
G1 F1500 E134.3297
G1 F2400 X177.292 Y91.463 E134.3501
G0 F2400 X177.292 Y92.058
G1 F2400 X176.147 Y90.912 E134.3925
G0 F2400 X175.551 Y90.911
G1 F2400 X177.293 Y92.652 E134.4570
G0 F2400 X177.294 Y93.247
G1 F2400 X174.957 Y90.910 E134.5436
G0 F2400 X174.361 Y90.909
G1 F2400 X177.295 Y93.842 E134.6522
G0 F2400 X177.295 Y94.436
G1 F2400 X173.767 Y90.908 E134.7829
G0 F2400 X173.172 Y90.907
G1 F2400 X177.296 Y95.031 E134.9357
G0 F2400 X177.297 Y95.626
G1 F2400 X172.577 Y90.906 E135.1105
G0 F2400 X171.982 Y90.905
G1 F2400 X177.297 Y96.220 E135.3074
G0 F2400 X177.298 Y96.815
G1 F2400 X171.387 Y90.904 E135.5264
G0 F2400 X170.792 Y90.903
G1 F2400 X177.299 Y97.410 E135.7674
G0 F2400 X177.299 Y98.004
G1 F2400 X170.197 Y90.902 E136.0305
G0 F2400 X169.602 Y90.901
G1 F2400 X177.300 Y98.599 E136.3156
G0 F2400 X177.301 Y99.194
G1 F2400 X169.007 Y90.899 E136.6228
G0 F2400 X168.412 Y90.899
G1 F2400 X177.302 Y99.789 E136.9521
G0 F2400 X177.302 Y100.383
G1 F2400 X167.817 Y90.898 E137.3035
G0 F2400 X167.222 Y90.897
G1 F2400 X177.303 Y100.978 E137.6769
G0 F2400 X177.304 Y101.573
G1 F2400 X166.627 Y90.896 E138.0724
G0 F2400 X166.032 Y90.895
G1 F2400 X177.304 Y102.167 E138.4899
G0 F2400 X177.305 Y102.762
G1 F2400 X165.437 Y90.894 E138.9295
G0 F2400 X164.842 Y90.892
G1 F2400 X177.306 Y103.357 E139.3912
G0 F2400 X177.307 Y103.951
G1 F2400 X164.247 Y90.892 E139.8750
G0 F2400 X163.652 Y90.891
G1 F2400 X177.307 Y104.546 E140.3808
G0 F2400 X177.308 Y105.141
G1 F2400 X163.057 Y90.890 E140.9087
G0 F2400 X162.462 Y90.889
G1 F2400 X177.309 Y105.735 E141.4586
G0 F2400 X177.309 Y106.330
G1 F2400 X161.867 Y90.887 E142.0306
G0 F2400 X161.272 Y90.887
G1 F2400 X177.310 Y106.925 E142.6247
G0 F2400 X177.311 Y107.519
G1 F2400 X160.677 Y90.885 E143.2408
G0 F2400 X160.082 Y90.885
G1 F2400 X177.311 Y108.114 E143.8790
G0 F2400 X177.312 Y108.709
G1 F2400 X159.487 Y90.883 E144.5393
G0 F2400 X158.892 Y90.883
G1 F2400 X177.313 Y109.303 E145.2216
G0 F2400 X177.314 Y109.898
G1 F2400 X158.297 Y90.882 E145.9260
G0 F2400 X157.702 Y90.880
G1 F2400 X177.314 Y110.493 E146.6525
G0 F2400 X177.315 Y111.087
G1 F2400 X157.107 Y90.880 E147.4010
G0 F2400 X156.512 Y90.878
G1 F2400 X177.316 Y111.682 E148.1716
G0 F2400 X177.316 Y112.277
G1 F2400 X155.917 Y90.878 E148.9643
G0 F2400 X155.322 Y90.876
G1 F2400 X177.317 Y112.871 E149.7790
G0 F2400 X177.318 Y113.466
G1 F2400 X154.727 Y90.875 E150.6158
G0 F2400 X154.133 Y90.875
G1 F2400 X177.319 Y114.061 E151.4747
G0 F2400 X177.319 Y114.655
G1 F2400 X153.537 Y90.873 E152.3556
G0 F2400 X152.942 Y90.873
G1 F2400 X177.320 Y115.250 E153.2586
G0 F2400 X177.321 Y115.845
G1 F2400 X152.347 Y90.871 E154.1837
G0 F2400 X152.042 Y91.160
G1 F2400 X177.321 Y116.439 E155.1200
G0 F2400 X177.322 Y117.034
G1 F2400 X152.042 Y91.754 E156.0564
G0 F2400 X152.043 Y92.349
G1 F2400 X177.323 Y117.629 E156.9929
G0 F2400 X177.323 Y118.224
G1 F2400 X152.043 Y92.943 E157.9293
G0 F2400 X152.043 Y93.537
G1 F2400 X177.324 Y118.818 E158.8657
G0 F2400 X177.325 Y119.413
G1 F2400 X152.044 Y94.132 E159.8022
G0 F2400 X152.044 Y94.726
