;Sliced by ideaMaker 5.3.2.8640, 2026-02-08 16:13:05 UTC+0100
;Slicer Version: 5.3.0.8620
;Dimension: 250.000 250.000 250.000 0.400
;Plate Shape: 0
;Origin Center: 0
;Extruder Offset #1: 25.000 0.000
;Filament Diameter #1: 1.750
;Filament Diameter #2: 1.750
;Filament Compensation #1: 94.000
;Filament Compensation #2: 90.000
;Filament Density #1: 1240.000
;Filament Density #2: 1240.000
;Filament Type #1: PLA
;Filament Type #2: PLA
;Filament Name #1: [Raise3D] Premium PLA 1.75mm
;Filament Name #2: [Raise3D] Premium PLA 1.75mm
;Filament #1: PLA 1.75mm
;Filament #2: PLA 1.75mm
;Printer Type: floppy
;Firmware: Klipper
;Bounding Box: 96.919 148.457 98.806 150.283 0.000 39.900
;Model Gap: 0.000
M221 T0 S94.00
M140 S48.00
M104 T0 S195.00
M109 T0 S195.00
T0
M190 S48.00
G21 ;metric values
G90 ;absolute positioning
M82 ;set extruder to absolute mode
M107 ;start with the fan off
G28 X0 Y0 ;move X/Y to min endstops
G28 Z0 ;move Z to min endstops
G1 Z15.0 F9000 ;move the platform down 15mm

G92 E0 ;zero the extruded length

G0 X43 Y27 F2000  ;go to the edge of the bed
G92 X0 Y0 E0 ;set zero to edge of the bed
G0 F9000 Z1 ;Z up with 1mm
G1 F200 Z0 ;Z home slowly

G1 Z15.0 F9000 ;move the platform down 15mm

G1 F9000 ;speed setting
G92 E-3 ;retraction
M117 Printing...
M1001
;TOTAL_NUM: 1
;PRINTING_TIME: 0
;REMAINING_TIME: 3538
;LAYER:0
;Z:0.150
;HEIGHT:0.150
M106 S26
;PRINTING: NON-OBJECT
;PRINTING_ID: -1
G1 F2400 E-1.0000
SET_VELOCITY_LIMIT ACCEL=500.00
SET_VELOCITY_LIMIT SQUARE_CORNER_VELOCITY=5.00
G0 F3900 X98.613 Y100.388
G0 F300 Z0.150
;TYPE:SKIRT
;WIDTH:0.400
G1 F1500 E0.0000
G1 F900 X102.518 Y98.806 E0.1051
G1 X143.107 Y98.808 E1.1176
G1 X147.010 Y100.838 E1.2273
G1 X148.396 Y104.331 E1.3211
G1 X148.457 Y144.608 E2.3258
G1 X146.763 Y148.640 E2.4349
G1 X142.871 Y150.222 E2.5397
G1 X102.594 Y150.283 E3.5444
G1 X98.562 Y148.589 E3.6535
G1 X96.980 Y144.697 E3.7583
G1 X96.919 Y104.420 E4.7630
G1 X98.613 Y100.388 E4.8721
G0 F3900 X98.892 Y100.675
G1 F900 X102.518 Y99.206 E4.9697
G1 X143.107 Y99.208 E5.9822
G1 X146.701 Y101.092 E6.0834
G1 X147.996 Y104.332 E6.1705
G1 X148.057 Y144.609 E7.1752
G1 X146.484 Y148.353 E7.2765
G1 X142.870 Y149.822 E7.3738
G1 X102.593 Y149.883 E8.3785
G1 X98.849 Y148.310 E8.4798
G1 X97.380 Y144.696 E8.5771
G1 X97.319 Y104.419 E9.5818
G1 X98.892 Y100.675 E9.6831
G0 F3900 X99.171 Y100.962
G1 F900 X102.518 Y99.606 E9.7732
G1 X143.107 Y99.608 E10.7857
G1 X146.391 Y101.345 E10.8784
G1 X147.596 Y104.333 E10.9588
G1 X147.657 Y144.610 E11.9635
G1 X146.205 Y148.066 E12.0570
G1 X142.869 Y149.422 E12.1468
G1 X102.592 Y149.483 E13.1515
G1 X99.136 Y148.031 E13.2450
G1 X97.780 Y144.695 E13.3349
G1 X97.719 Y104.418 E14.3396
G1 X99.171 Y100.962 E14.4331
G0 F3900 X99.450 Y101.249
G1 F900 X102.518 Y100.006 E14.5157
G1 X143.107 Y100.008 E15.5282
G1 X146.080 Y101.596 E15.6122
G1 X147.196 Y104.334 E15.6860
G1 X147.257 Y144.611 E16.6907
G1 X145.926 Y147.779 E16.7764
G1 X142.868 Y149.022 E16.8588
G1 X102.591 Y149.083 E17.8635
G1 X99.423 Y147.752 E17.9492
G1 X98.180 Y144.694 E18.0316
G1 X98.119 Y104.417 E19.0363
G1 X99.450 Y101.249 E19.1220
G0 F3900 X99.729 Y101.536
G1 F900 X102.518 Y100.406 E19.1971
G1 X143.107 Y100.408 E20.2095
G1 X145.768 Y101.846 E20.2850
G1 X146.796 Y104.335 E20.3522
G1 X146.857 Y144.612 E21.3569
G1 X145.647 Y147.492 E21.4348
G1 X142.867 Y148.622 E21.5097
G1 X102.590 Y148.683 E22.5144
G1 X99.710 Y147.473 E22.5923
G1 X98.580 Y144.693 E22.6672
G1 X98.519 Y104.416 E23.6719
G1 X99.729 Y101.536 E23.7498
G0 F3900 X100.008 Y101.823
G1 F900 X102.518 Y100.806 E23.8174
G1 X143.107 Y100.808 E24.8299
G1 X145.454 Y102.094 E24.8966
G1 X146.396 Y104.336 E24.9573
G1 X146.457 Y144.613 E25.9620
G1 X145.368 Y147.205 E26.0321
G1 X142.866 Y148.222 E26.0995
G1 X102.589 Y148.283 E27.1042
G1 X99.997 Y147.194 E27.1744
G1 X98.980 Y144.692 E27.2417
G1 X98.919 Y104.415 E28.2464
G1 X100.008 Y101.823 E28.3166
G0 F3900 X100.287 Y102.110
G1 F900 X102.518 Y101.206 E28.3766
G1 X143.107 Y101.208 E29.3891
G1 X145.138 Y102.340 E29.4471
G1 X145.996 Y104.337 E29.5013
G1 X146.057 Y144.614 E30.5061
G1 X145.089 Y146.918 E30.5684
G1 X142.865 Y147.822 E30.6283
G1 X102.588 Y147.883 E31.6330
G1 X100.284 Y146.915 E31.6953
G1 X99.380 Y144.691 E31.7552
G1 X99.319 Y104.414 E32.7599
G1 X100.287 Y102.110 E32.8223
G0 F3900 X100.566 Y102.397
G1 F900 X102.518 Y101.606 E32.8748
G1 X143.107 Y101.608 E33.8873
G1 X144.820 Y102.583 E33.9365
G1 X145.596 Y104.338 E33.9843
G1 X145.657 Y144.615 E34.9891
G1 X144.810 Y146.631 E35.0436
G1 X142.864 Y147.422 E35.0960
G1 X102.587 Y147.483 E36.1007
G1 X100.571 Y146.636 E36.1553
G1 X99.780 Y144.690 E36.2077
G1 X99.719 Y104.413 E37.2124
G1 X100.566 Y102.397 E37.2669
G0 F3900 X100.845 Y102.684
G1 F900 X102.518 Y102.006 E37.3120
G1 X143.107 Y102.008 E38.3245
G1 X144.499 Y102.822 E38.3647
G1 X145.196 Y104.339 E38.4063
G1 X145.257 Y144.616 E39.4110
G1 X144.531 Y146.344 E39.4578
G1 X142.863 Y147.022 E39.5027
G1 X102.586 Y147.083 E40.5074
G1 X100.858 Y146.357 E40.5542
G1 X100.180 Y144.689 E40.5991
G1 X100.119 Y104.412 E41.6038
G1 X100.845 Y102.684 E41.6506
G0 F3900 X101.124 Y102.971
G1 F900 X102.518 Y102.406 E41.6881
G1 X143.107 Y102.408 E42.7006
G1 X144.140 Y102.998 E42.7303
G1 X144.796 Y104.340 E42.7675
G1 X144.857 Y144.617 E43.7722
G1 X144.252 Y146.057 E43.8112
G1 X142.862 Y146.622 E43.8486
G1 X102.585 Y146.683 E44.8533
G1 X101.145 Y146.078 E44.8923
G1 X100.580 Y144.688 E44.9297
G1 X100.519 Y104.411 E45.9344
G1 X101.124 Y102.971 E45.9734
G1 F2400 E44.9734
G1 F300 Z0.350
G0 F3900 X102.518 Y102.806
G1 F300 Z0.150
G1 F1500 E45.9734
G1 F900 X143.107 Y102.808 E46.9859
G1 X143.786 Y103.185 E47.0053
G1 X144.396 Y104.341 E47.0379
G1 X144.457 Y144.618 E48.0426
G1 X143.973 Y145.770 E48.0738
G1 X142.861 Y146.222 E48.1037
G1 X102.584 Y146.283 E49.1084
G1 X101.432 Y145.799 E49.1396
G1 X100.980 Y144.687 E49.1695
G1 X100.919 Y104.410 E50.1743
G1 X101.403 Y103.258 E50.2054
G1 X102.518 Y102.806 E50.2354
G0 F3900 X102.518 Y103.206
G1 F900 X143.107 Y103.208 E51.2479
G1 X143.440 Y103.386 E51.2574
G1 X143.996 Y104.342 E51.2849
G1 X144.057 Y144.619 E52.2897
G1 X143.694 Y145.483 E52.3130
G1 X142.860 Y145.822 E52.3355
G1 X102.583 Y145.883 E53.3402
G1 X101.719 Y145.520 E53.3636
G1 X101.380 Y144.686 E53.3860
G1 X101.319 Y104.409 E54.3908
G1 X101.682 Y103.545 E54.4141
G1 X102.518 Y103.206 E54.4366
G0 F3900 X102.518 Y103.606
G1 F900 X143.107 Y103.608 E55.4491
G1 X143.596 Y104.343 E55.4712
G1 X143.657 Y144.620 E56.4759
G1 X143.415 Y145.196 E56.4915
G1 X142.859 Y145.422 E56.5064
G1 X102.582 Y145.483 E57.5111
G1 X102.006 Y145.241 E57.5267
G1 X101.780 Y144.685 E57.5417
G1 X101.719 Y104.408 E58.5464
G1 X101.961 Y103.832 E58.5620
G1 X102.518 Y103.606 E58.5770
G0 F3900 X102.518 Y104.006
G1 F900 X142.951 Y103.976 E59.5856
G1 X143.196 Y104.344 E59.5966
G1 X143.257 Y144.621 E60.6013
G1 X143.136 Y144.909 E60.6091
G1 X142.858 Y145.022 E60.6166
G1 X102.581 Y145.083 E61.6213
G1 X102.293 Y144.962 E61.6291
G1 X102.180 Y144.684 E61.6366
G1 X102.119 Y104.407 E62.6413
G1 X102.240 Y104.119 E62.6491
G1 X102.518 Y104.006 E62.6566
G0 F3900 X102.519 Y104.406
G1 F900 X142.796 Y104.345 E63.6613
G1 X142.857 Y144.622 E64.6660
G1 X102.580 Y144.683 E65.6708
G1 X102.519 Y104.406 E66.6755
;PRINTING: FlowCalibrationCube4mm_nozzle0.8walls.stl
;PRINTING_ID: 0
G1 F2400 E65.6755
G1 F300 Z0.350
G0 F3900 X102.888 Y104.714
;TYPE:WALL-OUTER
;WIDTH:0.400
G1 F300 Z0.150
G1 F1500 E66.6755
G1 F2400 X142.488 Y104.714 E67.6633
G1 X142.488 Y144.314 E68.6511
G1 X102.888 Y144.314 E69.6389
G1 X102.888 Y104.714 E70.6268
G0 F3900 X103.288 Y105.114
;TYPE:WALL-INNER
;WIDTH:0.400
G1 F2400 X142.088 Y105.114 E71.5946
G1 X142.088 Y143.914 E72.5625
G1 X103.288 Y143.914 E73.5304
G1 X103.288 Y105.114 E74.4983
G1 F2400 E73.4983
G1 F300 Z0.350
G0 F3900 X103.388 Y105.124
G0 X103.468 Y143.348
;TYPE:SOLID-FILL
;WIDTH:0.400
G1 F300 Z0.150
G1 F1500 E74.4983
G1 F2400 X103.852 Y143.733 E74.5118
G0 F2400 X104.418 Y143.733
G1 F2400 X103.468 Y142.783 E74.5453
G0 F2400 X103.468 Y142.217
G1 F2400 X104.984 Y143.733 E74.5988
G0 F2400 X105.549 Y143.733
G1 F2400 X103.468 Y141.651 E74.6722
G0 F2400 X103.468 Y141.086
G1 F2400 X106.115 Y143.733 E74.7656
G0 F2400 X106.681 Y143.733
G1 F2400 X103.468 Y140.520 E74.8790
G0 F2400 X103.468 Y139.954
G1 F2400 X107.246 Y143.733 E75.0123
G0 F2400 X107.812 Y143.733
G1 F2400 X103.468 Y139.389 E75.1655
G0 F2400 X103.468 Y138.823
G1 F2400 X108.378 Y143.733 E75.3387
G0 F2400 X108.943 Y143.733
G1 F2400 X103.468 Y138.257 E75.5319
G0 F2400 X103.468 Y137.692
G1 F2400 X109.509 Y143.733 E75.7450
G0 F2400 X110.075 Y143.733
G1 F2400 X103.468 Y137.126 E75.9781
G0 F2400 X103.468 Y136.560
G1 F2400 X110.640 Y143.733 E76.2311
G0 F2400 X111.206 Y143.733
G1 F2400 X103.468 Y135.995 E76.5041
G0 F2400 X103.468 Y135.429
G1 F2400 X111.772 Y143.733 E76.7970
G0 F2400 X112.338 Y143.733
G1 F2400 X103.468 Y134.863 E77.1099
G0 F2400 X103.468 Y134.297
G1 F2400 X112.903 Y143.733 E77.4428
G0 F2400 X113.469 Y143.733
G1 F2400 X103.468 Y133.732 E77.7956
G0 F2400 X103.468 Y133.166
G1 F2400 X114.035 Y143.733 E78.1684
G0 F2400 X114.600 Y143.733
G1 F2400 X103.468 Y132.600 E78.5611
G0 F2400 X103.468 Y132.035
G1 F2400 X115.166 Y143.733 E78.9738
G0 F2400 X115.732 Y143.733
G1 F2400 X103.468 Y131.469 E79.4065
G0 F2400 X103.468 Y130.903
G1 F2400 X116.297 Y143.733 E79.8591
G0 F2400 X116.863 Y143.733
G1 F2400 X103.468 Y130.338 E80.3316
G0 F2400 X103.468 Y129.772
G1 F2400 X117.429 Y143.733 E80.8241
G0 F2400 X117.994 Y143.733
G1 F2400 X103.468 Y129.206 E81.3366
G0 F2400 X103.468 Y128.641
G1 F2400 X118.560 Y143.733 E81.8690
G0 F2400 X119.126 Y143.733
G1 F2400 X103.468 Y128.075 E82.4214
G0 F2400 X103.468 Y127.509
G1 F2400 X119.691 Y143.733 E82.9937
G0 F2400 X120.257 Y143.733
G1 F2400 X103.468 Y126.944 E83.5860
G0 F2400 X103.468 Y126.378
G1 F2400 X120.823 Y143.733 E84.1982
G0 F2400 X121.389 Y143.733
G1 F2400 X103.468 Y125.812 E84.8304
G0 F2400 X103.468 Y125.246
G1 F2400 X121.954 Y143.733 E85.4826
G0 F2400 X122.520 Y143.733
G1 F2400 X103.468 Y124.681 E86.1547
G0 F2400 X103.468 Y124.115
G1 F2400 X123.086 Y143.733 E86.8468
G0 F2400 X123.651 Y143.733
G1 F2400 X103.468 Y123.549 E87.5588
G0 F2400 X103.468 Y122.984
G1 F2400 X124.217 Y143.733 E88.2908
G0 F2400 X124.783 Y143.733
G1 F2400 X103.468 Y122.418 E89.0427
G0 F2400 X103.468 Y121.852
G1 F2400 X125.348 Y143.733 E89.8146
G0 F2400 X125.914 Y143.733
G1 F2400 X103.468 Y121.287 E90.6065
G0 F2400 X103.468 Y120.721
G1 F2400 X126.480 Y143.733 E91.4183
G0 F2400 X127.045 Y143.733
G1 F2400 X103.468 Y120.155 E92.2500
G0 F2400 X103.468 Y119.590
G1 F2400 X127.611 Y143.733 E93.1017
G0 F2400 X128.177 Y143.733
G1 F2400 X103.468 Y119.024 E93.9734
G0 F2400 X103.468 Y118.458
G1 F2400 X128.742 Y143.733 E94.8650
G0 F2400 X129.308 Y143.733
G1 F2400 X103.468 Y117.893 E95.7766
G0 F2400 X103.468 Y117.327
G1 F2400 X129.874 Y143.733 E96.7082
G0 F2400 X130.439 Y143.733
G1 F2400 X103.468 Y116.761 E97.6596
G0 F2400 X103.468 Y116.196
G1 F2400 X131.005 Y143.733 E98.6311
G0 F2400 X131.571 Y143.733
G1 F2400 X103.468 Y115.630 E99.6225
G0 F2400 X103.468 Y115.064
G1 F2400 X132.137 Y143.733 E100.6339
G0 F2400 X132.702 Y143.733
G1 F2400 X103.468 Y114.498 E101.6652
G0 F2400 X103.468 Y113.933
G1 F2400 X133.268 Y143.733 E102.7165
G0 F2400 X133.834 Y143.733
G1 F2400 X103.468 Y113.367 E103.7877
G0 F2400 X103.468 Y112.801
G1 F2400 X134.399 Y143.733 E104.8789
G0 F2400 X134.965 Y143.733
G1 F2400 X103.468 Y112.236 E105.9901
G0 F2400 X103.468 Y111.670
G1 F2400 X135.531 Y143.733 E107.1212
G0 F2400 X136.096 Y143.733
G1 F2400 X103.468 Y111.104 E108.2722
G0 F2400 X103.468 Y110.539
G1 F2400 X136.662 Y143.733 E109.4432
G0 F2400 X137.228 Y143.733
G1 F2400 X103.468 Y109.973 E110.6342
G0 F2400 X103.468 Y109.407
G1 F2400 X137.793 Y143.733 E111.8451
G0 F2400 X138.359 Y143.733
G1 F2400 X103.468 Y108.842 E113.0760
G0 F2400 X103.468 Y108.276
G1 F2400 X138.925 Y143.733 E114.3268
G0 F2400 X139.490 Y143.733
G1 F2400 X103.468 Y107.710 E115.5976
G0 F2400 X103.468 Y107.145
G1 F2400 X140.056 Y143.733 E116.8884
G0 F2400 X140.622 Y143.733
G1 F2400 X103.468 Y106.579 E118.1991
G0 F2400 X103.468 Y106.013
G1 F2400 X141.188 Y143.733 E119.5298
G0 F2400 X141.753 Y143.733
G1 F2400 X103.468 Y105.448 E120.8804
G0 F2400 X103.879 Y105.293
G1 F2400 X141.907 Y143.322 E122.2219
G0 F2400 X141.907 Y142.756
G1 F2400 X104.445 Y105.293 E123.5435
G0 F2400 X105.011 Y105.293
G1 F2400 X141.907 Y142.190 E124.8451
G0 F2400 X141.907 Y141.625
G1 F2400 X105.576 Y105.293 E126.1268
G0 F2400 X106.142 Y105.293
G1 F2400 X141.907 Y141.059 E127.3886
G0 F2400 X141.907 Y140.493
G1 F2400 X106.708 Y105.293 E128.6303
G0 F2400 X107.273 Y105.293
G1 F2400 X141.907 Y139.927 E129.8521
G0 F2400 X141.907 Y139.362
G1 F2400 X107.839 Y105.293 E131.0540
G0 F2400 X108.405 Y105.293
G1 F2400 X141.907 Y138.796 E132.2359
G0 F2400 X141.907 Y138.230
G1 F2400 X108.970 Y105.293 E133.3978
G0 F2400 X109.536 Y105.293
G1 F2400 X141.907 Y137.665 E134.5398
G0 F2400 X141.907 Y137.099
G1 F2400 X110.102 Y105.293 E135.6618
G0 F2400 X110.667 Y105.293
G1 F2400 X141.907 Y136.533 E136.7639
G0 F2400 X141.907 Y135.968
G1 F2400 X111.233 Y105.293 E137.8460
G0 F2400 X111.799 Y105.293
G1 F2400 X141.907 Y135.402 E138.9082
G0 F2400 X141.907 Y134.836
G1 F2400 X112.364 Y105.293 E139.9504
G0 F2400 X112.930 Y105.293
G1 F2400 X141.907 Y134.271 E140.9727
G0 F2400 X141.907 Y133.705
G1 F2400 X113.496 Y105.293 E141.9749
G0 F2400 X114.061 Y105.293
G1 F2400 X141.907 Y133.139 E142.9573
G0 F2400 X141.907 Y132.574
G1 F2400 X114.627 Y105.293 E143.9197
G0 F2400 X115.193 Y105.293
G1 F2400 X141.907 Y132.008 E144.8621
G0 F2400 X141.907 Y131.442
G1 F2400 X115.759 Y105.293 E145.7846
G0 F2400 X116.324 Y105.293
G1 F2400 X141.907 Y130.876 E146.6871
G0 F2400 X141.907 Y130.311
G1 F2400 X116.890 Y105.293 E147.5696
G0 F2400 X117.456 Y105.293
G1 F2400 X141.907 Y129.745 E148.4322
G0 F2400 X141.907 Y129.179
G1 F2400 X118.021 Y105.293 E149.2749
G0 F2400 X118.587 Y105.293
G1 F2400 X141.907 Y128.614 E150.0976
G0 F2400 X141.907 Y128.048
G1 F2400 X119.153 Y105.293 E150.9003
G0 F2400 X119.718 Y105.293
G1 F2400 X141.907 Y127.482 E151.6831
G0 F2400 X141.907 Y126.917
G1 F2400 X120.284 Y105.293 E152.4459
G0 F2400 X120.850 Y105.293
G1 F2400 X141.907 Y126.351 E153.1888
G0 F2400 X141.907 Y125.785
G1 F2400 X121.415 Y105.293 E153.9117
G0 F2400 X121.981 Y105.293
G1 F2400 X141.907 Y125.220 E154.6146
G0 F2400 X141.907 Y124.654
G1 F2400 X122.547 Y105.293 E155.2976
G0 F2400 X123.112 Y105.293
G1 F2400 X141.907 Y124.088 E155.9607
G0 F2400 X141.907 Y123.523
G1 F2400 X123.678 Y105.293 E156.6038
G0 F2400 X124.244 Y105.293
G1 F2400 X141.907 Y122.957 E157.2269
G0 F2400 X141.907 Y122.391
G1 F2400 X124.810 Y105.293 E157.8301
G0 F2400 X125.375 Y105.293
G1 F2400 X141.907 Y121.826 E158.4133
G0 F2400 X141.907 Y121.260
G1 F2400 X125.941 Y105.293 E158.9765
G0 F2400 X126.507 Y105.293
G1 F2400 X141.907 Y120.694 E159.5198
G0 F2400 X141.907 Y120.128
G1 F2400 X127.072 Y105.293 E160.0432
G0 F2400 X127.638 Y105.293
G1 F2400 X141.907 Y119.563 E160.5466
G0 F2400 X141.907 Y118.997
G1 F2400 X128.204 Y105.293 E161.0300
G0 F2400 X128.769 Y105.293
G1 F2400 X141.907 Y118.431 E161.4935
G0 F2400 X141.907 Y117.866
G1 F2400 X129.335 Y105.293 E161.9370
G0 F2400 X129.901 Y105.293
G1 F2400 X141.907 Y117.300 E162.3606
G0 F2400 X141.907 Y116.734
G1 F2400 X130.466 Y105.293 E162.7642
G0 F2400 X131.032 Y105.293
G1 F2400 X141.907 Y116.169 E163.1478
G0 F2400 X141.907 Y115.603
G1 F2400 X131.598 Y105.293 E163.5115
G0 F2400 X132.163 Y105.293
G1 F2400 X141.907 Y115.037 E163.8553
G0 F2400 X141.907 Y114.472
G1 F2400 X132.729 Y105.293 E164.1791
G0 F2400 X133.295 Y105.293
G1 F2400 X141.907 Y113.906 E164.4829
G0 F2400 X141.907 Y113.340
G1 F2400 X133.860 Y105.293 E164.7668
G0 F2400 X134.426 Y105.293
G1 F2400 X141.907 Y112.775 E165.0307
G0 F2400 X141.907 Y112.209
G1 F2400 X134.992 Y105.293 E165.2747
G0 F2400 X135.558 Y105.293
G1 F2400 X141.907 Y111.643 E165.4987
G0 F2400 X141.907 Y111.077
G1 F2400 X136.123 Y105.293 E165.7027
G0 F2400 X136.689 Y105.293
G1 F2400 X141.907 Y110.512 E165.8868
G0 F2400 X141.907 Y109.946
G1 F2400 X137.255 Y105.293 E166.0510
G0 F2400 X137.820 Y105.293
G1 F2400 X141.907 Y109.380 E166.1951
