;Sliced by ideaMaker 5.2.4.8581, 2025-07-15 13:56:20 UTC+0200
;Slicer Version: 5.2.3.8580
;Dimension: 250.000 250.000 250.000 0.400
;Plate Shape: 0
;Origin Center: 0
;Extruder Offset #1: 25.000 0.000
;Filament Diameter #1: 1.750
;Filament Diameter #2: 1.750
;Filament Compensation #1: 94.000
;Filament Compensation #2: 90.000
;Filament Density #1: 1240.000
;Filament Density #2: 1240.000
;Filament Type #1: PLA
;Filament Type #2: PLA
;Filament Name #1: [Raise3D] Premium PLA 1.75mm
;Filament Name #2: [Raise3D] Premium PLA 1.75mm
;Filament #1: PLA 1.75mm
;Filament #2: PLA 1.75mm
;Printer Type: floppy
;Firmware: Klipper
;Bounding Box: 98.450 151.550 83.450 166.550 0.000 8.130
;Model Gap: 0.000
M221 T0 S94.00
M140 S50.00
M104 T0 S190.00
M109 T0 S190.00
T0
M190 S50.00
G21 ;metric values
G90 ;absolute positioning
M82 ;set extruder to absolute mode
M107 ;start with the fan off
G28 X0 Y0 ;move X/Y to min endstops
G28 Z0 ;move Z to min endstops
G1 Z15.0 F9000 ;move the platform down 15mm
G92 E0 ;zero the extruded length
G0 X43 Y27 F2000  ;go to the edge of the bed
G92 X0 Y0 E0 ;set zero to edge of the bed
G0 F9000 Z1 ;Z up with 1mm
G1 F200 Z0 ;Z home slowly
G1 Z15.0 F9000 ;move the platform down 15mm
G1 F9000 ;speed setting
G92 E-3 ;retraction
M117 Printing...
M1001
;TOTAL_NUM: 1
;PRINTING_TIME: 0
;REMAINING_TIME: 1987
;LAYER:0
;Z:0.300
;HEIGHT:0.300
;PRINTING: NON-OBJECT
;PRINTING_ID: -1
G1 F2400 E-5.0000
G0 F3900 X98.792 Y84.400
G0 F300 Z0.300
;TYPE:SKIRT
;WIDTH:0.420
G1 F1500 E0.0000
G1 F900 X99.505 Y83.739 E0.0509
G1 X100.498 Y83.450 E0.1051
G1 X149.772 Y83.481 E2.6863
G1 X151.145 Y84.275 E2.7694
G1 X151.550 Y85.498 E2.8369
G1 X151.550 Y164.503 E6.9755
G1 X151.208 Y165.600 E7.0357
G1 X150.495 Y166.261 E7.0867
G1 X149.502 Y166.550 E7.1408
G1 X100.497 Y166.550 E9.7080
G1 X99.400 Y166.208 E9.7681
G1 X98.739 Y165.495 E9.8191
G1 X98.450 Y164.502 E9.8733
G1 X98.450 Y85.497 E14.0119
G1 X98.792 Y84.400 E14.0721
G0 F3900 X98.870 Y85.497
G1 F900 X99.093 Y84.693 E14.1158
G1 X99.630 Y84.140 E14.1562
G1 X100.498 Y83.870 E14.2038
G1 X149.772 Y83.901 E16.7850
G1 X150.807 Y84.525 E16.8483
G1 X151.130 Y85.498 E16.9020
G1 X151.130 Y164.503 E21.0407
G1 X150.907 Y165.307 E21.0844
G1 X150.370 Y165.860 E21.1248
G1 X149.502 Y166.130 E21.1724
G1 X100.497 Y166.130 E23.7395
G1 X99.693 Y165.907 E23.7832
G1 X99.140 Y165.370 E23.8236
G1 X98.870 Y164.502 E23.8712
G1 X98.870 Y85.497 E28.0099
G0 F3900 X99.290 Y85.497
G1 F900 X99.417 Y84.960 E28.0388
G1 X99.765 Y84.538 E28.0674
G1 X100.498 Y84.290 E28.1080
G1 X149.772 Y84.321 E30.6892
G1 X150.462 Y84.765 E30.7321
G1 X150.710 Y85.498 E30.7727
G1 X150.710 Y164.503 E34.9113
G1 X150.583 Y165.040 E34.9402
G1 X150.235 Y165.462 E34.9689
G1 X149.502 Y165.710 E35.0094
G1 X100.497 Y165.710 E37.5765
G1 X99.960 Y165.583 E37.6055
G1 X99.538 Y165.235 E37.6341
G1 X99.290 Y164.502 E37.6746
G1 X99.290 Y85.497 E41.8133
;PRINTING: FirstWindow.stl
;PRINTING_ID: 0
G1 F2400 E36.8133
G0 F3900 X105.287 Y88.769
;TYPE:WALL-OUTER
;WIDTH:0.420
G1 F1500 E41.8133
G1 F2400 X105.287 Y105.694 E42.6999
G1 X117.712 Y105.694 E43.3508
G1 X117.712 Y88.769 E44.2374
G1 X105.287 Y88.769 E44.8883
G1 F2400 E39.8883
G0 F3900 X105.287 Y88.249
G0 X119.287 Y88.249
G0 X119.287 Y88.769
G1 F1500 E44.8883
G1 F2400 X119.287 Y105.694 E45.7749
G1 X131.712 Y105.694 E46.4258
G1 X131.712 Y88.769 E47.3124
G1 X119.287 Y88.769 E47.9633
G1 F2400 E42.9633
G0 F3900 X119.287 Y88.249
G0 X133.286 Y88.249
G0 X133.286 Y88.769
G1 F1500 E47.9633
G1 F2400 X133.286 Y105.694 E48.8499
G1 X145.712 Y105.694 E49.5008
G1 X145.712 Y88.769 E50.3874
G1 X133.286 Y88.769 E51.0383
G1 F2400 E46.0383
G0 F3900 X133.286 Y88.249
G0 X146.273 Y88.208
G0 X146.273 Y106.255
G0 X133.286 Y106.249
G0 X133.286 Y106.769
G1 F1500 E51.0383
G1 F2400 X133.286 Y123.695 E51.9250
G1 X145.712 Y123.695 E52.5759
G1 X145.712 Y106.769 E53.4626
G1 X133.286 Y106.769 E54.1135
G1 F2400 E49.1135
G0 F3900 X133.286 Y106.249
G0 X119.287 Y106.249
G0 X119.287 Y106.769
G1 F1500 E54.1135
G1 F2400 X119.287 Y123.695 E55.0002
G1 X131.712 Y123.695 E55.6511
G1 X131.712 Y106.769 E56.5377
G1 X119.287 Y106.769 E57.1886
G1 F2400 E52.1886
G0 F3900 X119.287 Y106.249
G0 X105.287 Y106.249
G0 X105.287 Y106.769
G1 F1500 E57.1886
G1 F2400 X105.287 Y123.695 E58.0753
G1 X117.712 Y123.695 E58.7262
G1 X117.712 Y106.769 E59.6128
G1 X105.287 Y106.769 E60.2637
G1 F2400 E55.2637
G0 F3900 X105.287 Y106.249
G0 X118.273 Y106.208
G0 X118.273 Y124.256
G0 X105.287 Y125.249
G0 X105.287 Y125.769
G1 F1500 E60.2637
G1 F2400 X105.287 Y142.695 E61.1504
G1 X117.712 Y142.695 E61.8013
G1 X117.712 Y125.769 E62.6879
G1 X105.287 Y125.769 E63.3388
G1 F2400 E58.3388
G0 F3900 X105.287 Y125.249
G0 X119.287 Y125.249
G0 X119.287 Y125.769
G1 F1500 E63.3388
G1 F2400 X119.287 Y142.695 E64.2255
G1 X131.712 Y142.695 E64.8763
G1 X131.712 Y125.769 E65.7630
G1 X119.287 Y125.769 E66.4139
G1 F2400 E61.4139
G0 F3900 X119.287 Y125.249
G0 X133.286 Y125.249
G0 X133.286 Y125.769
G1 F1500 E66.4139
G1 F2400 X133.286 Y142.695 E67.3006
G1 X145.712 Y142.695 E67.9515
G1 X145.712 Y125.769 E68.8382
G1 X133.286 Y125.769 E69.4891
G1 F2400 E64.4891
G0 F3900 X133.286 Y125.249
G0 X146.273 Y125.208
G0 X146.273 Y143.256
G0 X133.286 Y143.250
G0 X133.286 Y143.770
G1 F1500 E69.4891
G1 F2400 X133.286 Y160.695 E70.3757
G1 X145.712 Y160.695 E71.0266
G1 X145.712 Y143.770 E71.9132
G1 X133.286 Y143.770 E72.5642
G1 F2400 E67.5642
G0 F3900 X133.286 Y143.250
G0 X119.287 Y143.250
G0 X119.287 Y143.770
G1 F1500 E72.5642
G1 F2400 X119.287 Y160.695 E73.4508
G1 X131.712 Y160.695 E74.1017
G1 X131.712 Y143.770 E74.9883
G1 X119.287 Y143.770 E75.6392
G1 F2400 E70.6392
G0 F3900 X119.287 Y143.250
G0 X105.287 Y143.250
G0 X105.287 Y143.770
G1 F1500 E75.6392
G1 F2400 X105.287 Y160.695 E76.5258
G1 X117.712 Y160.695 E77.1766
G1 X117.712 Y143.770 E78.0633
G1 X105.287 Y143.770 E78.7141
G1 F2400 E73.7141
G0 F3900 X105.287 Y143.250
G0 X146.273 Y143.209
G0 X148.230 Y161.772
G0 X147.710 Y161.772
G1 F1500 E78.7141
G1 F2400 X102.290 Y161.772 E81.0934
G1 X102.290 Y162.710 E81.1426
G1 X147.140 Y162.710 E83.4920
G1 X147.140 Y164.290 E83.5748
G1 X100.710 Y164.290 E86.0070
G1 X100.710 Y85.710 E90.1234
G1 X149.290 Y85.710 E92.6683
G1 X149.290 Y164.290 E96.7847
G1 X147.710 Y164.290 E96.8674
G1 X147.710 Y161.772 E96.9993
G1 F2400 E91.9993
G0 F3900 X148.230 Y161.772
G0 X146.273 Y143.209
G0 X132.725 Y143.256
G0 X132.273 Y125.208
G0 X118.726 Y124.256
G0 X118.273 Y106.208
G0 X104.726 Y106.255
G0 X104.834 Y88.177
G0 X104.877 Y88.249
G0 X104.867 Y88.349
;TYPE:WALL-INNER
;WIDTH:0.420
G1 F1500 E96.9993
G1 F2400 X104.867 Y106.114 E97.9299
G1 X118.132 Y106.114 E98.6248
G1 X118.132 Y88.349 E99.5554
G1 X104.867 Y88.349 E100.2503
G1 F2400 E95.2503
G0 F3900 X104.877 Y88.249
G0 X118.877 Y88.249
G0 X118.867 Y88.349
G1 F1500 E100.2503
G1 F2400 X118.867 Y106.114 E101.1809
G1 X132.132 Y106.114 E101.8758
G1 X132.132 Y88.349 E102.8064
G1 X118.867 Y88.349 E103.5013
G1 F2400 E98.5013
G0 F3900 X118.877 Y88.249
G0 X132.876 Y88.249
G0 X132.866 Y88.349
G1 F1500 E103.5013
G1 F2400 X132.866 Y106.114 E104.4319
G1 X146.132 Y106.114 E105.1269
G1 X146.132 Y88.349 E106.0575
G1 X132.866 Y88.349 E106.7524
G1 F2400 E101.7524
G0 F3900 X132.876 Y88.249
G0 X146.273 Y88.208
G0 X146.273 Y106.255
G0 X132.876 Y106.249
G0 X132.866 Y106.349
G1 F1500 E106.7524
G1 F2400 X132.866 Y124.115 E107.6831
G1 X146.132 Y124.115 E108.3780
G1 X146.132 Y106.349 E109.3087
G1 X132.866 Y106.349 E110.0036
G1 F2400 E105.0036
G0 F3900 X132.876 Y106.249
G0 X118.877 Y106.249
G0 X118.867 Y106.349
G1 F1500 E110.0036
G1 F2400 X118.867 Y124.115 E110.9343
G1 X132.132 Y124.115 E111.6292
G1 X132.132 Y106.349 E112.5598
G1 X118.867 Y106.349 E113.2547
G1 F2400 E108.2547
G0 F3900 X118.877 Y106.249
G0 X104.877 Y106.249
G0 X104.867 Y106.349
G1 F1500 E113.2547
G1 F2400 X104.867 Y124.115 E114.1854
G1 X118.132 Y124.115 E114.8803
G1 X118.132 Y106.349 E115.8109
G1 X104.867 Y106.349 E116.5058
G1 F2400 E111.5058
G0 F3900 X104.877 Y106.249
G0 X118.273 Y106.208
G0 X118.273 Y124.256
G0 X104.877 Y125.249
G0 X104.867 Y125.349
G1 F1500 E116.5058
G1 F2400 X104.867 Y143.115 E117.4365
G1 X118.132 Y143.115 E118.1314
G1 X118.132 Y125.349 E119.0620
G1 X104.867 Y125.349 E119.7569
G1 F2400 E114.7569
G0 F3900 X104.877 Y125.249
G0 X118.877 Y125.249
G0 X118.867 Y125.349
G1 F1500 E119.7569
G1 F2400 X118.867 Y143.115 E120.6876
G1 X132.132 Y143.115 E121.3825
G1 X132.132 Y125.349 E122.3131
G1 X118.867 Y125.349 E123.0080
G1 F2400 E118.0080
G0 F3900 X118.877 Y125.249
G0 X132.876 Y125.249
G0 X132.866 Y125.349
G1 F1500 E123.0080
G1 F2400 X132.866 Y143.115 E123.9387
G1 X146.132 Y143.115 E124.6336
G1 X146.132 Y125.349 E125.5643
G1 X132.866 Y125.349 E126.2592
G1 F2400 E121.2592
G0 F3900 X132.876 Y125.249
G0 X146.273 Y125.208
G0 X146.273 Y143.256
G0 X132.876 Y143.250
G0 X132.866 Y143.350
G1 F1500 E126.2592
G1 F2400 X132.866 Y161.115 E127.1898
G1 X146.132 Y161.115 E127.8848
G1 X146.132 Y143.350 E128.8154
G1 X132.866 Y143.350 E129.5103
G1 F2400 E124.5103
G0 F3900 X132.876 Y143.250
G0 X118.877 Y143.250
G0 X118.867 Y143.350
G1 F1500 E129.5103
G1 F2400 X118.867 Y161.115 E130.4409
G1 X132.132 Y161.115 E131.1358
G1 X132.132 Y143.350 E132.0664
G1 X118.867 Y143.350 E132.7613
G1 F2400 E127.7613
G0 F3900 X118.877 Y143.250
G0 X104.877 Y143.250
G0 X104.867 Y143.350
G1 F1500 E132.7613
G1 F2400 X104.867 Y161.115 E133.6919
G1 X118.132 Y161.115 E134.3868
G1 X118.132 Y143.350 E135.3174
G1 X104.867 Y143.350 E136.0123
G1 F2400 E131.0123
G0 F3900 X104.877 Y143.250
G0 X146.273 Y143.209
G0 X148.230 Y161.362
G0 X148.130 Y161.352
G1 F1500 E136.0123
G1 F2400 X101.870 Y161.352 E138.4356
G1 X101.870 Y163.130 E138.5288
G1 X146.720 Y163.130 E140.8782
G1 X146.720 Y163.870 E140.9170
G1 X101.130 Y163.870 E143.3052
G1 X101.130 Y86.130 E147.3776
G1 X148.870 Y86.130 E149.8785
G1 X148.870 Y163.870 E153.9508
G1 X148.130 Y163.870 E153.9896
G1 X148.130 Y161.352 E154.1215
G1 F2400 E149.1215
G0 F3900 X148.230 Y161.362
G0 X148.241 Y161.320
G0 X102.061 Y161.161
;TYPE:SOLID-FILL
;WIDTH:0.420
G1 F1500 E154.1215
G1 F2400 X101.318 Y160.418 E154.1766
G0 F2400 X101.318 Y159.824
G1 F2400 X102.655 Y161.161 E154.2756
G0 F2400 X103.249 Y161.161
G1 F2400 X101.318 Y159.230 E154.4187
G0 F2400 X101.318 Y158.636
G1 F2400 X103.843 Y161.161 E154.6057
G0 F2400 X104.437 Y161.161
G1 F2400 X101.318 Y158.042 E154.8368
G0 F2400 X101.318 Y157.448
G1 F2400 X104.678 Y160.808 E155.0857
G0 F2400 X104.678 Y160.214
G1 F2400 X101.318 Y156.854 E155.3346
G0 F2400 X101.318 Y156.260
G1 F2400 X104.678 Y159.620 E155.5835
G0 F2400 X104.678 Y159.026
G1 F2400 X101.318 Y155.666 E155.8325
G0 F2400 X101.318 Y155.072
G1 F2400 X104.678 Y158.432 E156.0814
G0 F2400 X104.678 Y157.838
G1 F2400 X101.318 Y154.478 E156.3303
G0 F2400 X101.318 Y153.884
G1 F2400 X104.678 Y157.244 E156.5792
G0 F2400 X104.678 Y156.651
G1 F2400 X101.318 Y153.290 E156.8282
G0 F2400 X101.318 Y152.696
G1 F2400 X104.678 Y156.057 E157.0771
G0 F2400 X104.678 Y155.463
G1 F2400 X101.318 Y152.102 E157.3261
G0 F2400 X101.318 Y151.508
G1 F2400 X104.678 Y154.869 E157.5750
G0 F2400 X104.678 Y154.275
G1 F2400 X101.318 Y150.914 E157.8240
G0 F2400 X101.318 Y150.321
G1 F2400 X104.678 Y153.681 E158.0729
G0 F2400 X104.678 Y153.087
G1 F2400 X101.318 Y149.727 E158.3218
G0 F2400 X101.318 Y149.133
G1 F2400 X104.678 Y152.493 E158.5708
G0 F2400 X104.678 Y151.899
G1 F2400 X101.318 Y148.539 E158.8197
G0 F2400 X101.318 Y147.945
G1 F2400 X104.678 Y151.305 E159.0686
G0 F2400 X104.678 Y150.711
G1 F2400 X101.318 Y147.351 E159.3175
G0 F2400 X101.318 Y146.757
G1 F2400 X104.678 Y150.117 E159.5664
G0 F2400 X104.678 Y149.523
G1 F2400 X101.318 Y146.163 E159.8154
G0 F2400 X101.318 Y145.569
G1 F2400 X104.678 Y148.929 E160.0643
G0 F2400 X104.678 Y148.335
G1 F2400 X101.318 Y144.975 E160.3132
G0 F2400 X101.318 Y144.381
G1 F2400 X104.678 Y147.741 E160.5621
G0 F2400 X104.678 Y147.147
G1 F2400 X101.318 Y143.787 E160.8110
G0 F2400 X101.318 Y143.193
G1 F2400 X104.678 Y146.553 E161.0600
G0 F2400 X104.678 Y145.959
G1 F2400 X101.318 Y142.599 E161.3089
G0 F2400 X101.318 Y142.005
G1 F2400 X104.678 Y145.365 E161.5578
G0 F2400 X104.678 Y144.771
G1 F2400 X101.318 Y141.411 E161.8067
G0 F2400 X101.318 Y140.817
G1 F2400 X104.678 Y144.177 E162.0556
G0 F2400 X104.678 Y143.583
G1 F2400 X101.318 Y140.223 E162.3046
G0 F2400 X101.318 Y139.629
G1 F2400 X104.678 Y142.989 E162.5535
G0 F2400 X104.678 Y142.395
G1 F2400 X101.318 Y139.035 E162.8024
G0 F2400 X101.318 Y138.441
G1 F2400 X104.678 Y141.801 E163.0513
G0 F2400 X104.678 Y141.207
G1 F2400 X101.318 Y137.847 E163.3002
G0 F2400 X101.318 Y137.253
G1 F2400 X104.678 Y140.613 E163.5492
G0 F2400 X104.678 Y140.019
G1 F2400 X101.318 Y136.659 E163.7981
G0 F2400 X101.318 Y136.065
G1 F2400 X104.678 Y139.425 E164.0470
G0 F2400 X104.678 Y138.831
G1 F2400 X101.318 Y135.471 E164.2959
G0 F2400 X101.318 Y134.877
G1 F2400 X104.678 Y138.237 E164.5448
G0 F2400 X104.678 Y137.643
G1 F2400 X101.318 Y134.283 E164.7937
G0 F2400 X101.318 Y133.689
G1 F2400 X104.678 Y137.050 E165.0427
G0 F2400 X104.678 Y136.456
G1 F2400 X101.318 Y133.095 E165.2917
G0 F2400 X101.318 Y132.501
G1 F2400 X104.678 Y135.862 E165.5406
G0 F2400 X104.678 Y135.268
G1 F2400 X101.318 Y131.907 E165.7896
G0 F2400 X101.318 Y131.313
G1 F2400 X104.678 Y134.674 E166.0385
G0 F2400 X104.678 Y134.080
G1 F2400 X101.318 Y130.720 E166.2874
G0 F2400 X101.318 Y130.126
G1 F2400 X104.678 Y133.486 E166.5364
G0 F2400 X104.678 Y132.892
G1 F2400 X101.318 Y129.532 E166.7853
G0 F2400 X101.318 Y128.938
G1 F2400 X104.678 Y132.298 E167.0342
G0 F2400 X104.678 Y131.704
G1 F2400 X101.318 Y128.344 E167.2831
G0 F2400 X101.318 Y127.750
G1 F2400 X104.678 Y131.110 E167.5320
G0 F2400 X104.678 Y130.516
G1 F2400 X101.318 Y127.156 E167.7810
G0 F2400 X101.318 Y126.562
G1 F2400 X104.678 Y129.922 E168.0299
G0 F2400 X104.678 Y129.328
G1 F2400 X101.318 Y125.968 E168.2788
G0 F2400 X101.318 Y125.374
G1 F2400 X104.678 Y128.734 E168.5277
G0 F2400 X104.678 Y128.140
G1 F2400 X101.318 Y124.780 E168.7766
G0 F2400 X101.318 Y124.186
G1 F2400 X104.678 Y127.546 E169.0256
G0 F2400 X104.678 Y126.952
G1 F2400 X101.318 Y123.592 E169.2745
G0 F2400 X101.318 Y122.998
G1 F2400 X104.678 Y126.358 E169.5234
G0 F2400 X104.678 Y125.764
G1 F2400 X101.318 Y122.404 E169.7723
G0 F2400 X101.318 Y121.810
G1 F2400 X104.678 Y125.170 E170.0212
G0 F2400 X105.261 Y125.159
G1 F2400 X101.318 Y121.216 E170.3134
G0 F2400 X101.318 Y120.622
G1 F2400 X104.677 Y123.981 E170.5622
G0 F2400 X104.998 Y124.303
G1 F2400 X105.855 Y125.159 E170.6256
G0 F2400 X106.449 Y125.159
G1 F2400 X105.592 Y124.303 E170.6891
G0 F2400 X106.186 Y124.303
G1 F2400 X107.043 Y125.159 E170.7526
G0 F2400 X107.637 Y125.159
G1 F2400 X106.780 Y124.303 E170.8160
G0 F2400 X107.374 Y124.303
G1 F2400 X108.231 Y125.159 E170.8795
G0 F2400 X108.825 Y125.159
G1 F2400 X107.968 Y124.303 E170.9429
G0 F2400 X108.562 Y124.303
G1 F2400 X109.419 Y125.159 E171.0064
G0 F2400 X110.013 Y125.159
G1 F2400 X109.156 Y124.303 E171.0698
G0 F2400 X109.750 Y124.303
G1 F2400 X110.607 Y125.159 E171.1333
G0 F2400 X111.201 Y125.159
G1 F2400 X110.344 Y124.303 E171.1967
G0 F2400 X110.938 Y124.303
G1 F2400 X111.794 Y125.159 E171.2601
G0 F2400 X112.388 Y125.159
G1 F2400 X111.532 Y124.303 E171.3235
G0 F2400 X112.126 Y124.303
G1 F2400 X112.982 Y125.159 E171.3870
G0 F2400 X113.576 Y125.159
G1 F2400 X112.720 Y124.303 E171.4504
G0 F2400 X113.314 Y124.303
G1 F2400 X114.170 Y125.159 E171.5138
G0 F2400 X114.764 Y125.159
G1 F2400 X113.908 Y124.303 E171.5772
G0 F2400 X114.502 Y124.303
G1 F2400 X115.358 Y125.159 E171.6406
G0 F2400 X115.952 Y125.159
G1 F2400 X115.096 Y124.303 E171.7040
G0 F2400 X115.690 Y124.303
G1 F2400 X116.546 Y125.159 E171.7675
G0 F2400 X117.140 Y125.159
G1 F2400 X116.284 Y124.303 E171.8309
G0 F2400 X116.878 Y124.303
G1 F2400 X117.734 Y125.159 E171.8943
G0 F2400 X118.153 Y124.983
G1 F2400 X117.472 Y124.303 E171.9447
G0 F2400 X118.066 Y124.303
;WIDTH:0.253
G1 F2400 X118.209 Y124.446 E171.9511
;WIDTH:0.333
G1 X118.783 Y125.020 E171.9848
;WIDTH:0.420
G1 X118.922 Y125.159 E171.9951
G0 F2400 X119.516 Y125.159
G1 F2400 X118.846 Y124.488 E172.0448
G0 F2400 X119.254 Y124.303
G1 F2400 X120.110 Y125.159 E172.1082
G0 F2400 X120.704 Y125.159
G1 F2400 X119.848 Y124.303 E172.1716
