;Sliced by ideaMaker 5.3.2.8640, 2026-02-08 08:47:58 UTC+0100
;Slicer Version: 5.3.0.8620
;Dimension: 250.000 250.000 250.000 0.400
;Plate Shape: 0
;Origin Center: 0
;Extruder Offset #1: 25.000 0.000
;Filament Diameter #1: 1.750
;Filament Diameter #2: 1.750
;Filament Compensation #1: 94.000
;Filament Compensation #2: 90.000
;Filament Density #1: 1240.000
;Filament Density #2: 1240.000
;Filament Type #1: PLA
;Filament Type #2: PLA
;Filament Name #1: [Raise3D] Premium PLA 1.75mm
;Filament Name #2: [Raise3D] Premium PLA 1.75mm
;Filament #1: PLA 1.75mm
;Filament #2: PLA 1.75mm
;Printer Type: floppy
;Firmware: Klipper
;Bounding Box: 108.729 136.647 110.623 138.473 0.000 19.950
;Model Gap: 0.000
M221 T0 S94.00
M140 S48.00
M104 T0 S195.00
M109 T0 S195.00
T0
M190 S48.00
G21 ;metric values
G90 ;absolute positioning
M82 ;set extruder to absolute mode
M107 ;start with the fan off
G28 X0 Y0 ;move X/Y to min endstops
G28 Z0 ;move Z to min endstops
G1 Z15.0 F9000 ;move the platform down 15mm

G92 E0 ;zero the extruded length

G0 X43 Y27 F2000  ;go to the edge of the bed
G92 X0 Y0 E0 ;set zero to edge of the bed
G0 F9000 Z1 ;Z up with 1mm
G1 F200 Z0 ;Z home slowly

G1 Z15.0 F9000 ;move the platform down 15mm

G1 F9000 ;speed setting
G92 E-3 ;retraction
M117 Printing...
M1001
;TOTAL_NUM: 1
;PRINTING_TIME: 0
;REMAINING_TIME: 872
;LAYER:0
;Z:0.150
;HEIGHT:0.150
M106 S26
;PRINTING: NON-OBJECT
;PRINTING_ID: -1
G1 F2400 E-5.0000
SET_VELOCITY_LIMIT ACCEL=500.00
SET_VELOCITY_LIMIT SQUARE_CORNER_VELOCITY=5.00
G0 F3900 X109.818 Y111.748
G0 F300 Z0.150
;TYPE:SKIRT
;WIDTH:0.420
G1 F1500 E0.0000
G1 F900 X112.513 Y110.623 E0.0765
G1 X133.283 Y110.649 E0.6205
G1 X135.409 Y111.830 E0.6842
G1 X136.551 Y114.056 E0.7497
G1 X136.647 Y134.609 E1.2881
G1 X135.558 Y137.280 E1.3636
G1 X132.876 Y138.405 E1.4398
G1 X112.586 Y138.473 E1.9712
G1 X109.922 Y137.384 E2.0466
G1 X108.797 Y134.702 E2.1228
G1 X108.729 Y114.412 E2.6543
G1 X109.818 Y111.748 E2.7296
G0 F3900 X110.117 Y112.043
G1 F900 X112.512 Y111.043 E2.7976
G1 X133.282 Y111.069 E3.3416
G1 X135.039 Y112.029 E3.3941
G1 X136.131 Y114.058 E3.4544
G1 X136.227 Y134.611 E3.9928
G1 X135.259 Y136.985 E4.0599
G1 X132.875 Y137.985 E4.1276
G1 X112.585 Y138.053 E4.6591
G1 X110.217 Y137.085 E4.7261
G1 X109.217 Y134.701 E4.7938
G1 X109.149 Y114.411 E5.3252
G1 X110.117 Y112.043 E5.3922
G0 F3900 X110.416 Y112.338
G1 F900 X112.511 Y111.463 E5.4517
G1 X133.281 Y111.489 E5.9957
G1 X134.674 Y112.237 E6.0371
G1 X135.711 Y114.060 E6.0921
G1 X135.807 Y134.613 E6.6304
G1 X134.960 Y136.690 E6.6892
G1 X132.874 Y137.565 E6.7484
G1 X112.584 Y137.633 E7.2799
G1 X110.512 Y136.786 E7.3385
G1 X109.637 Y134.700 E7.3977
G1 X109.569 Y114.410 E7.9292
G1 X110.416 Y112.338 E7.9878
G0 F3900 X110.715 Y112.633
G1 F900 X112.510 Y111.883 E8.0388
G1 X133.280 Y111.909 E8.5828
G1 X134.315 Y112.455 E8.6134
G1 X135.291 Y114.062 E8.6627
G1 X135.387 Y134.615 E9.2010
G1 X134.661 Y136.395 E9.2514
G1 X132.873 Y137.145 E9.3021
G1 X112.583 Y137.213 E9.8336
G1 X110.807 Y136.487 E9.8838
G1 X110.057 Y134.699 E9.9346
G1 X109.989 Y114.409 E10.4661
G1 X110.715 Y112.633 E10.5163
G0 F3900 X111.014 Y112.928
G1 F900 X112.509 Y112.303 E10.5588
G1 X133.279 Y112.329 E11.1028
G1 X133.964 Y112.686 E11.1230
G1 X134.871 Y114.064 E11.1662
G1 X134.967 Y134.617 E11.7046
G1 X134.362 Y136.100 E11.7465
G1 X132.872 Y136.725 E11.7888
G1 X112.582 Y136.793 E12.3203
G1 X111.102 Y136.188 E12.3622
G1 X110.477 Y134.698 E12.4045
G1 X110.409 Y114.408 E12.9359
G1 X111.014 Y112.928 E12.9778
G0 F3900 X110.829 Y114.407
G1 F900 X111.313 Y113.223 E13.0113
G1 X112.508 Y112.723 E13.0452
G1 X133.278 Y112.749 E13.5893
G1 X133.618 Y112.924 E13.5993
G1 X134.460 Y114.152 E13.6383
G1 X134.547 Y134.619 E14.1744
G1 X134.063 Y135.805 E14.2079
G1 X132.871 Y136.305 E14.2418
G1 X112.581 Y136.373 E14.7732
G1 X111.397 Y135.889 E14.8067
G1 X110.897 Y134.697 E14.8406
G1 X110.829 Y114.407 E15.3720
G0 F3900 X111.249 Y114.406
G1 F900 X111.612 Y113.518 E15.3971
G1 X112.507 Y113.143 E15.4226
G1 X133.277 Y113.169 E15.9666
G1 X134.051 Y114.248 E16.0014
G1 X134.127 Y134.621 E16.5350
G1 X133.764 Y135.510 E16.5601
G1 X132.870 Y135.885 E16.5855
G1 X112.580 Y135.953 E17.1170
G1 X111.692 Y135.590 E17.1421
G1 X111.317 Y134.696 E17.1675
G1 X111.249 Y114.406 E17.6989
G0 F3900 X111.669 Y114.405
G1 F900 X111.911 Y113.813 E17.7157
G1 X112.507 Y113.563 E17.7326
G1 X133.117 Y113.557 E18.2724
G1 X133.631 Y114.250 E18.2950
G1 X133.707 Y134.623 E18.8287
G1 X133.465 Y135.215 E18.8454
G1 X132.869 Y135.465 E18.8623
G1 X112.579 Y135.533 E19.3938
G1 X111.987 Y135.291 E19.4105
G1 X111.737 Y134.695 E19.4275
G1 X111.669 Y114.405 E19.9589
G0 F3900 X112.089 Y114.404
G1 F900 X112.210 Y114.108 E19.9673
G1 X112.508 Y113.983 E19.9757
G1 X132.958 Y113.946 E20.5114
G1 X133.219 Y114.334 E20.5236
G1 X133.287 Y134.624 E21.0551
G1 X133.166 Y134.920 E21.0635
G1 X132.868 Y135.045 E21.0719
G1 X112.578 Y135.113 E21.6034
G1 X112.282 Y134.992 E21.6117
G1 X112.157 Y134.694 E21.6202
G1 X112.089 Y114.404 E22.1516
G0 F3900 X112.509 Y114.403
G1 F900 X132.799 Y114.335 E22.6831
G1 X132.867 Y134.625 E23.2145
G1 X112.577 Y134.693 E23.7460
G1 X112.509 Y114.403 E24.2774
;PRINTING: FlowCalibrationCube4mm_nozzle0.8walls.stl
;PRINTING_ID: 0
G1 F2400 E19.2774
G1 F300 Z0.350
G0 F3900 X112.898 Y114.724
;TYPE:WALL-OUTER
;WIDTH:0.420
G1 F300 Z0.150
G1 F1500 E24.2774
G1 F2400 X132.478 Y114.724 E24.7903
G1 X132.478 Y134.304 E25.3031
G1 X112.898 Y134.304 E25.8160
G1 X112.898 Y114.724 E26.3288
G0 F3900 X113.318 Y115.144
;TYPE:WALL-INNER
;WIDTH:0.420
G1 F2400 X132.058 Y115.144 E26.8197
G1 X132.058 Y133.884 E27.3105
G1 X113.318 Y133.884 E27.8014
G1 X113.318 Y115.144 E28.2922
G1 F2400 E23.2922
G1 F300 Z0.350
G0 F3900 X113.418 Y115.154
G0 X113.506 Y133.404
;TYPE:SOLID-FILL
;WIDTH:0.420
G1 F300 Z0.150
G1 F1500 E28.2922
G1 F2400 X113.796 Y133.694 E28.3029
G0 F2400 X114.390 Y133.694
G1 F2400 X113.506 Y132.810 E28.3357
G0 F2400 X113.506 Y132.216
G1 F2400 X114.984 Y133.694 E28.3904
G0 F2400 X115.578 Y133.694
G1 F2400 X113.506 Y131.622 E28.4672
G0 F2400 X113.506 Y131.029
G1 F2400 X116.172 Y133.694 E28.5659
G0 F2400 X116.766 Y133.694
G1 F2400 X113.506 Y130.435 E28.6867
G0 F2400 X113.506 Y129.841
G1 F2400 X117.360 Y133.694 E28.8294
G0 F2400 X117.954 Y133.694
G1 F2400 X113.506 Y129.247 E28.9941
G0 F2400 X113.506 Y128.653
G1 F2400 X118.548 Y133.694 E29.1809
G0 F2400 X119.142 Y133.694
G1 F2400 X113.506 Y128.059 E29.3896
G0 F2400 X113.506 Y127.465
G1 F2400 X119.736 Y133.694 E29.6204
G0 F2400 X120.330 Y133.694
G1 F2400 X113.506 Y126.871 E29.8731
G0 F2400 X113.506 Y126.277
G1 F2400 X120.924 Y133.694 E30.1479
G0 F2400 X121.518 Y133.694
G1 F2400 X113.506 Y125.683 E30.4446
G0 F2400 X113.506 Y125.089
G1 F2400 X122.112 Y133.694 E30.7634
G0 F2400 X122.706 Y133.694
G1 F2400 X113.506 Y124.495 E31.1042
G0 F2400 X113.506 Y123.901
G1 F2400 X123.300 Y133.694 E31.4669
G0 F2400 X123.894 Y133.694
G1 F2400 X113.506 Y123.307 E31.8517
G0 F2400 X113.506 Y122.713
G1 F2400 X124.488 Y133.694 E32.2585
G0 F2400 X125.082 Y133.694
G1 F2400 X113.506 Y122.119 E32.6873
G0 F2400 X113.506 Y121.525
G1 F2400 X125.676 Y133.694 E33.1380
G0 F2400 X126.270 Y133.694
G1 F2400 X113.506 Y120.931 E33.6108
G0 F2400 X113.506 Y120.337
G1 F2400 X126.864 Y133.694 E34.1056
G0 F2400 X127.458 Y133.694
G1 F2400 X113.506 Y119.743 E34.6224
G0 F2400 X113.506 Y119.149
G1 F2400 X128.052 Y133.694 E35.1612
G0 F2400 X128.646 Y133.694
G1 F2400 X113.506 Y118.555 E35.7220
G0 F2400 X113.506 Y117.961
G1 F2400 X129.240 Y133.694 E36.3048
G0 F2400 X129.833 Y133.694
G1 F2400 X113.506 Y117.367 E36.9095
G0 F2400 X113.506 Y116.773
G1 F2400 X130.427 Y133.694 E37.5363
G0 F2400 X131.021 Y133.694
G1 F2400 X113.506 Y116.179 E38.1851
G0 F2400 X113.506 Y115.585
G1 F2400 X131.615 Y133.694 E38.8559
G0 F2400 X131.869 Y133.353
G1 F2400 X113.848 Y115.333 E39.5234
G0 F2400 X114.442 Y115.333
G1 F2400 X131.869 Y132.760 E40.1689
G0 F2400 X131.869 Y132.166
G1 F2400 X115.036 Y115.333 E40.7924
G0 F2400 X115.630 Y115.333
G1 F2400 X131.869 Y131.572 E41.3940
G0 F2400 X131.869 Y130.978
G1 F2400 X116.224 Y115.333 E41.9735
G0 F2400 X116.818 Y115.333
G1 F2400 X131.869 Y130.384 E42.5310
G0 F2400 X131.869 Y129.790
G1 F2400 X117.412 Y115.333 E43.0665
G0 F2400 X118.006 Y115.333
G1 F2400 X131.869 Y129.196 E43.5800
G0 F2400 X131.869 Y128.602
G1 F2400 X118.600 Y115.333 E44.0715
G0 F2400 X119.194 Y115.333
G1 F2400 X131.869 Y128.008 E44.5410
G0 F2400 X131.869 Y127.414
G1 F2400 X119.788 Y115.333 E44.9885
G0 F2400 X120.382 Y115.333
G1 F2400 X131.869 Y126.820 E45.4140
G0 F2400 X131.869 Y126.226
G1 F2400 X120.976 Y115.333 E45.8175
G0 F2400 X121.570 Y115.333
G1 F2400 X131.869 Y125.632 E46.1990
G0 F2400 X131.869 Y125.038
G1 F2400 X122.164 Y115.333 E46.5585
G0 F2400 X122.757 Y115.333
G1 F2400 X131.869 Y124.444 E46.8960
G0 F2400 X131.869 Y123.850
G1 F2400 X123.351 Y115.333 E47.2115
G0 F2400 X123.945 Y115.333
G1 F2400 X131.869 Y123.256 E47.5050
G0 F2400 X131.869 Y122.662
G1 F2400 X124.539 Y115.333 E47.7765
G0 F2400 X125.133 Y115.333
G1 F2400 X131.869 Y122.068 E48.0260
G0 F2400 X131.869 Y121.474
G1 F2400 X125.727 Y115.333 E48.2535
G0 F2400 X126.321 Y115.333
G1 F2400 X131.869 Y120.880 E48.4590
G0 F2400 X131.869 Y120.286
G1 F2400 X126.915 Y115.333 E48.6424
G0 F2400 X127.509 Y115.333
G1 F2400 X131.869 Y119.692 E48.8039
G0 F2400 X131.869 Y119.098
G1 F2400 X128.103 Y115.333 E48.9434
G0 F2400 X128.697 Y115.333
G1 F2400 X131.869 Y118.504 E49.0609
G0 F2400 X131.869 Y117.910
G1 F2400 X129.291 Y115.333 E49.1564
G0 F2400 X129.885 Y115.333
G1 F2400 X131.869 Y117.316 E49.2298
G0 F2400 X131.869 Y116.722
G1 F2400 X130.479 Y115.333 E49.2813
G0 F2400 X131.073 Y115.333
G1 F2400 X131.869 Y116.128 E49.3108
G0 F2400 X131.869 Y115.534
G1 F2400 X131.667 Y115.333 E49.3182
;PRINTING_TIME: 99
;REMAINING_TIME: 773
;LAYER:1
;Z:0.450
;HEIGHT:0.300
M106 S128
;PRINTING: FlowCalibrationCube4mm_nozzle0.8walls.stl
;PRINTING_ID: 0
G1 F2400 E44.3182
G1 F300 Z0.650
G0 F3900 X113.418 Y115.154
G0 F300 Z0.450
G0 F3900 X112.898 Y114.724
;TYPE:WALL-OUTER
;WIDTH:0.420
G1 F300 Z0.450
G1 F1500 E49.3182
G1 F2100 X132.478 Y114.724 E50.3439
G1 X132.478 Y134.304 E51.3696
G1 X112.898 Y134.304 E52.3953
G1 X112.898 Y114.724 E53.4210
G0 F3900 X113.318 Y115.144
;TYPE:WALL-INNER
;WIDTH:0.420
;FLOW:90.0
G1 F2400 X132.058 Y115.144 E54.3045
G1 X132.058 Y133.884 E55.1880
G1 X113.318 Y133.884 E56.0716
G1 X113.318 Y115.144 E56.9551
G0 F3900 X113.506 Y115.468
;TYPE:SOLID-FILL
;WIDTH:0.420
;FLOW:95.0
G1 F2700 X113.642 Y115.332 E56.9646
G0 F2700 X114.236 Y115.332
G1 F2700 X113.506 Y116.062 E57.0160
G0 F2700 X113.506 Y116.656
G1 F2700 X114.830 Y115.332 E57.1092
G0 F2700 X115.424 Y115.332
G1 F2700 X113.506 Y117.250 E57.2442
G0 F2700 X113.506 Y117.844
G1 F2700 X116.018 Y115.332 E57.4210
G0 F2700 X116.612 Y115.332
G1 F2700 X113.506 Y118.438 E57.6396
G0 F2700 X113.506 Y119.032
G1 F2700 X117.206 Y115.332 E57.9000
G0 F2700 X117.800 Y115.332
G1 F2700 X113.506 Y119.626 E58.2022
G0 F2700 X113.506 Y120.220
G1 F2700 X118.394 Y115.332 E58.5462
G0 F2700 X118.988 Y115.332
G1 F2700 X113.506 Y120.814 E58.9320
G0 F2700 X113.506 Y121.408
G1 F2700 X119.582 Y115.332 E59.3596
G0 F2700 X120.176 Y115.332
G1 F2700 X113.506 Y122.002 E59.8291
G0 F2700 X113.506 Y122.596
G1 F2700 X120.770 Y115.332 E60.3403
G0 F2700 X121.364 Y115.332
G1 F2700 X113.506 Y123.190 E60.8933
G0 F2700 X113.506 Y123.783
G1 F2700 X121.958 Y115.332 E61.4882
G0 F2700 X122.552 Y115.332
G1 F2700 X113.506 Y124.377 E62.1248
G0 F2700 X113.506 Y124.971
G1 F2700 X123.146 Y115.332 E62.8032
G0 F2700 X123.740 Y115.332
G1 F2700 X113.506 Y125.565 E63.5234
G0 F2700 X113.506 Y126.159
G1 F2700 X124.334 Y115.332 E64.2854
G0 F2700 X124.928 Y115.332
G1 F2700 X113.506 Y126.753 E65.0893
G0 F2700 X113.506 Y127.347
G1 F2700 X125.522 Y115.332 E65.9349
G0 F2700 X126.116 Y115.332
G1 F2700 X113.506 Y127.941 E66.8224
G0 F2700 X113.506 Y128.535
G1 F2700 X126.709 Y115.332 E67.7516
G0 F2700 X127.303 Y115.332
G1 F2700 X113.506 Y129.129 E68.7226
G0 F2700 X113.506 Y129.723
G1 F2700 X127.897 Y115.332 E69.7354
G0 F2700 X128.491 Y115.332
G1 F2700 X113.506 Y130.317 E70.7900
G0 F2700 X113.506 Y130.911
G1 F2700 X129.085 Y115.332 E71.8865
G0 F2700 X129.679 Y115.332
G1 F2700 X113.506 Y131.505 E73.0247
G0 F2700 X113.506 Y132.099
G1 F2700 X130.273 Y115.332 E74.2048
G0 F2700 X130.867 Y115.332
G1 F2700 X113.506 Y132.693 E75.4266
G0 F2700 X113.506 Y133.287
G1 F2700 X131.461 Y115.332 E76.6903
G0 F2700 X131.868 Y115.520
G1 F2700 X113.693 Y133.694 E77.9694
G0 F2700 X114.287 Y133.694
G1 F2700 X131.868 Y116.114 E79.2067
G0 F2700 X131.868 Y116.707
G1 F2700 X114.881 Y133.694 E80.4022
G0 F2700 X115.475 Y133.694
G1 F2700 X131.868 Y117.301 E81.5559
G0 F2700 X131.868 Y117.895
G1 F2700 X116.069 Y133.694 E82.6678
G0 F2700 X116.663 Y133.694
G1 F2700 X131.868 Y118.489 E83.7380
G0 F2700 X131.868 Y119.083
G1 F2700 X117.257 Y133.694 E84.7663
G0 F2700 X117.851 Y133.694
G1 F2700 X131.868 Y119.677 E85.7528
G0 F2700 X131.868 Y120.271
G1 F2700 X118.445 Y133.694 E86.6975
G0 F2700 X119.039 Y133.694
G1 F2700 X131.868 Y120.865 E87.6004
G0 F2700 X131.868 Y121.459
G1 F2700 X119.633 Y133.694 E88.4614
G0 F2700 X120.227 Y133.694
G1 F2700 X131.868 Y122.053 E89.2807
G0 F2700 X131.868 Y122.647
G1 F2700 X120.821 Y133.694 E90.0582
G0 F2700 X121.415 Y133.694
G1 F2700 X131.868 Y123.241 E90.7939
G0 F2700 X131.868 Y123.835
G1 F2700 X122.009 Y133.694 E91.4877
G0 F2700 X122.603 Y133.694
G1 F2700 X131.868 Y124.429 E92.1398
G0 F2700 X131.868 Y125.023
G1 F2700 X123.197 Y133.694 E92.7501
G0 F2700 X123.791 Y133.694
G1 F2700 X131.868 Y125.617 E93.3185
G0 F2700 X131.868 Y126.211
G1 F2700 X124.385 Y133.694 E93.8452
G0 F2700 X124.979 Y133.694
G1 F2700 X131.868 Y126.805 E94.3300
G0 F2700 X131.868 Y127.399
G1 F2700 X125.572 Y133.694 E94.7731
G0 F2700 X126.166 Y133.694
G1 F2700 X131.868 Y127.993 E95.1743
G0 F2700 X131.868 Y128.587
G1 F2700 X126.760 Y133.694 E95.5338
G0 F2700 X127.354 Y133.694
G1 F2700 X131.868 Y129.181 E95.8514
G0 F2700 X131.868 Y129.775
G1 F2700 X127.948 Y133.694 E96.1273
G0 F2700 X128.542 Y133.694
G1 F2700 X131.868 Y130.369 E96.3613
G0 F2700 X131.868 Y130.963
G1 F2700 X129.136 Y133.694 E96.5536
G0 F2700 X129.730 Y133.694
G1 F2700 X131.868 Y131.557 E96.7040
G0 F2700 X131.868 Y132.151
G1 F2700 X130.324 Y133.694 E96.8126
G0 F2700 X130.918 Y133.694
G1 F2700 X131.868 Y132.745 E96.8795
G0 F2700 X131.868 Y133.339
G1 F2700 X131.512 Y133.694 E96.9045
;PRINTING_TIME: 130
;REMAINING_TIME: 742
;LAYER:2
;Z:0.750
;HEIGHT:0.300
;FLOW:100.0
;PRINTING: FlowCalibrationCube4mm_nozzle0.8walls.stl
;PRINTING_ID: 0
G1 F2400 E91.9045
G1 F300 Z0.950
G0 F3900 X113.418 Y115.154
G0 F300 Z0.750
G0 F3900 X112.898 Y114.724
;TYPE:WALL-OUTER
;WIDTH:0.420
G1 F300 Z0.750
G1 F1500 E96.9045
G1 F2100 X132.478 Y114.724 E97.9302
G1 X132.478 Y134.304 E98.9559
G1 X112.898 Y134.304 E99.9816
G1 X112.898 Y114.724 E101.0073
G0 F3900 X113.318 Y115.144
;TYPE:WALL-INNER
;WIDTH:0.420
;FLOW:90.0
G1 F2400 X132.058 Y115.144 E101.8908
G1 X132.058 Y133.884 E102.7743
G1 X113.318 Y133.884 E103.6578
G1 X113.318 Y115.144 E104.5413
G1 F2400 E99.5413
G1 F300 Z0.950
G0 F3900 X113.418 Y115.154
G0 X113.506 Y133.404
;TYPE:SOLID-FILL
;WIDTH:0.420
;FLOW:95.0
G1 F300 Z0.750
G1 F1500 E104.5413
G1 F3000 X113.796 Y133.694 E104.5618
G0 F3000 X114.390 Y133.694
G1 F3000 X113.506 Y132.810 E104.6240
G0 F3000 X113.506 Y132.216
G1 F3000 X114.984 Y133.694 E104.7280
G0 F3000 X115.578 Y133.694
G1 F3000 X113.506 Y131.622 E104.8738
G0 F3000 X113.506 Y131.029
G1 F3000 X116.172 Y133.694 E105.0614
G0 F3000 X116.766 Y133.694
G1 F3000 X113.506 Y130.435 E105.2908
G0 F3000 X113.506 Y129.841
G1 F3000 X117.360 Y133.694 E105.5620
G0 F3000 X117.954 Y133.694
G1 F3000 X113.506 Y129.247 E105.8750
G0 F3000 X113.506 Y128.653
G1 F3000 X118.548 Y133.694 E106.2298
G0 F3000 X119.142 Y133.694
G1 F3000 X113.506 Y128.059 E106.6265
G0 F3000 X113.506 Y127.465
G1 F3000 X119.736 Y133.694 E107.0649
G0 F3000 X120.330 Y133.694
G1 F3000 X113.506 Y126.871 E107.5451
G0 F3000 X113.506 Y126.277
G1 F3000 X120.924 Y133.694 E108.0672
G0 F3000 X121.518 Y133.694
G1 F3000 X113.506 Y125.683 E108.6310
G0 F3000 X113.506 Y125.089
G1 F3000 X122.112 Y133.694 E109.2366
G0 F3000 X122.706 Y133.694
