;Sliced by ideaMaker 5.3.2.8640, 2026-02-07 10:12:58 UTC+0100
;Slicer Version: 5.3.0.8620
;Dimension: 250.000 250.000 250.000 0.400
;Plate Shape: 0
;Origin Center: 0
;Extruder Offset #1: 25.000 0.000
;Filament Diameter #1: 1.750
;Filament Diameter #2: 1.750
;Filament Compensation #1: 94.000
;Filament Compensation #2: 90.000
;Filament Density #1: 1240.000
;Filament Density #2: 1240.000
;Filament Type #1: PLA
;Filament Type #2: PLA
;Filament Name #1: [Raise3D] Premium PLA 1.75mm
;Filament Name #2: [Raise3D] Premium PLA 1.75mm
;Filament #1: PLA 1.75mm
;Filament #2: PLA 1.75mm
;Printer Type: floppy
;Firmware: Klipper
;Bounding Box: 35.000 215.000 35.000 215.000 0.000 0.450
;Model Gap: 0.000
M221 T0 S94.00
M140 S48.00
M104 T0 S195.00
M109 T0 S195.00
T0
M190 S48.00
G21 ;metric values
G90 ;absolute positioning
M82 ;set extruder to absolute mode
M107 ;start with the fan off
G28 X0 Y0 ;move X/Y to min endstops
G28 Z0 ;move Z to min endstops
G1 Z15.0 F9000 ;move the platform down 15mm

G92 E0 ;zero the extruded length

G0 X43 Y27 F2000  ;go to the edge of the bed
G92 X0 Y0 E0 ;set zero to edge of the bed
G0 F9000 Z1 ;Z up with 1mm
G1 F200 Z0 ;Z home slowly

G1 Z15.0 F9000 ;move the platform down 15mm

G1 F9000 ;speed setting
G92 E-3 ;retraction
M117 Printing...
M1001
;TOTAL_NUM: 1
;PRINTING_TIME: 0
;REMAINING_TIME: 3131
;LAYER:0
;Z:0.150
;HEIGHT:0.150
M106 S26
;PRINTING: First_Layer_Test.stl
;PRINTING_ID: 0
G1 F2400 E-5.0000
SET_VELOCITY_LIMIT ACCEL=500.00
SET_VELOCITY_LIMIT SQUARE_CORNER_VELOCITY=5.00
G0 F3900 X35.214 Y87.810
G0 F300 Z0.150
;TYPE:WALL-OUTER
;WIDTH:0.420
G1 F1500 E0.0000
G1 F2400 X87.826 Y35.212 E1.9486
G1 X162.173 Y35.212 E3.8959
G1 X214.790 Y87.848 E5.8453
G1 X214.785 Y162.187 E7.7924
G1 X162.175 Y214.790 E9.7410
G1 X87.827 Y214.785 E11.6884
G1 X35.214 Y162.161 E13.6374
G1 X35.214 Y87.810 E15.5849
G0 F3900 X35.634 Y87.984
;TYPE:WALL-INNER
;WIDTH:0.420
G1 F2400 X88.000 Y35.632 E17.5243
G1 X161.999 Y35.632 E19.4625
G1 X214.370 Y88.022 E21.4028
G1 X214.365 Y162.013 E23.3408
G1 X162.001 Y214.370 E25.2803
G1 X88.001 Y214.365 E27.2185
G1 X35.634 Y161.987 E29.1585
G1 X35.634 Y87.984 E31.0968
G1 F2400 E26.0968
G1 F300 Z0.350
G0 F3900 X35.711 Y88.047
G0 X35.822 Y161.447
;TYPE:SOLID-FILL
;WIDTH:0.420
G1 F300 Z0.150
G1 F1500 E31.0968
G1 F2400 X88.550 Y214.175 E33.0499
G0 F2400 X89.144 Y214.175
G1 F2400 X35.822 Y160.853 E35.0251
G0 F2400 X35.822 Y160.259
G1 F2400 X89.738 Y214.175 E37.0222
G0 F2400 X90.332 Y214.175
G1 F2400 X35.822 Y159.665 E39.0413
G0 F2400 X35.822 Y159.071
G1 F2400 X90.926 Y214.175 E41.0825
G0 F2400 X91.520 Y214.175
G1 F2400 X35.822 Y158.477 E43.1456
G0 F2400 X35.822 Y157.883
G1 F2400 X92.114 Y214.175 E45.2308
G0 F2400 X92.708 Y214.175
G1 F2400 X35.822 Y157.289 E47.3379
G0 F2400 X35.822 Y156.695
G1 F2400 X93.302 Y214.175 E49.4671
G0 F2400 X93.896 Y214.175
G1 F2400 X35.822 Y156.101 E51.6182
G0 F2400 X35.822 Y155.507
G1 F2400 X94.490 Y214.175 E53.7914
G0 F2400 X95.084 Y214.175
G1 F2400 X35.822 Y154.913 E55.9865
G0 F2400 X35.822 Y154.319
G1 F2400 X95.678 Y214.175 E58.2037
G0 F2400 X96.272 Y214.175
G1 F2400 X35.822 Y153.725 E60.4429
G0 F2400 X35.822 Y153.131
G1 F2400 X96.866 Y214.175 E62.7040
G0 F2400 X97.460 Y214.175
G1 F2400 X35.822 Y152.537 E64.9872
G0 F2400 X35.822 Y151.943
G1 F2400 X98.054 Y214.175 E67.2924
G0 F2400 X98.648 Y214.175
G1 F2400 X35.822 Y151.349 E69.6195
G0 F2400 X35.822 Y150.755
G1 F2400 X99.242 Y214.175 E71.9687
G0 F2400 X99.836 Y214.175
G1 F2400 X35.822 Y150.161 E74.3399
G0 F2400 X35.822 Y149.567
G1 F2400 X100.431 Y214.176 E76.7331
G0 F2400 X101.025 Y214.176
G1 F2400 X35.822 Y148.973 E79.1483
G0 F2400 X35.822 Y148.379
G1 F2400 X101.619 Y214.176 E81.5856
G0 F2400 X102.212 Y214.176
G1 F2400 X35.822 Y147.786 E84.0448
G0 F2400 X35.822 Y147.192
G1 F2400 X102.806 Y214.176 E86.5259
G0 F2400 X103.400 Y214.176
G1 F2400 X35.822 Y146.598 E89.0291
G0 F2400 X35.822 Y146.004
G1 F2400 X103.994 Y214.176 E91.5543
G0 F2400 X104.588 Y214.176
G1 F2400 X35.822 Y145.410 E94.1015
G0 F2400 X35.822 Y144.816
G1 F2400 X105.182 Y214.176 E96.6707
G0 F2400 X105.776 Y214.176
G1 F2400 X35.822 Y144.222 E99.2620
G0 F2400 X35.822 Y143.628
G1 F2400 X106.370 Y214.176 E101.8752
G0 F2400 X106.964 Y214.176
G1 F2400 X35.822 Y143.034 E104.5104
G0 F2400 X35.822 Y142.440
G1 F2400 X107.558 Y214.176 E107.1676
G0 F2400 X108.152 Y214.176
G1 F2400 X35.822 Y141.846 E109.8468
G0 F2400 X35.822 Y141.252
G1 F2400 X108.746 Y214.176 E112.5480
G0 F2400 X109.340 Y214.176
G1 F2400 X35.822 Y140.658 E115.2713
G0 F2400 X35.822 Y140.064
G1 F2400 X109.934 Y214.176 E118.0165
G0 F2400 X110.528 Y214.176
G1 F2400 X35.822 Y139.470 E120.7837
G0 F2400 X35.822 Y138.876
G1 F2400 X111.122 Y214.176 E123.5729
G0 F2400 X111.716 Y214.176
G1 F2400 X35.822 Y138.282 E126.3842
G0 F2400 X35.822 Y137.688
G1 F2400 X112.310 Y214.176 E129.2174
G0 F2400 X112.905 Y214.176
G1 F2400 X35.822 Y137.094 E132.0727
G0 F2400 X35.822 Y136.500
G1 F2400 X113.499 Y214.176 E134.9499
G0 F2400 X114.093 Y214.176
G1 F2400 X35.822 Y135.906 E137.8492
G0 F2400 X35.822 Y135.312
G1 F2400 X114.687 Y214.176 E140.7705
G0 F2400 X115.281 Y214.176
G1 F2400 X35.822 Y134.718 E143.7137
G0 F2400 X35.822 Y134.124
G1 F2400 X115.875 Y214.176 E146.6790
G0 F2400 X116.468 Y214.176
G1 F2400 X35.822 Y133.530 E149.6663
G0 F2400 X35.822 Y132.936
G1 F2400 X117.062 Y214.176 E152.6755
G0 F2400 X117.656 Y214.176
G1 F2400 X35.822 Y132.342 E155.7068
G0 F2400 X35.822 Y131.748
G1 F2400 X118.250 Y214.176 E158.7600
G0 F2400 X118.844 Y214.176
G1 F2400 X35.822 Y131.154 E161.8353
G0 F2400 X35.822 Y130.560
G1 F2400 X119.438 Y214.176 E164.9326
G0 F2400 X120.032 Y214.176
G1 F2400 X35.822 Y129.966 E168.0518
G0 F2400 X35.822 Y129.372
G1 F2400 X120.626 Y214.176 E171.1931
G0 F2400 X121.220 Y214.176
G1 F2400 X35.822 Y128.778 E174.3564
G0 F2400 X35.822 Y128.185
G1 F2400 X121.814 Y214.176 E177.5417
G0 F2400 X122.408 Y214.176
G1 F2400 X35.822 Y127.591 E180.7489
G0 F2400 X35.822 Y126.997
G1 F2400 X123.002 Y214.176 E183.9782
G0 F2400 X123.596 Y214.176
G1 F2400 X35.822 Y126.403 E187.2295
G0 F2400 X35.822 Y125.809
G1 F2400 X124.190 Y214.176 E190.5027
G0 F2400 X124.784 Y214.176
G1 F2400 X35.822 Y125.215 E193.7980
G0 F2400 X35.822 Y124.621
G1 F2400 X125.379 Y214.177 E197.1153
G0 F2400 X125.973 Y214.177
G1 F2400 X35.822 Y124.027 E200.4546
G0 F2400 X35.822 Y123.433
G1 F2400 X126.567 Y214.177 E203.8160
G0 F2400 X127.161 Y214.177
G1 F2400 X35.822 Y122.839 E207.1993
G0 F2400 X35.822 Y122.245
G1 F2400 X127.755 Y214.177 E210.6046
G0 F2400 X128.349 Y214.177
G1 F2400 X35.822 Y121.651 E214.0319
G0 F2400 X35.822 Y121.057
G1 F2400 X128.943 Y214.177 E217.4813
G0 F2400 X129.537 Y214.177
G1 F2400 X35.822 Y120.463 E220.9526
G0 F2400 X35.822 Y119.869
G1 F2400 X130.130 Y214.177 E224.4459
G0 F2400 X130.724 Y214.177
G1 F2400 X35.822 Y119.275 E227.9612
G0 F2400 X35.822 Y118.681
G1 F2400 X131.318 Y214.177 E231.4986
G0 F2400 X131.912 Y214.177
G1 F2400 X35.822 Y118.087 E235.0579
G0 F2400 X35.822 Y117.493
G1 F2400 X132.506 Y214.177 E238.6392
G0 F2400 X133.100 Y214.177
G1 F2400 X35.822 Y116.899 E242.2425
G0 F2400 X35.822 Y116.305
G1 F2400 X133.694 Y214.177 E245.8679
G0 F2400 X134.288 Y214.177
G1 F2400 X35.822 Y115.711 E249.5152
G0 F2400 X35.822 Y115.117
G1 F2400 X134.882 Y214.177 E253.1846
G0 F2400 X135.476 Y214.177
G1 F2400 X35.822 Y114.523 E256.8759
G0 F2400 X35.822 Y113.929
G1 F2400 X136.070 Y214.177 E260.5892
G0 F2400 X136.664 Y214.177
G1 F2400 X35.822 Y113.335 E264.3246
G0 F2400 X35.822 Y112.741
G1 F2400 X137.258 Y214.177 E268.0819
G0 F2400 X137.853 Y214.178
G1 F2400 X35.822 Y112.147 E271.8613
G0 F2400 X35.822 Y111.553
G1 F2400 X138.447 Y214.178 E275.6627
G0 F2400 X139.041 Y214.178
G1 F2400 X35.822 Y110.959 E279.4861
G0 F2400 X35.822 Y110.365
G1 F2400 X139.635 Y214.178 E283.3315
G0 F2400 X140.229 Y214.178
G1 F2400 X35.822 Y109.771 E287.1989
G0 F2400 X35.822 Y109.177
G1 F2400 X140.823 Y214.178 E291.0883
G0 F2400 X141.417 Y214.178
G1 F2400 X35.822 Y108.584 E294.9997
G0 F2400 X35.822 Y107.990
G1 F2400 X142.011 Y214.178 E298.9331
G0 F2400 X142.605 Y214.178
G1 F2400 X35.822 Y107.396 E302.8885
G0 F2400 X35.822 Y106.802
G1 F2400 X143.199 Y214.178 E306.8659
G0 F2400 X143.792 Y214.178
G1 F2400 X35.822 Y106.208 E310.8653
G0 F2400 X35.822 Y105.614
G1 F2400 X144.386 Y214.178 E314.8867
G0 F2400 X144.980 Y214.178
G1 F2400 X35.822 Y105.020 E318.9300
G0 F2400 X35.822 Y104.426
G1 F2400 X145.574 Y214.178 E322.9954
G0 F2400 X146.168 Y214.178
G1 F2400 X35.822 Y103.832 E327.0828
G0 F2400 X35.822 Y103.238
G1 F2400 X146.762 Y214.178 E331.1922
G0 F2400 X147.356 Y214.178
G1 F2400 X35.822 Y102.644 E335.3236
G0 F2400 X35.822 Y102.050
G1 F2400 X147.950 Y214.178 E339.4770
G0 F2400 X148.544 Y214.178
G1 F2400 X35.822 Y101.456 E343.6524
G0 F2400 X35.822 Y100.862
G1 F2400 X149.138 Y214.178 E347.8498
G0 F2400 X149.733 Y214.179
G1 F2400 X35.822 Y100.268 E352.0693
G0 F2400 X35.822 Y99.674
G1 F2400 X150.327 Y214.179 E356.3107
G0 F2400 X150.921 Y214.179
G1 F2400 X35.822 Y99.080 E360.5742
G0 F2400 X35.822 Y98.486
G1 F2400 X151.515 Y214.179 E364.8596
G0 F2400 X152.109 Y214.179
G1 F2400 X35.822 Y97.892 E369.1671
G0 F2400 X35.822 Y97.298
G1 F2400 X152.703 Y214.179 E373.4965
G0 F2400 X153.297 Y214.179
G1 F2400 X35.822 Y96.704 E377.8480
G0 F2400 X35.822 Y96.110
G1 F2400 X153.891 Y214.179 E382.2214
G0 F2400 X154.485 Y214.179
G1 F2400 X35.822 Y95.516 E386.6169
G0 F2400 X35.822 Y94.922
G1 F2400 X155.079 Y214.179 E391.0344
G0 F2400 X155.673 Y214.179
G1 F2400 X35.822 Y94.328 E395.4738
G0 F2400 X35.822 Y93.734
G1 F2400 X156.267 Y214.179 E399.9353
G0 F2400 X156.861 Y214.179
G1 F2400 X35.822 Y93.140 E404.4188
G0 F2400 X35.822 Y92.546
G1 F2400 X157.455 Y214.179 E408.9243
G0 F2400 X158.048 Y214.179
G1 F2400 X35.822 Y91.952 E413.4517
G0 F2400 X35.822 Y91.358
G1 F2400 X158.642 Y214.179 E418.0012
G0 F2400 X159.236 Y214.179
G1 F2400 X35.822 Y90.764 E422.5727
G0 F2400 X35.822 Y90.170
G1 F2400 X159.830 Y214.179 E427.1661
G0 F2400 X160.424 Y214.179
G1 F2400 X35.822 Y89.576 E431.7816
G0 F2400 X35.822 Y88.983
G1 F2400 X161.018 Y214.179 E436.4191
G0 F2400 X161.612 Y214.179
G1 F2400 X35.822 Y88.389 E441.0785
G0 F2400 X35.956 Y87.928
G1 F2400 X162.065 Y214.037 E445.7498
G0 F2400 X162.362 Y213.740
G1 F2400 X36.253 Y87.631 E450.4211
G0 F2400 X36.550 Y87.334
G1 F2400 X162.659 Y213.443 E455.0924
G0 F2400 X162.956 Y213.146
G1 F2400 X36.847 Y87.037 E459.7636
G0 F2400 X37.144 Y86.740
G1 F2400 X163.253 Y212.849 E464.4349
G0 F2400 X163.550 Y212.552
G1 F2400 X37.441 Y86.443 E469.1062
G0 F2400 X37.738 Y86.146
G1 F2400 X163.847 Y212.255 E473.7775
G0 F2400 X164.144 Y211.958
G1 F2400 X38.035 Y85.849 E478.4488
G0 F2400 X38.332 Y85.552
G1 F2400 X164.441 Y211.661 E483.1200
G0 F2400 X164.738 Y211.364
G1 F2400 X38.629 Y85.255 E487.7913
G0 F2400 X38.926 Y84.958
G1 F2400 X165.035 Y211.067 E492.4626
G0 F2400 X165.332 Y210.770
G1 F2400 X39.223 Y84.661 E497.1339
G0 F2400 X39.520 Y84.364
G1 F2400 X165.629 Y210.473 E501.8051
G0 F2400 X165.926 Y210.176
G1 F2400 X39.817 Y84.067 E506.4764
G0 F2400 X40.114 Y83.770
G1 F2400 X166.223 Y209.879 E511.1477
G0 F2400 X166.520 Y209.582
G1 F2400 X40.411 Y83.473 E515.8190
G0 F2400 X40.708 Y83.176
G1 F2400 X166.817 Y209.285 E520.4903
G0 F2400 X167.114 Y208.988
G1 F2400 X41.005 Y82.879 E525.1615
G0 F2400 X41.302 Y82.583
G1 F2400 X167.411 Y208.691 E529.8328
G0 F2400 X167.708 Y208.394
G1 F2400 X41.599 Y82.286 E534.5040
G0 F2400 X41.896 Y81.989
G1 F2400 X168.005 Y208.097 E539.1753
G0 F2400 X168.302 Y207.801
G1 F2400 X42.193 Y81.692 E543.8466
G0 F2400 X42.490 Y81.395
G1 F2400 X168.599 Y207.504 E548.5179
G0 F2400 X168.895 Y207.207
G1 F2400 X42.787 Y81.098 E553.1891
G0 F2400 X43.084 Y80.801
G1 F2400 X169.192 Y206.910 E557.8604
G0 F2400 X169.489 Y206.613
G1 F2400 X43.381 Y80.504 E562.5316
G0 F2400 X43.678 Y80.207
G1 F2400 X169.786 Y206.316 E567.2029
G0 F2400 X170.083 Y206.019
G1 F2400 X43.975 Y79.910 E571.8742
G0 F2400 X44.272 Y79.613
G1 F2400 X170.380 Y205.722 E576.5454
G0 F2400 X170.677 Y205.425
G1 F2400 X44.569 Y79.316 E581.2167
G0 F2400 X44.866 Y79.019
G1 F2400 X170.974 Y205.128 E585.8879
G0 F2400 X171.271 Y204.831
G1 F2400 X45.163 Y78.722 E590.5592
G0 F2400 X45.460 Y78.425
G1 F2400 X171.568 Y204.534 E595.2304
G0 F2400 X171.865 Y204.237
G1 F2400 X45.757 Y78.128 E599.9017
G0 F2400 X46.054 Y77.831
G1 F2400 X172.162 Y203.940 E604.5730
G0 F2400 X172.460 Y203.643
G1 F2400 X46.352 Y77.535 E609.2442
G0 F2400 X46.649 Y77.238
G1 F2400 X172.757 Y203.346 E613.9154
G0 F2400 X173.054 Y203.049
G1 F2400 X46.946 Y76.941 E618.5867
G0 F2400 X47.243 Y76.644
G1 F2400 X173.351 Y202.752 E623.2579
G0 F2400 X173.648 Y202.455
G1 F2400 X47.540 Y76.347 E627.9292
G0 F2400 X47.837 Y76.050
G1 F2400 X173.945 Y202.159 E632.6004
G0 F2400 X174.242 Y201.862
G1 F2400 X48.134 Y75.753 E637.2717
G0 F2400 X48.431 Y75.456
G1 F2400 X174.539 Y201.565 E641.9429
G0 F2400 X174.836 Y201.268
G1 F2400 X48.728 Y75.159 E646.6142
G0 F2400 X49.025 Y74.862
G1 F2400 X175.133 Y200.971 E651.2855
G0 F2400 X175.430 Y200.674
G1 F2400 X49.322 Y74.565 E655.9567
G0 F2400 X49.619 Y74.268
G1 F2400 X175.727 Y200.377 E660.6280
G0 F2400 X176.024 Y200.080
G1 F2400 X49.916 Y73.971 E665.2992
G0 F2400 X50.213 Y73.674
G1 F2400 X176.321 Y199.783 E669.9705
G0 F2400 X176.618 Y199.486
G1 F2400 X50.510 Y73.377 E674.6418
G0 F2400 X50.807 Y73.080
G1 F2400 X176.915 Y199.189 E679.3130
G0 F2400 X177.212 Y198.892
G1 F2400 X51.104 Y72.783 E683.9843
G0 F2400 X51.401 Y72.486
G1 F2400 X177.509 Y198.595 E688.6555
G0 F2400 X177.806 Y198.298
G1 F2400 X51.698 Y72.190 E693.3268
G0 F2400 X51.995 Y71.893
G1 F2400 X178.103 Y198.001 E697.9980
G0 F2400 X178.400 Y197.704
G1 F2400 X52.292 Y71.596 E702.6693
G0 F2400 X52.589 Y71.299
G1 F2400 X178.697 Y197.407 E707.3405
G0 F2400 X178.994 Y197.110
G1 F2400 X52.886 Y71.002 E712.0117
G0 F2400 X53.183 Y70.705
G1 F2400 X179.291 Y196.813 E716.6830
G0 F2400 X179.588 Y196.516
G1 F2400 X53.480 Y70.408 E721.3542
G0 F2400 X53.777 Y70.111
G1 F2400 X179.885 Y196.219 E726.0255
G0 F2400 X180.182 Y195.922
G1 F2400 X54.074 Y69.814 E730.6967
G0 F2400 X54.371 Y69.517
G1 F2400 X180.479 Y195.625 E735.3679
G0 F2400 X180.776 Y195.328
G1 F2400 X54.668 Y69.220 E740.0392
G0 F2400 X54.965 Y68.923
G1 F2400 X181.073 Y195.031 E744.7104
G0 F2400 X181.370 Y194.734
G1 F2400 X55.262 Y68.626 E749.3817
G0 F2400 X55.559 Y68.329
G1 F2400 X181.667 Y194.437 E754.0529
G0 F2400 X181.964 Y194.140
G1 F2400 X55.856 Y68.032 E758.7241
G0 F2400 X56.153 Y67.735
G1 F2400 X182.261 Y193.843 E763.3954
G0 F2400 X182.558 Y193.546
G1 F2400 X56.450 Y67.438 E768.0666
G0 F2400 X56.748 Y67.142
G1 F2400 X182.855 Y193.250 E772.7378
G0 F2400 X183.152 Y192.953
G1 F2400 X57.045 Y66.845 E777.4091
G0 F2400 X57.342 Y66.548
G1 F2400 X183.449 Y192.656 E782.0803
G0 F2400 X183.746 Y192.359
G1 F2400 X57.639 Y66.251 E786.7515
G0 F2400 X57.936 Y65.954
G1 F2400 X184.043 Y192.062 E791.4227
G0 F2400 X184.340 Y191.765
G1 F2400 X58.233 Y65.657 E796.0939
G0 F2400 X58.530 Y65.360
G1 F2400 X184.637 Y191.468 E800.7652
G0 F2400 X184.934 Y191.171
G1 F2400 X58.827 Y65.063 E805.4364
G0 F2400 X59.124 Y64.766
G1 F2400 X185.231 Y190.874 E810.1076
G0 F2400 X185.528 Y190.577
G1 F2400 X59.421 Y64.469 E814.7788
G0 F2400 X59.717 Y64.172
G1 F2400 X185.825 Y190.280 E819.4501
G0 F2400 X186.122 Y189.983
G1 F2400 X60.014 Y63.875 E824.1213
G0 F2400 X60.311 Y63.578
G1 F2400 X186.419 Y189.686 E828.7926
G0 F2400 X186.716 Y189.389
G1 F2400 X60.608 Y63.281 E833.4638
G0 F2400 X60.905 Y62.984
G1 F2400 X187.013 Y189.092 E838.1350
G0 F2400 X187.310 Y188.795
G1 F2400 X61.202 Y62.687 E842.8063
G0 F2400 X61.499 Y62.390
G1 F2400 X187.607 Y188.498 E847.4775
G0 F2400 X187.904 Y188.201
G1 F2400 X61.796 Y62.093 E852.1488
G0 F2400 X62.094 Y61.797
G1 F2400 X188.201 Y187.904 E856.8200
G0 F2400 X188.498 Y187.607
G1 F2400 X62.391 Y61.500 E861.4912
G0 F2400 X62.688 Y61.203
G1 F2400 X188.795 Y187.310 E866.1624
G0 F2400 X189.092 Y187.013
G1 F2400 X62.985 Y60.906 E870.8336
G0 F2400 X63.282 Y60.609
G1 F2400 X189.389 Y186.716 E875.5048
G0 F2400 X189.686 Y186.419
G1 F2400 X63.579 Y60.312 E880.1760
G0 F2400 X63.876 Y60.015
G1 F2400 X189.983 Y186.122 E884.8472
G0 F2400 X190.280 Y185.825
G1 F2400 X64.173 Y59.718 E889.5184
G0 F2400 X64.470 Y59.421
