;Sliced by ideaMaker 5.2.4.8581, 2025-07-13 17:25:45 UTC+0200
;Slicer Version: 5.2.3.8580
;Dimension: 250.000 250.000 250.000 0.400
;Plate Shape: 0
;Origin Center: 0
;Extruder Offset #1: 25.000 0.000
;Filament Diameter #1: 1.750
;Filament Diameter #2: 1.750
;Filament Compensation #1: 94.000
;Filament Compensation #2: 90.000
;Filament Density #1: 1240.000
;Filament Density #2: 1240.000
;Filament Type #1: PLA
;Filament Type #2: PLA
;Filament Name #1: [Raise3D] Premium PLA 1.75mm
;Filament Name #2: [Raise3D] Premium PLA 1.75mm
;Filament #1: PLA 1.75mm
;Filament #2: PLA 1.75mm
;Printer Type: floppy
;Firmware: Klipper
;Bounding Box: 73.534 176.465 62.955 187.051 0.000 4.890
;Model Gap: 0.000
M221 T0 S94.00
M140 S50.00
M104 T0 S190.00
M109 T0 S190.00
T0
M190 S50.00
G21 ;metric values
G90 ;absolute positioning
M82 ;set extruder to absolute mode
M107 ;start with the fan off
G28 X0 Y0 ;move X/Y to min endstops
G28 Z0 ;move Z to min endstops
G1 Z15.0 F9000 ;move the platform down 15mm
G92 E0 ;zero the extruded length
G0 X43 Y27 F2000  ;go to the edge of the bed
G92 X0 Y0 E0 ;set zero to edge of the bed
G0 F9000 Z1 ;Z up with 1mm
G1 F200 Z0 ;Z home slowly
G1 Z15.0 F9000 ;move the platform down 15mm
G1 F9000 ;speed setting
G92 E-3 ;retraction
M117 Printing...
M1001
;TOTAL_NUM: 1
;PRINTING_TIME: 0
;REMAINING_TIME: 6962
;LAYER:0
;Z:0.300
;HEIGHT:0.300
;PRINTING: NON-OBJECT
;PRINTING_ID: -1
G1 F2400 E-5.0000
G0 F3900 X73.974 Y63.771
G0 F300 Z0.300
;TYPE:SKIRT
;WIDTH:0.420
G1 F1500 E0.0000
G1 F900 X74.726 Y63.150 E0.0511
G1 X75.495 Y62.955 E0.0926
G1 X174.687 Y62.977 E5.2888
G1 X176.060 Y63.771 E5.3719
G1 X176.465 Y64.994 E5.4394
G1 X176.465 Y135.594 E9.1377
G1 X176.223 Y140.529 E9.3966
G1 X175.470 Y145.641 E9.6672
G1 X174.276 Y150.424 E9.9255
G1 X172.583 Y155.194 E10.1906
G1 X170.373 Y159.874 E10.4617
G1 X167.780 Y164.192 E10.7256
G1 X164.765 Y168.257 E10.9907
G1 X161.371 Y171.997 E11.2553
G1 X157.632 Y175.384 E11.5196
G1 X153.575 Y178.389 E11.7840
G1 X149.245 Y180.981 E12.0484
G1 X144.661 Y183.148 E12.3140
G1 X139.922 Y184.842 E12.5776
G1 X135.024 Y186.066 E12.8421
G1 X130.154 Y186.786 E13.1000
G1 X124.983 Y187.051 E13.3712
G1 X119.933 Y186.800 E13.6361
G1 X114.945 Y186.058 E13.9003
G1 X110.040 Y184.828 E14.1652
G1 X105.295 Y183.130 E14.4292
G1 X100.828 Y181.021 E14.6880
G1 X96.476 Y178.422 E14.9535
G1 X92.341 Y175.361 E15.2230
G1 X88.685 Y172.054 E15.4812
G1 X85.205 Y168.220 E15.7525
G1 X82.198 Y164.162 E16.0171
G1 X79.602 Y159.825 E16.2818
G1 X77.492 Y155.375 E16.5398
G1 X75.777 Y150.608 E16.8052
G1 X74.523 Y145.611 E17.0751
G1 X73.782 Y140.609 E17.3400
G1 X73.537 Y135.701 E17.5974
G1 X73.534 Y64.993 E21.3014
G1 X73.974 Y63.771 E21.3695
G0 F3900 X74.256 Y64.082
G1 F900 X74.837 Y63.555 E21.4106
G1 X75.495 Y63.375 E21.4463
G1 X174.687 Y63.397 E26.6424
G1 X175.722 Y64.021 E26.7057
G1 X176.045 Y64.994 E26.7595
G1 X176.045 Y135.594 E30.4578
G1 X175.804 Y140.508 E30.7155
G1 X175.055 Y145.580 E30.9841
G1 X173.869 Y150.322 E31.2402
G1 X172.187 Y155.053 E31.5032
G1 X169.993 Y159.694 E31.7721
G1 X167.420 Y163.976 E32.0338
G1 X164.428 Y168.007 E32.2968
G1 X161.060 Y171.715 E32.5592
G1 X157.350 Y175.073 E32.8213
G1 X153.325 Y178.051 E33.0836
G1 X149.029 Y180.621 E33.3459
G1 X144.482 Y182.768 E33.6093
G1 X139.781 Y184.446 E33.8707
G1 X134.922 Y185.658 E34.1331
G1 X130.093 Y186.371 E34.3888
G1 X124.962 Y186.632 E34.6579
G1 X119.954 Y186.381 E34.9206
G1 X115.007 Y185.643 E35.1826
G1 X110.142 Y184.421 E35.4454
G1 X105.437 Y182.735 E35.7072
G1 X101.008 Y180.641 E35.9638
G1 X96.691 Y178.061 E36.2273
G1 X92.591 Y175.024 E36.4946
G1 X88.967 Y171.743 E36.7507
G1 X85.516 Y167.938 E37.0198
G1 X82.536 Y163.912 E37.2821
G1 X79.962 Y159.609 E37.5448
G1 X77.872 Y155.195 E37.8006
G1 X76.172 Y150.466 E38.0639
G1 X74.930 Y145.509 E38.3316
G1 X74.198 Y140.548 E38.5943
G1 X73.956 Y135.680 E38.8496
G1 X73.954 Y64.993 E42.5525
G1 X74.256 Y64.082 E42.6028
G0 F3900 X74.374 Y64.993
G1 F900 X74.651 Y64.224 E42.6456
G1 X75.091 Y63.890 E42.6746
G1 X75.582 Y63.786 E42.7008
G1 X174.687 Y63.817 E47.8924
G1 X175.377 Y64.261 E47.9354
G1 X175.625 Y64.994 E47.9760
G1 X175.625 Y135.594 E51.6743
G1 X175.385 Y140.487 E51.9309
G1 X174.640 Y145.518 E52.1974
G1 X173.462 Y150.220 E52.4513
G1 X171.791 Y154.912 E52.7122
G1 X169.613 Y159.514 E52.9789
G1 X167.060 Y163.760 E53.2384
G1 X164.091 Y167.757 E53.4993
G1 X160.749 Y171.432 E53.7595
G1 X157.068 Y174.761 E54.0195
G1 X153.075 Y177.713 E54.2796
G1 X148.813 Y180.261 E54.5397
G1 X144.303 Y182.388 E54.8009
G1 X139.640 Y184.050 E55.0603
G1 X134.821 Y185.250 E55.3204
G1 X130.032 Y185.955 E55.5740
G1 X124.941 Y186.213 E55.8410
G1 X119.975 Y185.962 E56.1015
G1 X115.069 Y185.228 E56.3613
G1 X110.245 Y184.014 E56.6219
G1 X105.579 Y182.340 E56.8816
G1 X101.188 Y180.261 E57.1361
G1 X96.907 Y177.701 E57.3974
G1 X92.841 Y174.687 E57.6625
G1 X89.249 Y171.432 E57.9165
G1 X85.827 Y167.656 E58.1834
G1 X82.874 Y163.662 E58.4436
G1 X80.323 Y159.394 E58.7041
G1 X78.252 Y155.015 E58.9578
G1 X76.567 Y150.324 E59.2190
G1 X75.337 Y145.407 E59.4845
G1 X74.614 Y140.487 E59.7450
G1 X74.375 Y135.659 E59.9982
G1 X74.374 Y64.993 E63.7000
;PRINTING: fairydoor.STL
;PRINTING_ID: 0
G1 F2400 E58.7000
G0 F3900 X75.794 Y65.206
;TYPE:WALL-OUTER
;WIDTH:0.420
G1 F1500 E63.7000
G1 F2400 X174.205 Y65.206 E68.8552
G1 X174.205 Y135.577 E72.5416
G1 X173.967 Y140.411 E72.7951
G1 X173.258 Y145.187 E73.0481
G1 X172.086 Y149.870 E73.3010
G1 X170.459 Y154.419 E73.5540
G1 X168.393 Y158.786 E73.8071
G1 X165.914 Y162.922 E74.0597
G1 X163.037 Y166.804 E74.3128
G1 X159.793 Y170.381 E74.5658
G1 X156.215 Y173.624 E74.8188
G1 X152.335 Y176.501 E75.0718
G1 X148.199 Y178.980 E75.3244
G1 X143.830 Y181.048 E75.5776
G1 X139.283 Y182.675 E75.8306
G1 X134.600 Y183.846 E76.0835
G1 X129.944 Y184.538 E76.3300
G1 X124.999 Y184.792 E76.5894
G1 X120.176 Y184.556 E76.8424
G1 X115.401 Y183.846 E77.0953
G1 X110.718 Y182.675 E77.3481
G1 X106.169 Y181.048 E77.6012
G1 X101.801 Y178.980 E77.8544
G1 X97.665 Y176.501 E78.1070
G1 X93.785 Y173.624 E78.3600
G1 X90.206 Y170.381 E78.6130
G1 X86.964 Y166.804 E78.8659
G1 X84.086 Y162.922 E79.1191
G1 X81.607 Y158.786 E79.3717
G1 X79.541 Y154.419 E79.6247
G1 X77.913 Y149.870 E79.8778
G1 X76.741 Y145.187 E80.1307
G1 X76.032 Y140.411 E80.3836
G1 X75.794 Y135.587 E80.6366
G1 X75.794 Y65.206 E84.3235
G1 F2400 E79.3235
G0 F3900 X76.314 Y65.636
G0 X126.305 Y121.480
G0 X126.202 Y121.989
G1 F1500 E84.3235
G1 F2400 X126.202 Y135.092 E85.0099
G1 X139.304 Y135.092 E85.6963
G1 X138.714 Y132.133 E85.8543
G1 X137.639 Y129.538 E86.0015
G1 X136.082 Y127.204 E86.1485
G1 X135.129 Y126.155 E86.2227
G1 X132.966 Y124.380 E86.3693
G1 X131.751 Y123.652 E86.4435
G1 X129.159 Y122.578 E86.5904
G1 X126.202 Y121.989 E86.7484
G1 F2400 E81.7484
G0 F3900 X126.305 Y121.480
G0 X125.656 Y121.323
G0 X125.641 Y135.653
G0 X139.970 Y136.949
G0 X139.813 Y137.598
G0 X139.304 Y137.495
G1 F1500 E86.7484
G1 F2400 X126.202 Y137.495 E87.4347
G1 X126.202 Y150.597 E88.1211
G1 X129.159 Y150.008 E88.2790
G1 X131.752 Y148.934 E88.4260
G1 X132.966 Y148.207 E88.5002
G1 X135.129 Y146.431 E88.6468
G1 X136.082 Y145.382 E88.7210
G1 X137.639 Y143.049 E88.8680
G1 X138.714 Y140.454 E89.0151
G1 X139.304 Y137.495 E89.1732
G1 F2400 E84.1732
G0 F3900 X139.813 Y137.598
G0 X139.939 Y137.073
G0 X110.695 Y136.975
G0 X110.695 Y137.495
G1 F1500 E89.1732
G1 F2400 X111.285 Y140.454 E89.3312
G1 X112.360 Y143.049 E89.4784
G1 X113.917 Y145.382 E89.6253
G1 X114.870 Y146.431 E89.6995
G1 X117.033 Y148.207 E89.8461
G1 X118.247 Y148.934 E89.9203
G1 X120.840 Y150.008 E90.0673
G1 X123.798 Y150.598 E90.2253
G1 X123.798 Y137.495 E90.9117
G1 X110.695 Y137.495 E91.5981
G1 F2400 E86.5981
G0 F3900 X110.695 Y135.092
G1 F1500 E91.5981
G1 F2400 X123.798 Y135.092 E92.2845
G1 X123.798 Y122.002 E92.9702
G1 X122.273 Y122.228 E93.0510
G1 X120.835 Y122.580 E93.1285
G1 X118.248 Y123.652 E93.2752
G1 X117.033 Y124.380 E93.3494
G1 X114.870 Y126.155 E93.4960
G1 X113.917 Y127.204 E93.5702
G1 X112.360 Y129.538 E93.7172
G1 X111.285 Y132.133 E93.8643
G1 X110.695 Y135.092 E94.0224
G1 F2400 E89.0224
G0 F3900 X110.186 Y134.989
G0 X76.314 Y65.636
G0 X76.214 Y65.626
;TYPE:WALL-INNER
;WIDTH:0.420
G1 F1500 E94.0224
G1 F2400 X173.785 Y65.626 E99.1336
G1 X173.785 Y135.567 E102.7975
G1 X173.549 Y140.370 E103.0494
G1 X172.846 Y145.105 E103.3001
G1 X171.684 Y149.748 E103.5509
G1 X170.070 Y154.258 E103.8018
G1 X168.022 Y158.588 E104.0527
G1 X165.564 Y162.688 E104.3031
G1 X162.712 Y166.537 E104.5541
G1 X159.496 Y170.084 E104.8049
G1 X155.948 Y173.299 E105.0557
G1 X152.101 Y176.151 E105.3066
G1 X148.001 Y178.609 E105.5570
G1 X143.669 Y180.660 E105.8081
G1 X139.161 Y182.273 E106.0589
G1 X134.518 Y183.434 E106.3096
G1 X129.902 Y184.120 E106.5540
G1 X124.998 Y184.371 E106.8113
G1 X120.217 Y184.138 E107.0620
G1 X115.483 Y183.434 E107.3127
G1 X110.840 Y182.273 E107.5634
G1 X106.330 Y180.660 E107.8144
G1 X101.999 Y178.609 E108.0654
G1 X97.899 Y176.151 E108.3158
G1 X94.052 Y173.299 E108.5667
G1 X90.503 Y170.084 E108.8175
G1 X87.289 Y166.537 E109.0683
G1 X84.436 Y162.688 E109.3192
G1 X81.978 Y158.588 E109.5697
G1 X79.929 Y154.258 E109.8206
G1 X78.315 Y149.748 E110.0715
G1 X77.153 Y145.105 E110.3223
G1 X76.450 Y140.370 E110.5730
G1 X76.214 Y135.577 E110.8244
G1 X76.214 Y65.626 E114.4888
G1 F2400 E109.4888
G0 F3900 X76.314 Y65.636
G0 X125.682 Y121.487
G0 X125.782 Y121.477
G1 F1500 E114.4888
G1 F2400 X125.782 Y135.512 E115.2240
G1 X139.816 Y135.512 E115.9591
G1 X139.118 Y132.010 E116.1462
G1 X138.011 Y129.339 E116.2977
G1 X136.414 Y126.945 E116.4484
G1 X135.419 Y125.850 E116.5259
G1 X133.208 Y124.036 E116.6757
G1 X131.940 Y123.276 E116.7532
G1 X129.282 Y122.174 E116.9039
G1 X125.782 Y121.477 E117.0909
G1 F2400 E112.0909
G0 F3900 X125.682 Y121.487
G0 X125.641 Y135.653
G0 X139.806 Y136.975
G0 X139.816 Y137.075
G1 F1500 E117.0909
G1 F2400 X125.782 Y137.075 E117.8260
G1 X125.782 Y151.109 E118.5612
G1 X129.282 Y150.412 E118.7481
G1 X131.941 Y149.310 E118.8989
G1 X133.208 Y148.551 E118.9763
G1 X135.419 Y146.736 E119.1261
G1 X136.414 Y145.641 E119.2036
G1 X138.011 Y143.248 E119.3544
G1 X139.118 Y140.577 E119.5058
G1 X139.816 Y137.075 E119.6929
G1 F2400 E114.6929
G0 F3900 X139.806 Y136.975
G0 X110.029 Y136.949
G0 X110.086 Y137.103
G0 X110.183 Y137.075
G1 F1500 E119.6929
G1 F2400 X110.881 Y140.577 E119.8799
G1 X111.988 Y143.248 E120.0314
G1 X113.585 Y145.641 E120.1821
G1 X114.580 Y146.736 E120.2596
G1 X116.791 Y148.551 E120.4095
G1 X118.058 Y149.310 E120.4868
G1 X120.717 Y150.412 E120.6376
G1 X124.218 Y151.110 E120.8246
G1 X124.218 Y137.075 E121.5598
G1 X110.183 Y137.075 E122.2951
G0 F3900 X110.183 Y135.512
G1 F2400 X124.218 Y135.512 E123.0303
G1 X124.218 Y121.515 E123.7635
G1 X122.192 Y121.815 E123.8708
G1 X120.704 Y122.180 E123.9511
G1 X118.059 Y123.276 E124.1010
G1 X116.791 Y124.036 E124.1785
G1 X114.580 Y125.850 E124.3283
G1 X113.585 Y126.945 E124.4058
G1 X111.988 Y129.339 E124.5565
G1 X110.881 Y132.010 E124.7080
G1 X110.183 Y135.512 E124.8951
G1 F2400 E119.8951
G0 F3900 X110.193 Y135.612
G0 X90.472 Y169.767
;TYPE:SOLID-FILL
;WIDTH:0.420
G1 F1500 E124.8951
G1 F2400 X90.817 Y170.112 E124.9206
G1 F2400 E119.9206
G0 F3900 X95.248 Y173.949
G1 F1500 E124.9206
G1 F2400 X86.634 Y165.335 E125.5588
G0 F3900 X84.933 Y163.040
G1 F2400 X97.544 Y175.651 E126.4930
G0 F3900 X99.192 Y176.705
G1 F2400 X83.881 Y161.394 E127.6273
G0 F3900 X82.990 Y159.909
G1 F2400 X100.677 Y177.596 E128.9376
G0 F3900 X102.143 Y178.468
G1 F2400 X82.117 Y158.442 E130.4212
G0 F2400 X81.584 Y157.315
G1 F2400 X103.271 Y179.002 E132.0279
G0 F2400 X104.398 Y179.535
G1 F2400 X81.051 Y156.188 E133.7575
G0 F2400 X80.518 Y155.062
G1 F2400 X105.526 Y180.069 E135.6101
G0 F2400 X106.608 Y180.557
G1 F2400 X80.031 Y153.980 E137.5790
G0 F2400 X79.699 Y153.054
G1 F2400 X107.533 Y180.888 E139.6411
G0 F2400 X108.458 Y181.219
G1 F2400 X79.368 Y152.129 E141.7961
G0 F2400 X79.037 Y151.204
G1 F2400 X109.382 Y181.549 E144.0442
G0 F2400 X110.307 Y181.880
G1 F2400 X78.705 Y150.279 E146.3853
G0 F2400 X78.423 Y149.402
G1 F2400 X111.184 Y182.163 E148.8124
G0 F2400 X111.976 Y182.361
G1 F2400 X78.225 Y148.610 E151.3128
G0 F2400 X78.026 Y147.817
G1 F2400 X112.767 Y182.559 E153.8865
G0 F2400 X113.559 Y182.757
G1 F2400 X77.827 Y147.025 E156.5337
G0 F2400 X77.629 Y146.233
G1 F2400 X114.351 Y182.955 E159.2541
G0 F2400 X115.144 Y183.154
G1 F2400 X77.431 Y145.440 E162.0481
G0 F2400 X77.282 Y144.698
G1 F2400 X115.887 Y183.302 E164.9080
G0 F2400 X116.584 Y183.405
G1 F2400 X77.179 Y144.000 E167.8273
G0 F2400 X77.076 Y143.303
G1 F2400 X117.282 Y183.509 E170.8059
G0 F2400 X117.979 Y183.613
G1 F2400 X76.972 Y142.606 E173.8438
G0 F2400 X76.868 Y141.908
G1 F2400 X118.677 Y183.716 E176.9411
G0 F2400 X119.375 Y183.820
G1 F2400 X76.765 Y141.211 E180.0977
G0 F2400 X76.662 Y140.514
G1 F2400 X120.072 Y183.924 E183.3137
G0 F2400 X120.714 Y183.972
G1 F2400 X76.614 Y139.872 E186.5808
G0 F2400 X76.583 Y139.247
G1 F2400 X121.338 Y184.002 E189.8963
G0 F2400 X121.963 Y184.033
G1 F2400 X76.552 Y138.622 E193.2605
G0 F2400 X76.522 Y137.998
G1 F2400 X122.587 Y184.063 E196.6732
G0 F2400 X123.211 Y184.093
G1 F2400 X76.491 Y137.373 E200.1343
G0 F2400 X76.460 Y136.748
G1 F2400 X123.836 Y184.124 E203.6441
G0 F2400 X124.460 Y184.154
G1 F2400 X76.429 Y136.123 E207.2024
G0 F2400 X76.402 Y135.502
G1 F2400 X125.077 Y184.177 E210.8084
G0 F2400 X125.642 Y184.148
G1 F2400 X76.402 Y134.908 E214.4563
G0 F2400 X76.402 Y134.314
G1 F2400 X126.207 Y184.119 E218.1460
G0 F2400 X126.772 Y184.090
G1 F2400 X76.402 Y133.720 E221.8775
G0 F2400 X76.402 Y133.126
G1 F2400 X127.337 Y184.061 E225.6510
G0 F2400 X127.902 Y184.032
G1 F2400 X76.402 Y132.532 E229.4662
G0 F2400 X76.402 Y131.938
G1 F2400 X128.467 Y184.003 E233.3234
G0 F2400 X129.032 Y183.974
G1 F2400 X76.402 Y131.344 E237.2224
G0 F2400 X76.402 Y130.750
G1 F2400 X129.597 Y183.945 E241.1632
G0 F2400 X130.138 Y183.893
G1 F2400 X76.402 Y130.156 E245.1442
G0 F2400 X76.402 Y129.562
G1 F2400 X130.655 Y183.815 E249.1634
G0 F2400 X131.173 Y183.739
G1 F2400 X76.402 Y128.968 E253.2210
G0 F2400 X76.402 Y128.374
G1 F2400 X131.690 Y183.662 E257.3170
G0 F2400 X132.207 Y183.586
G1 F2400 X76.402 Y127.780 E261.4512
G0 F2400 X76.402 Y127.186
G1 F2400 X132.724 Y183.509 E265.6238
G0 F2400 X133.241 Y183.431
G1 F2400 X76.402 Y126.592 E269.8346
G0 F2400 X76.402 Y125.998
G1 F2400 X133.759 Y183.355 E274.0838
G0 F2400 X134.276 Y183.278
G1 F2400 X76.402 Y125.404 E278.3712
G0 F2400 X76.402 Y124.810
G1 F2400 X134.768 Y183.176 E282.6952
G0 F2400 X135.243 Y183.057
G1 F2400 X76.402 Y124.216 E287.0543
G0 F2400 X76.402 Y123.622
G1 F2400 X135.718 Y182.939 E291.4487
G0 F2400 X136.193 Y182.819
G1 F2400 X76.402 Y123.028 E295.8782
G0 F2400 X76.402 Y122.434
G1 F2400 X136.668 Y182.700 E300.3429
G0 F2400 X137.143 Y182.582
G1 F2400 X76.402 Y121.840 E304.8428
G0 F2400 X76.402 Y121.246
G1 F2400 X137.618 Y182.463 E309.3779
G0 F2400 X138.093 Y182.344
G1 F2400 X76.402 Y120.652 E313.9482
G0 F2400 X76.402 Y120.058
G1 F2400 X138.568 Y182.225 E318.5537
G0 F2400 X139.044 Y182.106
G1 F2400 X76.402 Y119.464 E323.1944
G0 F2400 X76.402 Y118.871
G1 F2400 X139.486 Y181.954 E327.8678
G0 F2400 X139.923 Y181.798
G1 F2400 X76.402 Y118.277 E332.5737
G0 F2400 X76.402 Y117.683
G1 F2400 X140.360 Y181.641 E337.3119
G0 F2400 X140.798 Y181.485
G1 F2400 X76.402 Y117.089 E342.0826
G0 F2400 X76.402 Y116.495
G1 F2400 X141.235 Y181.328 E346.8856
G0 F2400 X141.673 Y181.172
G1 F2400 X76.402 Y115.901 E351.7211
G0 F2400 X76.402 Y115.307
G1 F2400 X142.110 Y181.015 E356.5889
G0 F2400 X142.547 Y180.858
G1 F2400 X76.402 Y114.713 E361.4892
G0 F2400 X76.402 Y114.119
G1 F2400 X142.984 Y180.701 E366.4218
G0 F2400 X143.422 Y180.545
G1 F2400 X76.402 Y113.525 E371.3868
G0 F2400 X76.402 Y112.931
G1 F2400 X143.838 Y180.368 E376.3827
G0 F2400 X144.242 Y180.177
G1 F2400 X76.402 Y112.337 E381.4085
G0 F2400 X76.402 Y111.743
G1 F2400 X144.645 Y179.986 E386.4642
G0 F2400 X145.048 Y179.796
G1 F2400 X76.402 Y111.149 E391.5497
G0 F2400 X76.402 Y110.555
G1 F2400 X145.451 Y179.605 E396.6651
G0 F2400 X145.854 Y179.414
G1 F2400 X76.402 Y109.961 E401.8104
G0 F2400 X76.402 Y109.367
G1 F2400 X146.258 Y179.223 E406.9856
G0 F2400 X146.661 Y179.033
