;Sliced by ideaMaker 5.2.4.8581, 2025-08-29 12:56:28 UTC+0200
;Slicer Version: 5.2.3.8580
;Dimension: 250.000 250.000 250.000 0.400
;Plate Shape: 0
;Origin Center: 0
;Extruder Offset #1: 25.000 0.000
;Filament Diameter #1: 1.750
;Filament Diameter #2: 1.750
;Filament Compensation #1: 94.000
;Filament Compensation #2: 90.000
;Filament Density #1: 1240.000
;Filament Density #2: 1240.000
;Filament Type #1: PLA
;Filament Type #2: PLA
;Filament Name #1: [Raise3D] Premium PLA 1.75mm
;Filament Name #2: [Raise3D] Premium PLA 1.75mm
;Filament #1: PLA 1.75mm
;Filament #2: PLA 1.75mm
;Printer Type: floppy
;Firmware: Klipper
;Bounding Box: 28.364 221.634 28.564 221.634 0.000 0.450
;Model Gap: 0.000
M221 T0 S94.00
M140 S45.00
M104 T0 S195.00
M109 T0 S195.00
T0
M190 S45.00
G21 ;metric values
G90 ;absolute positioning
M82 ;set extruder to absolute mode
M107 ;start with the fan off
G28 X0 Y0 ;move X/Y to min endstops
G28 Z0 ;move Z to min endstops
G1 Z15.0 F9000 ;move the platform down 15mm
G92 E0 ;zero the extruded length
G0 X43 Y27 F2000  ;go to the edge of the bed
G92 X0 Y0 E0 ;set zero to edge of the bed
G0 F9000 Z1 ;Z up with 1mm
G1 F200 Z0 ;Z home slowly
G1 Z15.0 F9000 ;move the platform down 15mm
G1 F9000 ;speed setting
G92 E-3 ;retraction
M117 Printing...
M1001
;TOTAL_NUM: 1
;PRINTING_TIME: 0
;REMAINING_TIME: 3606
;LAYER:0
;Z:0.150
;HEIGHT:0.150
M106 S153
;PRINTING: NON-OBJECT
;PRINTING_ID: -1
G1 F2400 E-5.0000
SET_VELOCITY_LIMIT ACCEL=500.00
SET_VELOCITY_LIMIT SQUARE_CORNER_VELOCITY=5.00
G0 F3900 X84.141 Y29.211
G0 F300 Z0.150
;TYPE:SKIRT
;WIDTH:0.420
G1 F1500 E0.0000
G1 F900 X85.044 Y28.628 E0.0282
G1 X164.718 Y28.564 E2.1150
G1 X165.779 Y29.148 E2.1467
G1 X220.792 Y84.166 E4.1846
G1 X221.367 Y85.054 E4.2123
G1 X221.634 Y163.827 E6.2756
G1 X221.408 Y164.867 E6.3034
G1 X165.862 Y220.791 E8.3680
G1 X164.966 Y221.368 E8.3959
G1 X86.187 Y221.634 E10.4593
G1 X85.149 Y221.410 E10.4871
G1 X29.208 Y165.842 E12.5524
G1 X28.634 Y164.950 E12.5801
G1 X28.364 Y86.170 E14.6436
G1 X28.588 Y85.132 E14.6714
G1 X84.141 Y29.211 E16.7360
G0 F3900 X84.439 Y29.507
G1 F900 X85.268 Y28.983 E16.7617
G1 X164.718 Y28.984 E18.8427
G1 X165.558 Y29.505 E18.8686
G1 X220.495 Y84.463 E20.9039
G1 X220.956 Y85.140 E20.9253
G1 X221.214 Y163.828 E22.9864
G1 X221.057 Y164.636 E23.0079
G1 X165.564 Y220.495 E25.0703
G1 X164.881 Y220.957 E25.0919
G1 X86.186 Y221.214 E27.1531
G1 X85.380 Y221.059 E27.1746
G1 X29.504 Y165.544 E29.2377
G1 X29.045 Y164.865 E29.2591
G1 X28.784 Y86.169 E31.3204
G1 X28.939 Y85.363 E31.3419
G1 X84.439 Y29.507 E33.4043
G0 F3900 X84.737 Y29.803
G1 F900 X85.350 Y29.395 E33.4236
G1 X164.501 Y29.344 E35.4967
G1 X165.261 Y29.802 E35.5200
G1 X220.198 Y84.760 E37.5553
G1 X220.606 Y85.373 E37.5746
G1 X220.794 Y163.829 E39.6295
G1 X220.646 Y164.552 E39.6489
G1 X165.266 Y220.199 E41.7052
G1 X164.649 Y220.607 E41.7246
G1 X86.185 Y220.794 E43.7797
G1 X85.464 Y220.647 E43.7990
G1 X29.800 Y165.246 E45.8560
G1 X29.395 Y164.633 E45.8753
G1 X29.204 Y86.168 E47.9304
G1 X29.351 Y85.447 E47.9497
G1 X84.737 Y29.803 E50.0061
G0 F3900 X85.034 Y30.100
G1 F900 X85.578 Y29.748 E50.0231
G1 X164.290 Y29.707 E52.0847
G1 X164.964 Y30.099 E52.1051
G1 X219.901 Y85.057 E54.1405
G1 X220.253 Y85.601 E54.1574
G1 X220.374 Y163.830 E56.2065
G1 X220.236 Y164.463 E56.2234
G1 X164.969 Y219.902 E58.2738
G1 X164.422 Y220.254 E58.2908
G1 X86.184 Y220.374 E60.3401
G1 X85.553 Y220.237 E60.3570
G1 X30.097 Y164.949 E62.4080
G1 X29.749 Y164.406 E62.4249
G1 X29.624 Y86.167 E64.4742
G1 X29.761 Y85.536 E64.4911
G1 X85.034 Y30.100 E66.5415
G0 F3900 X85.331 Y30.397
G1 F900 X85.800 Y30.105 E66.5560
G1 X164.086 Y30.074 E68.6065
G1 X164.667 Y30.396 E68.6239
G1 X219.604 Y85.354 E70.6592
G1 X219.896 Y85.823 E70.6737
G1 X219.954 Y163.830 E72.7169
G1 X219.827 Y164.366 E72.7313
G1 X164.672 Y219.605 E74.7759
G1 X164.201 Y219.897 E74.7904
G1 X86.184 Y219.954 E76.8339
G1 X85.649 Y219.828 E76.8483
G1 X30.394 Y164.652 E78.8935
G1 X30.107 Y164.186 E78.9079
G1 X30.044 Y86.167 E80.9514
G1 X30.170 Y85.632 E80.9658
G1 X85.331 Y30.397 E83.0104
;PRINTING: First_Layer_Test.stl
;PRINTING_ID: 0
G1 F2400 E78.0104
G1 F300 Z0.350
G0 F3900 X31.464 Y86.257
;TYPE:WALL-OUTER
;WIDTH:0.420
G1 F300 Z0.150
G1 F1500 E83.0104
G1 F2400 X86.274 Y31.462 E85.0404
G1 X163.725 Y31.462 E87.0690
G1 X218.539 Y86.297 E89.0998
G1 X218.534 Y163.740 E91.1282
G1 X163.728 Y218.540 E93.1582
G1 X86.274 Y218.534 E95.1869
G1 X31.464 Y163.713 E97.2173
G1 X31.464 Y86.257 E99.2461
G0 F3900 X31.884 Y86.431
;TYPE:WALL-INNER
;WIDTH:0.420
G1 F2400 X86.448 Y31.882 E101.2670
G1 X163.551 Y31.882 E103.2865
G1 X218.119 Y86.471 E105.3081
G1 X218.114 Y163.566 E107.3274
G1 X163.554 Y218.120 E109.3483
G1 X86.448 Y218.114 E111.3679
G1 X31.884 Y163.539 E113.3892
G1 X31.884 Y86.431 E115.4089
G1 F2400 E110.4089
G1 F300 Z0.350
G0 F3900 X31.961 Y86.494
G0 X32.072 Y163.043
;TYPE:SOLID-FILL
;WIDTH:0.420
G1 F300 Z0.150
G1 F1500 E115.4089
G1 F2400 X86.954 Y217.924 E117.4418
G0 F2400 X87.548 Y217.924
G1 F2400 X32.072 Y162.449 E119.4967
G0 F2400 X32.072 Y161.855
G1 F2400 X88.142 Y217.924 E121.5736
G0 F2400 X88.736 Y217.924
G1 F2400 X32.072 Y161.261 E123.6725
G0 F2400 X32.072 Y160.667
G1 F2400 X89.330 Y217.924 E125.7934
G0 F2400 X89.924 Y217.924
G1 F2400 X32.072 Y160.073 E127.9363
G0 F2400 X32.072 Y159.479
G1 F2400 X90.518 Y217.924 E130.1012
G0 F2400 X91.112 Y217.924
G1 F2400 X32.072 Y158.885 E132.2881
G0 F2400 X32.072 Y158.291
G1 F2400 X91.706 Y217.924 E134.4971
G0 F2400 X92.300 Y217.924
G1 F2400 X32.072 Y157.697 E136.7280
G0 F2400 X32.072 Y157.103
G1 F2400 X92.894 Y217.924 E138.9809
G0 F2400 X93.488 Y217.924
G1 F2400 X32.072 Y156.509 E141.2558
G0 F2400 X32.072 Y155.915
G1 F2400 X94.081 Y217.924 E143.5528
G0 F2400 X94.675 Y217.924
G1 F2400 X32.072 Y155.321 E145.8717
G0 F2400 X32.072 Y154.727
G1 F2400 X95.269 Y217.924 E148.2126
G0 F2400 X95.863 Y217.924
G1 F2400 X32.072 Y154.133 E150.5755
G0 F2400 X32.072 Y153.539
G1 F2400 X96.458 Y217.925 E152.9605
G0 F2400 X97.052 Y217.925
G1 F2400 X32.072 Y152.945 E155.3674
G0 F2400 X32.072 Y152.351
G1 F2400 X97.646 Y217.925 E157.7964
G0 F2400 X98.240 Y217.925
G1 F2400 X32.072 Y151.757 E160.2474
G0 F2400 X32.072 Y151.163
G1 F2400 X98.834 Y217.925 E162.7203
G0 F2400 X99.428 Y217.925
G1 F2400 X32.072 Y150.569 E165.2153
G0 F2400 X32.072 Y149.975
G1 F2400 X100.022 Y217.925 E167.7323
G0 F2400 X100.616 Y217.925
G1 F2400 X32.072 Y149.381 E170.2713
G0 F2400 X32.072 Y148.787
G1 F2400 X101.210 Y217.925 E172.8322
G0 F2400 X101.804 Y217.925
G1 F2400 X32.072 Y148.194 E175.4152
G0 F2400 X32.072 Y147.600
G1 F2400 X102.398 Y217.925 E178.0202
G0 F2400 X102.992 Y217.925
G1 F2400 X32.072 Y147.006 E180.6471
G0 F2400 X32.072 Y146.412
G1 F2400 X103.586 Y217.925 E183.2961
G0 F2400 X104.180 Y217.925
G1 F2400 X32.072 Y145.818 E185.9671
G0 F2400 X32.072 Y145.224
G1 F2400 X104.774 Y217.925 E188.6601
G0 F2400 X105.368 Y217.925
G1 F2400 X32.072 Y144.630 E191.3751
G0 F2400 X32.072 Y144.036
G1 F2400 X105.962 Y217.926 E194.1121
G0 F2400 X106.556 Y217.926
G1 F2400 X32.072 Y143.442 E196.8711
G0 F2400 X32.072 Y142.848
G1 F2400 X107.150 Y217.926 E199.6521
G0 F2400 X107.744 Y217.926
G1 F2400 X32.072 Y142.254 E202.4551
G0 F2400 X32.072 Y141.660
G1 F2400 X108.338 Y217.926 E205.2801
G0 F2400 X108.932 Y217.926
G1 F2400 X32.072 Y141.066 E208.1271
G0 F2400 X32.072 Y140.472
G1 F2400 X109.526 Y217.926 E210.9961
G0 F2400 X110.120 Y217.926
G1 F2400 X32.072 Y139.878 E213.8871
G0 F2400 X32.072 Y139.284
G1 F2400 X110.714 Y217.926 E216.8002
G0 F2400 X111.308 Y217.926
G1 F2400 X32.072 Y138.690 E219.7352
G0 F2400 X32.072 Y138.096
G1 F2400 X111.902 Y217.926 E222.6922
G0 F2400 X112.496 Y217.926
G1 F2400 X32.072 Y137.502 E225.6713
G0 F2400 X32.072 Y136.908
G1 F2400 X113.090 Y217.926 E228.6723
G0 F2400 X113.684 Y217.926
G1 F2400 X32.072 Y136.314 E231.6953
G0 F2400 X32.072 Y135.720
G1 F2400 X114.278 Y217.926 E234.7404
G0 F2400 X114.872 Y217.926
G1 F2400 X32.072 Y135.126 E237.8074
G0 F2400 X32.072 Y134.532
G1 F2400 X115.467 Y217.926 E240.8965
G0 F2400 X116.060 Y217.926
G1 F2400 X32.072 Y133.938 E244.0075
G0 F2400 X32.072 Y133.344
G1 F2400 X116.654 Y217.926 E247.1406
G0 F2400 X117.248 Y217.926
G1 F2400 X32.072 Y132.750 E250.2956
G0 F2400 X32.072 Y132.156
G1 F2400 X117.842 Y217.926 E253.4727
G0 F2400 X118.436 Y217.926
G1 F2400 X32.072 Y131.562 E256.6718
G0 F2400 X32.072 Y130.968
G1 F2400 X119.030 Y217.926 E259.8928
G0 F2400 X119.624 Y217.926
G1 F2400 X32.072 Y130.374 E263.1359
G0 F2400 X32.072 Y129.780
G1 F2400 X120.218 Y217.926 E266.4009
G0 F2400 X120.812 Y217.926
G1 F2400 X32.072 Y129.186 E269.6880
G0 F2400 X32.072 Y128.593
G1 F2400 X121.406 Y217.926 E272.9971
G0 F2400 X122.000 Y217.926
G1 F2400 X32.072 Y127.999 E276.3281
G0 F2400 X32.072 Y127.405
G1 F2400 X122.594 Y217.926 E279.6812
G0 F2400 X123.188 Y217.926
G1 F2400 X32.072 Y126.811 E283.0563
G0 F2400 X32.072 Y126.217
G1 F2400 X123.782 Y217.926 E286.4533
G0 F2400 X124.376 Y217.926
G1 F2400 X32.072 Y125.623 E289.8724
G0 F2400 X32.072 Y125.029
G1 F2400 X124.970 Y217.926 E293.3135
G0 F2400 X125.565 Y217.927
G1 F2400 X32.072 Y124.435 E296.7766
G0 F2400 X32.072 Y123.841
G1 F2400 X126.159 Y217.927 E300.2617
G0 F2400 X126.753 Y217.927
G1 F2400 X32.072 Y123.247 E303.7688
G0 F2400 X32.072 Y122.653
G1 F2400 X127.347 Y217.927 E307.2979
G0 F2400 X127.941 Y217.927
G1 F2400 X32.072 Y122.059 E310.8490
G0 F2400 X32.072 Y121.465
G1 F2400 X128.535 Y217.927 E314.4222
G0 F2400 X129.129 Y217.927
G1 F2400 X32.072 Y120.871 E318.0173
G0 F2400 X32.072 Y120.277
G1 F2400 X129.722 Y217.927 E321.6344
G0 F2400 X130.316 Y217.927
G1 F2400 X32.072 Y119.683 E325.2735
G0 F2400 X32.072 Y119.089
G1 F2400 X130.910 Y217.927 E328.9346
G0 F2400 X131.504 Y217.927
G1 F2400 X32.072 Y118.495 E332.6177
G0 F2400 X32.072 Y117.901
G1 F2400 X132.098 Y217.927 E336.3229
G0 F2400 X132.692 Y217.927
G1 F2400 X32.072 Y117.307 E340.0500
G0 F2400 X32.072 Y116.713
G1 F2400 X133.286 Y217.927 E343.7991
G0 F2400 X133.880 Y217.927
G1 F2400 X32.072 Y116.119 E347.5702
G0 F2400 X32.072 Y115.525
G1 F2400 X134.474 Y217.927 E351.3634
G0 F2400 X135.069 Y217.928
G1 F2400 X32.072 Y114.931 E355.1786
G0 F2400 X32.072 Y114.337
G1 F2400 X135.663 Y217.928 E359.0157
G0 F2400 X136.257 Y217.928
G1 F2400 X32.072 Y113.743 E362.8749
G0 F2400 X32.072 Y113.149
G1 F2400 X136.851 Y217.928 E366.7561
G0 F2400 X137.445 Y217.928
G1 F2400 X32.072 Y112.555 E370.6593
G0 F2400 X32.072 Y111.961
G1 F2400 X138.039 Y217.928 E374.5845
G0 F2400 X138.633 Y217.928
G1 F2400 X32.072 Y111.367 E378.5316
G0 F2400 X32.072 Y110.773
G1 F2400 X139.227 Y217.928 E382.5008
G0 F2400 X139.821 Y217.928
G1 F2400 X32.072 Y110.179 E386.4920
G0 F2400 X32.072 Y109.585
G1 F2400 X140.415 Y217.928 E390.5052
G0 F2400 X141.009 Y217.928
G1 F2400 X32.072 Y108.992 E394.5404
G0 F2400 X32.072 Y108.398
G1 F2400 X141.603 Y217.928 E398.5976
G0 F2400 X142.197 Y217.928
G1 F2400 X32.072 Y107.804 E402.6768
G0 F2400 X32.072 Y107.210
G1 F2400 X142.791 Y217.928 E406.7780
G0 F2400 X143.384 Y217.928
G1 F2400 X32.072 Y106.616 E410.9011
G0 F2400 X32.072 Y106.022
G1 F2400 X143.978 Y217.928 E415.0463
G0 F2400 X144.573 Y217.928
G1 F2400 X32.072 Y105.428 E419.2135
G0 F2400 X32.072 Y104.834
G1 F2400 X145.167 Y217.928 E423.4027
G0 F2400 X145.761 Y217.928
G1 F2400 X32.072 Y104.240 E427.6139
G0 F2400 X32.072 Y103.646
G1 F2400 X146.355 Y217.928 E431.8471
G0 F2400 X146.949 Y217.928
G1 F2400 X32.072 Y103.052 E436.1023
G0 F2400 X32.072 Y102.458
G1 F2400 X147.543 Y217.928 E440.3795
G0 F2400 X148.137 Y217.928
G1 F2400 X32.072 Y101.864 E444.6787
G0 F2400 X32.072 Y101.270
G1 F2400 X148.731 Y217.928 E449.0000
G0 F2400 X149.325 Y217.928
G1 F2400 X32.072 Y100.676 E453.3432
G0 F2400 X32.072 Y100.082
G1 F2400 X149.919 Y217.928 E457.7084
G0 F2400 X150.513 Y217.928
G1 F2400 X32.072 Y99.488 E462.0956
G0 F2400 X32.072 Y98.894
G1 F2400 X151.107 Y217.928 E466.5049
G0 F2400 X151.701 Y217.928
G1 F2400 X32.072 Y98.300 E470.9361
G0 F2400 X32.072 Y97.706
G1 F2400 X152.295 Y217.928 E475.3893
G0 F2400 X152.889 Y217.928
G1 F2400 X32.072 Y97.112 E479.8645
G0 F2400 X32.072 Y96.518
G1 F2400 X153.483 Y217.928 E484.3618
G0 F2400 X154.077 Y217.929
G1 F2400 X32.072 Y95.924 E488.8810
G0 F2400 X32.072 Y95.330
G1 F2400 X154.671 Y217.929 E493.4223
G0 F2400 X155.265 Y217.929
G1 F2400 X32.072 Y94.736 E497.9856
G0 F2400 X32.072 Y94.142
G1 F2400 X155.859 Y217.929 E502.5708
G0 F2400 X156.453 Y217.929
G1 F2400 X32.072 Y93.548 E507.1781
G0 F2400 X32.072 Y92.954
G1 F2400 X157.047 Y217.929 E511.8074
G0 F2400 X157.641 Y217.929
G1 F2400 X32.072 Y92.360 E516.4587
G0 F2400 X32.072 Y91.766
G1 F2400 X158.235 Y217.929 E521.1319
G0 F2400 X158.829 Y217.929
G1 F2400 X32.072 Y91.172 E525.8272
G0 F2400 X32.072 Y90.578
G1 F2400 X159.423 Y217.929 E530.5445
G0 F2400 X160.017 Y217.929
G1 F2400 X32.072 Y89.984 E535.2838
G0 F2400 X32.072 Y89.391
G1 F2400 X160.611 Y217.929 E540.0451
G0 F2400 X161.205 Y217.929
G1 F2400 X32.072 Y88.797 E544.8283
G0 F2400 X32.072 Y88.203
G1 F2400 X161.799 Y217.929 E549.6336
G0 F2400 X162.393 Y217.929
G1 F2400 X32.072 Y87.609 E554.4609
G0 F2400 X32.072 Y87.015
G1 F2400 X162.987 Y217.929 E559.3102
G0 F2400 X163.529 Y217.877
G1 F2400 X32.117 Y86.465 E564.1779
G0 F2400 X32.414 Y86.168
G1 F2400 X163.826 Y217.580 E569.0456
G0 F2400 X164.123 Y217.283
G1 F2400 X32.711 Y85.871 E573.9133
G0 F2400 X33.008 Y85.574
G1 F2400 X164.420 Y216.986 E578.7810
G0 F2400 X164.716 Y216.689
G1 F2400 X33.305 Y85.277 E583.6487
G0 F2400 X33.602 Y84.980
G1 F2400 X165.013 Y216.392 E588.5164
G0 F2400 X165.310 Y216.095
G1 F2400 X33.899 Y84.683 E593.3841
G0 F2400 X34.196 Y84.386
G1 F2400 X165.607 Y215.798 E598.2518
G0 F2400 X165.904 Y215.501
G1 F2400 X34.493 Y84.089 E603.1194
G0 F2400 X34.790 Y83.792
G1 F2400 X166.201 Y215.204 E607.9871
G0 F2400 X166.498 Y214.907
G1 F2400 X35.087 Y83.495 E612.8548
G0 F2400 X35.384 Y83.198
G1 F2400 X166.795 Y214.610 E617.7225
G0 F2400 X167.092 Y214.313
G1 F2400 X35.681 Y82.901 E622.5902
G0 F2400 X35.978 Y82.604
G1 F2400 X167.389 Y214.016 E627.4579
G0 F2400 X167.686 Y213.719
G1 F2400 X36.275 Y82.307 E632.3256
G0 F2400 X36.572 Y82.010
G1 F2400 X167.983 Y213.422 E637.1933
G0 F2400 X168.280 Y213.125
G1 F2400 X36.869 Y81.713 E642.0610
G0 F2400 X37.166 Y81.416
G1 F2400 X168.577 Y212.828 E646.9287
G0 F2400 X168.874 Y212.531
G1 F2400 X37.463 Y81.119 E651.7963
G0 F2400 X37.760 Y80.823
G1 F2400 X169.171 Y212.234 E656.6640
G0 F2400 X169.468 Y211.937
G1 F2400 X38.057 Y80.526 E661.5317
G0 F2400 X38.354 Y80.229
G1 F2400 X169.765 Y211.640 E666.3994
G0 F2400 X170.062 Y211.343
G1 F2400 X38.651 Y79.932 E671.2670
G0 F2400 X38.948 Y79.635
G1 F2400 X170.359 Y211.046 E676.1347
G0 F2400 X170.656 Y210.749
G1 F2400 X39.245 Y79.338 E681.0024
G0 F2400 X39.542 Y79.041
G1 F2400 X170.953 Y210.452 E685.8700
G0 F2400 X171.250 Y210.155
G1 F2400 X39.839 Y78.744 E690.7377
G0 F2400 X40.136 Y78.447
G1 F2400 X171.547 Y209.858 E695.6054
G0 F2400 X171.844 Y209.561
G1 F2400 X40.433 Y78.150 E700.4731
G0 F2400 X40.730 Y77.853
G1 F2400 X172.141 Y209.264 E705.3407
G0 F2400 X172.438 Y208.967
G1 F2400 X41.027 Y77.556 E710.2084
G0 F2400 X41.324 Y77.259
G1 F2400 X172.735 Y208.670 E715.0761
G0 F2400 X173.032 Y208.373
G1 F2400 X41.621 Y76.962 E719.9438
G0 F2400 X41.918 Y76.665
G1 F2400 X173.329 Y208.076 E724.8114
G0 F2400 X173.626 Y207.779
G1 F2400 X42.215 Y76.368 E729.6791
G0 F2400 X42.512 Y76.071
G1 F2400 X173.923 Y207.482 E734.5468
G0 F2400 X174.220 Y207.185
G1 F2400 X42.809 Y75.774 E739.4144
G0 F2400 X43.107 Y75.478
G1 F2400 X174.517 Y206.888 E744.2821
G0 F2400 X174.814 Y206.591
G1 F2400 X43.404 Y75.181 E749.1497
G0 F2400 X43.701 Y74.884
G1 F2400 X175.111 Y206.294 E754.0173
G0 F2400 X175.408 Y205.997
G1 F2400 X43.998 Y74.587 E758.8850
G0 F2400 X44.295 Y74.290
G1 F2400 X175.705 Y205.700 E763.7526
G0 F2400 X176.002 Y205.403
G1 F2400 X44.592 Y73.993 E768.6202
G0 F2400 X44.889 Y73.696
G1 F2400 X176.299 Y205.106 E773.4879
G0 F2400 X176.596 Y204.809
G1 F2400 X45.186 Y73.399 E778.3555
G0 F2400 X45.483 Y73.102
G1 F2400 X176.893 Y204.512 E783.2232
G0 F2400 X177.191 Y204.216
G1 F2400 X45.780 Y72.805 E788.0908
G0 F2400 X46.077 Y72.508
G1 F2400 X177.488 Y203.919 E792.9585
G0 F2400 X177.785 Y203.622
G1 F2400 X46.374 Y72.211 E797.8262
G0 F2400 X46.671 Y71.914
