;Sliced by ideaMaker 5.2.4.8581, 2025-07-09 12:52:31 UTC+0200
;Slicer Version: 5.2.3.8580
;Dimension: 250.000 250.000 250.000 0.400
;Plate Shape: 0
;Origin Center: 0
;Extruder Offset #1: 25.000 0.000
;Filament Diameter #1: 1.750
;Filament Diameter #2: 1.750
;Filament Compensation #1: 94.000
;Filament Compensation #2: 90.000
;Filament Density #1: 1240.000
;Filament Density #2: 1240.000
;Filament Type #1: PLA
;Filament Type #2: PLA
;Filament Name #1: [Raise3D] Premium PLA 1.75mm
;Filament Name #2: [Raise3D] Premium PLA 1.75mm
;Filament #1: PLA 1.75mm
;Filament #2: PLA 1.75mm
;Printer Type: floppy
;Firmware: Klipper
;Bounding Box: 78.415 171.688 67.086 182.895 0.000 50.100
;Model Gap: 0.000
M221 T0 S94.00
M140 S50.00
M104 T0 S190.00
M109 T0 S190.00
T0
M190 S50.00
G21 ;metric values
G90 ;absolute positioning
M82 ;set extruder to absolute mode
M107 ;start with the fan off
G28 X0 Y0 ;move X/Y to min endstops
G28 Z0 ;move Z to min endstops
G1 Z15.0 F9000 ;move the platform down 15mm
G92 E0 ;zero the extruded length
G0 X43 Y27 F2000  ;go to the edge of the bed
G92 X0 Y0 E0 ;set zero to edge of the bed
G0 F9000 Z1 ;Z up with 1mm
G1 F200 Z0 ;Z home slowly
G1 Z15.0 F9000 ;move the platform down 15mm
G1 F9000 ;speed setting
G92 E-3 ;retraction
M117 Printing...
M1001
;TOTAL_NUM: 1
;PRINTING_TIME: 0
;REMAINING_TIME: 9254
;LAYER:0
;Z:0.300
;HEIGHT:0.300
;PRINTING: NON-OBJECT
;PRINTING_ID: -1
G1 F2400 E-3.0000
G0 F3900 X80.229 Y68.418
G0 F300 Z0.300
;TYPE:SKIRT
;WIDTH:0.420
G1 F1500 E0.0000
G1 F900 X81.292 Y67.665 E0.0682
G1 X83.328 Y67.086 E0.1791
G1 X167.461 Y67.118 E4.5864
G1 X169.683 Y68.008 E4.7118
G1 X170.704 Y69.017 E4.7870
G1 X171.248 Y70.153 E4.8530
G1 X171.688 Y72.342 E4.9699
G1 X171.488 Y74.363 E5.0763
G1 X170.255 Y76.915 E5.2248
G1 X168.203 Y78.992 E5.3777
G1 X164.725 Y81.057 E5.5896
G1 X153.244 Y86.123 E6.2470
G1 X147.968 Y89.054 E6.5632
G1 X144.239 Y91.601 E6.7997
G1 X141.907 Y93.438 E6.9552
G1 X139.699 Y95.388 E7.1096
G1 X136.555 Y98.571 E7.3439
G1 X134.538 Y100.900 E7.5053
G1 X131.864 Y104.417 E7.7368
G1 X129.378 Y108.242 E7.9757
G1 X127.166 Y112.226 E8.2144
G1 X125.258 Y116.304 E8.4503
G1 X124.163 Y119.051 E8.6052
G1 X122.928 Y122.803 E8.8121
G1 X122.119 Y126.152 E8.9926
G1 X121.648 Y130.228 E9.2076
G1 X121.930 Y133.245 E9.3663
G1 X122.702 Y135.012 E9.4673
G1 X123.776 Y136.003 E9.5439
G1 X125.880 Y136.748 E9.6608
G1 X127.423 Y136.888 E9.7419
G1 X129.770 Y136.803 E9.8650
G1 X132.665 Y136.364 E10.0184
G1 X136.103 Y135.182 E10.2088
G1 X139.723 Y134.664 E10.4004
G1 X143.040 Y135.089 E10.5755
G1 X144.752 Y135.842 E10.6735
G1 X146.494 Y137.187 E10.7888
G1 X147.769 Y138.954 E10.9030
G1 X148.640 Y141.332 E11.0356
G1 X151.815 Y146.647 E11.3599
G1 X153.585 Y150.584 E11.5861
G1 X154.124 Y152.973 E11.7144
G1 X154.185 Y154.936 E11.8172
G1 X153.828 Y157.059 E11.9300
G1 X153.019 Y159.125 E12.0462
G1 X151.951 Y160.409 E12.1337
G1 X150.397 Y161.350 E12.2289
G1 X148.894 Y161.644 E12.3091
G1 X147.283 Y161.439 E12.3942
G1 X145.765 Y160.663 E12.4835
G1 X144.710 Y159.543 E12.5641
G1 X143.576 Y156.784 E12.7204
G1 X142.749 Y155.746 E12.7899
G1 X141.765 Y155.275 E12.8470
G1 X140.665 Y155.257 E12.9047
G1 X140.210 Y155.402 E12.9297
G1 X129.888 Y162.854 E13.5966
G1 X125.158 Y166.914 E13.9231
G1 X122.148 Y170.388 E14.1639
G1 X121.068 Y172.006 E14.2658
G1 X117.666 Y177.946 E14.6244
G1 X114.765 Y181.112 E14.8494
G1 X112.245 Y182.420 E14.9981
G1 X109.489 Y182.895 E15.1446
G1 X106.346 Y182.491 E15.3106
G1 X103.799 Y181.461 E15.4545
G1 X100.693 Y179.197 E15.6558
G1 X99.362 Y177.724 E15.7598
G1 X98.211 Y175.988 E15.8690
G1 X96.802 Y172.351 E16.0733
G1 X96.430 Y168.529 E16.2744
G1 X96.764 Y165.638 E16.4269
G1 X97.508 Y163.019 E16.5695
G1 X98.574 Y160.583 E16.7088
G1 X100.878 Y156.640 E16.9480
G1 X101.713 Y154.835 E17.0522
G1 X102.353 Y152.981 E17.1550
G1 X102.996 Y149.931 E17.3183
G1 X103.161 Y147.964 E17.4217
G1 X103.123 Y146.011 E17.5240
G1 X101.820 Y137.423 E17.9790
G1 X101.613 Y134.549 E18.1300
G1 X101.598 Y130.370 E18.3489
G1 X101.860 Y126.288 E18.5631
G1 X102.343 Y122.246 E18.7764
G1 X104.415 Y110.209 E19.4162
G1 X105.206 Y104.208 E19.7333
G1 X105.335 Y99.358 E19.9875
G1 X104.888 Y95.784 E20.1761
G1 X104.187 Y93.417 E20.3055
G1 X103.586 Y92.108 E20.3809
G1 X102.282 Y90.140 E20.5046
G1 X101.311 Y89.082 E20.5798
G1 X99.449 Y87.558 E20.7058
G1 X96.401 Y85.776 E20.8908
G1 X93.102 Y84.355 E21.0790
G1 X85.128 Y81.408 E21.5243
G1 X81.013 Y78.993 E21.7742
G1 X79.328 Y77.060 E21.9086
G1 X78.415 Y74.615 E22.0453
G1 X78.518 Y71.821 E22.1918
G1 X79.454 Y69.416 E22.3269
G1 X80.229 Y68.418 E22.3931
G0 F3900 X80.557 Y68.680
G1 F900 X81.530 Y68.011 E22.4550
G1 X83.328 Y67.506 E22.5528
G1 X167.461 Y67.538 E26.9601
G1 X169.393 Y68.312 E27.0691
G1 X170.327 Y69.203 E27.1368
G1 X170.836 Y70.236 E27.1971
G1 X171.276 Y72.425 E27.3140
G1 X171.070 Y74.318 E27.4138
G1 X169.955 Y76.621 E27.5478
G1 X167.989 Y78.631 E27.6951
G1 X164.511 Y80.696 E27.9070
G1 X153.054 Y85.748 E28.5629
G1 X147.744 Y88.698 E28.8811
G1 X143.991 Y91.261 E29.1192
G1 X141.638 Y93.115 E29.2761
G1 X139.411 Y95.082 E29.4318
G1 X136.242 Y98.290 E29.6680
G1 X134.220 Y100.625 E29.8298
G1 X131.518 Y104.179 E30.0637
G1 X129.018 Y108.025 E30.3040
G1 X126.794 Y112.032 E30.5441
G1 X124.872 Y116.138 E30.7815
G1 X123.767 Y118.912 E30.9380
G1 X122.524 Y122.686 E31.1461
G1 X121.705 Y126.078 E31.3289
G1 X121.226 Y130.224 E31.5475
G1 X121.518 Y133.352 E31.7121
G1 X122.353 Y135.262 E31.8213
G1 X123.543 Y136.360 E31.9061
G1 X124.996 Y136.981 E31.9889
G1 X125.811 Y137.163 E32.0326
G1 X127.416 Y137.309 E32.1171
G1 X129.805 Y137.222 E32.2423
G1 X132.767 Y136.773 E32.3992
G1 X136.240 Y135.579 E32.5916
G1 X139.672 Y135.081 E32.7733
G1 X142.874 Y135.475 E32.9423
G1 X144.498 Y136.176 E33.0350
G1 X146.153 Y137.433 E33.1438
G1 X147.428 Y139.200 E33.2580
G1 X148.259 Y141.514 E33.3868
G1 X151.454 Y146.862 E33.7131
G1 X153.202 Y150.756 E33.9367
G1 X153.714 Y153.064 E34.0605
G1 X153.765 Y154.947 E34.1592
G1 X153.414 Y156.988 E34.2677
G1 X152.629 Y158.970 E34.3794
G1 X151.632 Y160.136 E34.4597
G1 X150.184 Y160.988 E34.5478
G1 X148.821 Y161.230 E34.6203
G1 X147.341 Y161.023 E34.6986
G1 X145.962 Y160.292 E34.7803
G1 X145.020 Y159.260 E34.8535
G1 X143.943 Y156.571 E35.0053
G1 X143.017 Y155.409 E35.0831
G1 X141.864 Y154.857 E35.1501
G1 X140.603 Y154.836 E35.2161
G1 X140.017 Y155.023 E35.2483
G1 X129.627 Y162.524 E35.9196
G1 X124.865 Y166.611 E36.2484
G1 X121.814 Y170.133 E36.4925
G1 X120.710 Y171.786 E36.5966
G1 X117.302 Y177.737 E36.9558
G1 X114.569 Y180.741 E37.1686
G1 X112.174 Y182.006 E37.3105
G1 X109.418 Y182.481 E37.4570
G1 X106.402 Y182.075 E37.6164
G1 X103.958 Y181.072 E37.7548
G1 X100.941 Y178.858 E37.9508
G1 X99.675 Y177.444 E38.0502
G1 X98.561 Y175.757 E38.1561
G1 X97.220 Y172.310 E38.3499
G1 X96.848 Y168.488 E38.5511
G1 X97.181 Y165.688 E38.6988
G1 X97.912 Y163.135 E38.8379
G1 X98.959 Y160.752 E38.9742
G1 X101.247 Y156.841 E39.2116
G1 X102.104 Y154.989 E39.3185
G1 X102.759 Y153.092 E39.4236
G1 X103.413 Y149.989 E39.5897
G1 X103.581 Y147.981 E39.6953
G1 X103.543 Y145.978 E39.8002
G1 X102.235 Y137.360 E40.2569
G1 X102.032 Y134.519 E40.4061
G1 X102.018 Y130.369 E40.6235
G1 X102.279 Y126.315 E40.8363
G1 X102.760 Y122.296 E41.0483
G1 X104.829 Y110.280 E41.6870
G1 X105.626 Y104.236 E42.0064
G1 X105.756 Y99.337 E42.2631
G1 X105.301 Y95.698 E42.4552
G1 X104.581 Y93.269 E42.5879
G1 X103.955 Y91.905 E42.6665
G1 X102.615 Y89.882 E42.7937
G1 X101.599 Y88.775 E42.8724
G1 X99.688 Y87.210 E43.0018
G1 X96.592 Y85.401 E43.1896
G1 X93.258 Y83.965 E43.3798
G1 X85.274 Y81.014 E43.8257
G1 X81.326 Y78.713 E44.0650
G1 X79.721 Y76.913 E44.1914
G1 X78.808 Y74.468 E44.3281
G1 X78.937 Y71.842 E44.4658
G1 X79.844 Y69.572 E44.5939
G1 X80.557 Y68.680 E44.6537
G0 F3900 X80.881 Y68.948
G1 F900 X81.763 Y68.360 E44.7092
G1 X83.328 Y67.926 E44.7943
G1 X167.461 Y67.958 E49.2016
G1 X169.103 Y68.616 E49.2942
G1 X170.037 Y69.507 E49.3619
G1 X170.455 Y70.412 E49.4141
G1 X170.864 Y72.506 E49.5259
G1 X170.653 Y74.268 E49.6188
G1 X169.653 Y76.329 E49.7388
G1 X167.775 Y78.270 E49.8803
G1 X164.297 Y80.335 E50.0922
G1 X152.864 Y85.373 E50.7467
G1 X147.520 Y88.342 E51.0669
G1 X143.743 Y90.921 E51.3065
G1 X141.369 Y92.792 E51.4648
G1 X139.123 Y94.776 E51.6218
G1 X135.929 Y98.009 E51.8599
G1 X133.902 Y100.350 E52.0221
G1 X131.172 Y103.941 E52.2584
G1 X128.658 Y107.808 E52.5000
G1 X126.422 Y111.838 E52.7415
G1 X124.486 Y115.972 E52.9806
G1 X123.371 Y118.773 E53.1385
G1 X122.120 Y122.569 E53.3479
G1 X121.291 Y126.004 E53.5330
G1 X120.805 Y130.212 E53.7549
G1 X120.881 Y132.134 E53.8557
G1 X121.109 Y133.451 E53.9257
G1 X121.487 Y134.582 E53.9881
G1 X122.020 Y135.527 E54.0450
G1 X123.310 Y136.717 E54.1369
G1 X124.869 Y137.383 E54.2257
G1 X125.742 Y137.578 E54.2726
G1 X127.409 Y137.730 E54.3603
G1 X129.840 Y137.641 E54.4877
G1 X132.869 Y137.182 E54.6482
G1 X136.377 Y135.976 E54.8425
G1 X139.623 Y135.498 E55.0144
G1 X142.710 Y135.862 E55.1772
G1 X144.247 Y136.513 E55.2647
G1 X145.814 Y137.681 E55.3670
G1 X147.033 Y139.342 E55.4750
G1 X147.879 Y141.696 E55.6060
G1 X151.093 Y147.077 E55.9343
G1 X152.819 Y150.928 E56.1554
G1 X153.304 Y153.153 E56.2747
G1 X153.345 Y154.957 E56.3692
G1 X153.000 Y156.915 E56.4734
G1 X152.239 Y158.814 E56.5805
G1 X151.419 Y159.774 E56.6467
G1 X149.971 Y160.626 E56.7347
G1 X148.756 Y160.815 E56.7991
G1 X147.405 Y160.608 E56.8707
G1 X146.165 Y159.924 E56.9449
G1 X145.335 Y158.982 E57.0107
G1 X144.310 Y156.357 E57.1583
G1 X143.287 Y155.072 E57.2443
G1 X141.962 Y154.439 E57.3212
G1 X140.541 Y154.415 E57.3957
G1 X139.824 Y154.644 E57.4351
G1 X129.366 Y162.194 E58.1108
G1 X124.572 Y166.308 E58.4417
G1 X121.480 Y169.878 E58.6891
G1 X120.352 Y171.566 E58.7955
G1 X116.938 Y177.528 E59.1554
G1 X114.370 Y180.371 E59.3561
G1 X112.100 Y181.593 E59.4911
G1 X109.472 Y182.064 E59.6310
G1 X106.561 Y181.686 E59.7848
G1 X104.117 Y180.683 E59.9231
G1 X101.191 Y178.520 E60.1138
G1 X99.989 Y177.165 E60.2086
G1 X98.912 Y175.526 E60.3114
G1 X97.638 Y172.269 E60.4946
G1 X97.266 Y168.447 E60.6957
G1 X97.598 Y165.739 E60.8387
G1 X98.316 Y163.251 E60.9743
G1 X99.343 Y160.921 E61.1077
G1 X101.620 Y157.034 E61.3437
G1 X102.495 Y155.143 E61.4528
G1 X103.165 Y153.203 E61.5604
G1 X103.830 Y150.047 E61.7293
G1 X104.001 Y147.998 E61.8370
G1 X103.963 Y145.945 E61.9446
G1 X102.650 Y137.297 E62.4028
G1 X102.451 Y134.489 E62.5503
G1 X102.438 Y130.368 E62.7661
G1 X102.698 Y126.342 E62.9775
G1 X103.177 Y122.346 E63.1883
G1 X105.243 Y110.351 E63.8259
G1 X106.046 Y104.264 E64.1475
G1 X106.177 Y99.316 E64.4068
G1 X105.714 Y95.612 E64.6024
G1 X104.975 Y93.121 E64.7385
G1 X104.324 Y91.702 E64.8203
G1 X102.945 Y89.620 E64.9511
G1 X101.891 Y88.471 E65.0328
G1 X99.927 Y86.862 E65.1658
G1 X96.783 Y85.026 E65.3565
G1 X93.414 Y83.575 E65.5487
G1 X85.420 Y80.620 E65.9951
G1 X81.636 Y78.430 E66.2241
G1 X80.114 Y76.766 E66.3423
G1 X79.201 Y74.321 E66.4790
G1 X79.356 Y71.868 E66.6077
G1 X80.233 Y69.732 E66.7287
G1 X80.881 Y68.948 E66.7820
G0 F3900 X81.199 Y69.222
G1 F900 X81.990 Y68.713 E66.8313
G1 X83.328 Y68.346 E66.9039
G1 X167.461 Y68.378 E71.3112
G1 X168.813 Y68.920 E71.3875
G1 X169.747 Y69.811 E71.4551
G1 X170.068 Y70.575 E71.4986
G1 X170.451 Y72.585 E71.6057
G1 X170.237 Y74.213 E71.6918
G1 X169.350 Y76.039 E71.7981
G1 X167.561 Y77.909 E71.9337
G1 X164.083 Y79.974 E72.1456
G1 X152.674 Y84.998 E72.7986
G1 X147.296 Y87.986 E73.1209
G1 X143.495 Y90.581 E73.3620
G1 X141.100 Y92.469 E73.5217
G1 X138.835 Y94.470 E73.6801
G1 X135.616 Y97.728 E73.9200
G1 X133.584 Y100.075 E74.0826
G1 X130.826 Y103.703 E74.3213
G1 X128.298 Y107.591 E74.5643
G1 X126.050 Y111.644 E74.8071
G1 X124.100 Y115.806 E75.0478
G1 X122.975 Y118.634 E75.2073
G1 X121.717 Y122.450 E75.4178
G1 X120.877 Y125.932 E75.6054
G1 X120.384 Y130.200 E75.8305
G1 X120.462 Y132.176 E75.9340
G1 X120.700 Y133.554 E76.0073
G1 X121.102 Y134.753 E76.0735
G1 X121.687 Y135.792 E76.1360
G1 X123.077 Y137.074 E76.2351
G1 X124.741 Y137.785 E76.3299
G1 X125.675 Y137.993 E76.3800
G1 X127.402 Y138.151 E76.4708
G1 X129.875 Y138.060 E76.6005
G1 X132.971 Y137.591 E76.7645
G1 X136.514 Y136.373 E76.9608
G1 X139.576 Y135.915 E77.1229
G1 X142.546 Y136.249 E77.2795
G1 X144.083 Y136.900 E77.3669
G1 X145.478 Y137.932 E77.4578
G1 X146.638 Y139.484 E77.5593
G1 X147.498 Y141.878 E77.6926
G1 X150.732 Y147.292 E78.0230
G1 X152.436 Y151.100 E78.2415
G1 X152.893 Y153.241 E78.3562
G1 X152.925 Y154.965 E78.4465
G1 X152.587 Y156.841 E78.5464
G1 X151.850 Y158.656 E78.6490
G1 X151.200 Y159.416 E78.7014
G1 X149.899 Y160.212 E78.7813
G1 X148.820 Y160.400 E78.8386
G1 X147.469 Y160.193 E78.9102
G1 X146.375 Y159.560 E78.9764
G1 X145.656 Y158.711 E79.0347
G1 X144.679 Y156.145 E79.1786
G1 X143.573 Y154.756 E79.2716
G1 X142.845 Y154.297 E79.3167
G1 X142.034 Y154.020 E79.3616
G1 X140.479 Y153.994 E79.4430
G1 X139.631 Y154.265 E79.4897
G1 X129.105 Y161.864 E80.1697
G1 X124.287 Y165.999 E80.5023
G1 X122.408 Y168.016 E80.6467
G1 X121.139 Y169.633 E80.7544
G1 X119.994 Y171.346 E80.8623
G1 X116.574 Y177.319 E81.2229
G1 X114.171 Y180.001 E81.4115
G1 X111.901 Y181.223 E81.5466
G1 X109.526 Y181.647 E81.6730
G1 X106.615 Y181.269 E81.8267
G1 X104.367 Y180.345 E81.9541
G1 X101.441 Y178.182 E82.1447
G1 X100.305 Y176.888 E82.2349
G1 X99.264 Y175.296 E82.3345
G1 X98.030 Y172.117 E82.5132
G1 X97.684 Y168.408 E82.7083
G1 X98.015 Y165.792 E82.8464
G1 X98.719 Y163.368 E82.9787
G1 X99.727 Y161.091 E83.1091
G1 X101.991 Y157.232 E83.3435
G1 X102.886 Y155.297 E83.4552
G1 X103.571 Y153.314 E83.5651
G1 X104.247 Y150.105 E83.7368
G1 X104.421 Y148.015 E83.8467
G1 X104.383 Y145.912 E83.9569
G1 X103.065 Y137.234 E84.4167
G1 X102.870 Y134.460 E84.5624
G1 X102.858 Y130.367 E84.7768
G1 X103.117 Y126.369 E84.9867
G1 X103.594 Y122.396 E85.1963
G1 X105.657 Y110.422 E85.8328
G1 X106.466 Y104.292 E86.1567
G1 X106.598 Y99.295 E86.4185
G1 X106.127 Y95.524 E86.6176
G1 X105.370 Y92.975 E86.7569
G1 X104.693 Y91.499 E86.8420
G1 X103.275 Y89.358 E86.9765
G1 X102.183 Y88.167 E87.0611
G1 X100.166 Y86.514 E87.1978
G1 X96.974 Y84.651 E87.3914
G1 X93.570 Y83.185 E87.5855
G1 X85.566 Y80.226 E88.0325
G1 X81.942 Y78.142 E88.2515
G1 X80.505 Y76.613 E88.3614
G1 X79.620 Y74.344 E88.4890
G1 X79.745 Y72.028 E88.6105
G1 X80.622 Y69.892 E88.7315
G1 X81.199 Y69.222 E88.7778
G0 F3900 X81.510 Y69.504
G1 F900 X82.211 Y69.070 E88.8210
G1 X83.328 Y68.766 E88.8816
G1 X167.461 Y68.798 E93.2889
G1 X168.533 Y69.233 E93.3495
G1 X169.360 Y69.974 E93.4077
G1 X169.681 Y70.738 E93.4511
G1 X170.034 Y72.536 E93.5471
G1 X169.859 Y74.029 E93.6258
G1 X168.972 Y75.855 E93.7322
G1 X167.260 Y77.616 E93.8608
G1 X163.870 Y79.612 E94.0669
G1 X152.484 Y84.623 E94.7186
G1 X147.072 Y87.630 E95.0429
G1 X143.247 Y90.241 E95.2855
G1 X140.830 Y92.147 E95.4468
G1 X138.547 Y94.164 E95.6063
G1 X135.303 Y97.447 E95.8481
G1 X133.266 Y99.800 E96.0111
G1 X130.480 Y103.465 E96.2523
G1 X127.938 Y107.374 E96.4966
G1 X125.678 Y111.449 E96.7407
G1 X123.714 Y115.640 E96.9831
G1 X122.576 Y118.502 E97.1445
G1 X121.315 Y122.327 E97.3554
G1 X120.463 Y125.860 E97.5458
G1 X119.963 Y130.188 E97.7741
G1 X120.043 Y132.218 E97.8805
G1 X120.291 Y133.654 E97.9568
G1 X120.717 Y134.926 E98.0271
G1 X121.343 Y136.037 E98.0939
G1 X122.035 Y136.822 E98.1487
G1 X122.865 Y137.440 E98.2029
G1 X124.613 Y138.187 E98.3025
G1 X125.608 Y138.408 E98.3559
G1 X127.395 Y138.572 E98.4499
G1 X129.910 Y138.479 E98.5817
G1 X133.073 Y138.000 E98.7493
G1 X136.651 Y136.770 E98.9475
G1 X139.532 Y136.333 E99.1002
G1 X142.382 Y136.636 E99.2503
G1 X143.919 Y137.287 E99.3377
G1 X145.144 Y138.187 E99.4174
G1 X146.243 Y139.626 E99.5122
G1 X147.118 Y142.060 E99.6477
G1 X150.371 Y147.507 E99.9801
G1 X152.053 Y151.271 E100.1960
G1 X152.482 Y153.327 E100.3060
G1 X152.505 Y154.971 E100.3922
G1 X152.174 Y156.765 E100.4877
G1 X151.462 Y158.496 E100.5858
G1 X150.974 Y159.062 E100.6249
G1 X149.819 Y159.800 E100.6967
G1 X148.875 Y159.984 E100.7471
G1 X147.671 Y159.825 E100.8107
G1 X146.696 Y159.289 E100.8690
G1 X145.977 Y158.440 E100.9273
G1 X145.061 Y155.966 E101.0655
G1 X144.740 Y155.398 E101.0997
G1 X143.843 Y154.430 E101.1688
G1 X143.028 Y153.916 E101.2193
G1 X142.106 Y153.601 E101.2703
G1 X140.417 Y153.573 E101.3588
