;Sliced by ideaMaker 5.2.4.8581, 2025-07-13 16:48:51 UTC+0200
;Slicer Version: 5.2.3.8580
;Dimension: 250.000 250.000 250.000 0.400
;Plate Shape: 0
;Origin Center: 0
;Extruder Offset #1: 25.000 0.000
;Filament Diameter #1: 1.750
;Filament Diameter #2: 1.750
;Filament Compensation #1: 94.000
;Filament Compensation #2: 90.000
;Filament Density #1: 1240.000
;Filament Density #2: 1240.000
;Filament Type #1: PLA
;Filament Type #2: PLA
;Filament Name #1: [Raise3D] Premium PLA 1.75mm
;Filament Name #2: [Raise3D] Premium PLA 1.75mm
;Filament #1: PLA 1.75mm
;Filament #2: PLA 1.75mm
;Printer Type: floppy
;Firmware: Klipper
;Bounding Box: 52.614 197.371 95.488 154.512 0.000 1.920
;Model Gap: 0.000
M221 T0 S94.00
M140 S50.00
M104 T0 S190.00
M109 T0 S190.00
T0
M190 S50.00
G21 ;metric values
G90 ;absolute positioning
M82 ;set extruder to absolute mode
M107 ;start with the fan off
G28 X0 Y0 ;move X/Y to min endstops
G28 Z0 ;move Z to min endstops
G1 Z15.0 F9000 ;move the platform down 15mm
G92 E0 ;zero the extruded length
G0 X43 Y27 F2000  ;go to the edge of the bed
G92 X0 Y0 E0 ;set zero to edge of the bed
G0 F9000 Z1 ;Z up with 1mm
G1 F200 Z0 ;Z home slowly
G1 Z15.0 F9000 ;move the platform down 15mm
G1 F9000 ;speed setting
G92 E-3 ;retraction
M117 Printing...
M1001
;TOTAL_NUM: 1
;PRINTING_TIME: 0
;REMAINING_TIME: 670
;LAYER:0
;Z:0.300
;HEIGHT:0.300
;PRINTING: NON-OBJECT
;PRINTING_ID: -1
G1 F2400 E-5.0000
G0 F3900 X72.033 Y101.545
G0 F300 Z0.300
;TYPE:SKIRT
;WIDTH:0.420
G1 F1500 E0.0000
G1 F900 X75.362 Y99.333 E0.2094
G1 X79.240 Y97.481 E0.4345
G1 X83.059 Y96.278 E0.6442
G1 X87.298 Y95.577 E0.8693
G1 X91.470 Y95.491 E1.0879
G1 X95.577 Y95.983 E1.3046
G1 X99.596 Y97.055 E1.5225
G1 X103.424 Y98.681 E1.7404
G1 X106.838 Y100.721 E1.9487
G1 X110.191 Y103.430 E2.1745
G1 X112.911 Y106.345 E2.3834
G1 X115.386 Y109.884 E2.6096
G1 X117.254 Y113.592 E2.8271
G1 X118.542 Y117.360 E3.0357
G1 X119.426 Y121.571 E3.2611
G1 X121.153 Y122.254 E3.3584
G1 X123.035 Y122.687 E3.4595
G1 X125.000 Y122.835 E3.5628
G1 X126.964 Y122.687 E3.6659
G1 X128.846 Y122.254 E3.7671
G1 X130.573 Y121.571 E3.8644
G1 X131.429 Y117.472 E4.0838
G1 X132.699 Y113.700 E4.2922
G1 X134.637 Y109.842 E4.5184
G1 X136.906 Y106.568 E4.7271
G1 X139.720 Y103.512 E4.9447
G1 X142.926 Y100.885 E5.1618
G1 X146.469 Y98.735 E5.3789
G1 X150.454 Y97.038 E5.6058
G1 X154.466 Y95.975 E5.8232
G1 X158.590 Y95.488 E6.0408
G1 X162.247 Y95.557 E6.2324
G1 X166.637 Y96.210 E6.4649
G1 X170.641 Y97.436 E6.6842
G1 X174.533 Y99.274 E6.9097
G1 X178.001 Y101.571 E7.1276
G1 X181.113 Y104.330 E7.3455
G1 X183.794 Y107.484 E7.5623
G1 X185.940 Y110.855 E7.7717
G1 X187.726 Y114.790 E7.9980
G1 X188.843 Y118.595 E8.2058
G1 X189.198 Y120.948 E8.3304
G1 X191.019 Y120.948 E8.4258
G1 X192.015 Y120.010 E8.4975
G1 X193.173 Y119.536 E8.5630
G1 X195.003 Y119.669 E8.6592
G1 X196.424 Y120.597 E8.7481
G1 X197.097 Y121.643 E8.8132
G1 X197.371 Y122.845 E8.8778
G1 X197.363 Y128.267 E9.1618
G1 X196.727 Y130.020 E9.2595
G1 X195.440 Y131.136 E9.3488
G1 X193.874 Y131.522 E9.4332
G1 X192.097 Y131.063 E9.5294
G1 X191.016 Y130.048 E9.6071
G1 X189.047 Y130.048 E9.7102
G1 X188.647 Y132.229 E9.8264
G1 X187.454 Y135.914 E10.0293
G1 X185.694 Y139.579 E10.2422
G1 X183.470 Y142.944 E10.4535
G1 X180.794 Y145.984 E10.6657
G1 X177.597 Y148.731 E10.8865
G1 X174.183 Y150.917 E11.0989
G1 X170.681 Y152.544 E11.3011
G1 X166.814 Y153.746 E11.5133
G1 X162.641 Y154.426 E11.7348
G1 X158.586 Y154.510 E11.9472
G1 X154.583 Y154.044 E12.1583
G1 X150.653 Y153.024 E12.3710
G1 X147.064 Y151.562 E12.5740
G1 X143.563 Y149.551 E12.7855
G1 X140.357 Y147.068 E12.9980
G1 X137.415 Y144.047 E13.2189
G1 X135.114 Y140.929 E13.4219
G1 X133.102 Y137.221 E13.6429
G1 X131.681 Y133.425 E13.8552
G1 X131.080 Y130.800 E13.9963
G1 X127.638 Y131.718 E14.1829
G1 X124.978 Y131.921 E14.3226
G1 X122.475 Y131.734 E14.4541
G1 X120.196 Y131.233 E14.5763
G1 X118.921 Y130.776 E14.6473
G1 X118.295 Y133.500 E14.7937
G1 X116.945 Y137.116 E14.9959
G1 X114.947 Y140.830 E15.2168
G1 X112.549 Y144.089 E15.4288
G1 X109.849 Y146.881 E15.6322
G1 X106.534 Y149.485 E15.8531
G1 X103.037 Y151.512 E16.0648
G1 X99.281 Y153.046 E16.2773
G1 X95.528 Y154.024 E16.4805
G1 X91.359 Y154.512 E16.7004
G1 X87.293 Y154.420 E16.9134
G1 X83.478 Y153.816 E17.1158
G1 X79.426 Y152.586 E17.3376
G1 X75.916 Y150.971 E17.5400
G1 X72.354 Y148.695 E17.7614
G1 X69.287 Y146.065 E17.9731
G1 X66.600 Y143.037 E18.1851
G1 X64.361 Y139.680 E18.3965
G1 X62.587 Y136.019 E18.6096
G1 X61.380 Y132.337 E18.8126
G1 X60.953 Y130.048 E18.9346
G1 X58.988 Y130.048 E19.0375
G1 X58.641 Y130.519 E19.0682
G1 X57.887 Y131.068 E19.1170
G1 X55.832 Y131.500 E19.2270
G1 X54.059 Y130.834 E19.3263
G1 X52.761 Y128.995 E19.4442
G1 X52.614 Y123.037 E19.7564
G1 X52.874 Y121.760 E19.8246
G1 X53.486 Y120.735 E19.8872
G1 X54.899 Y119.721 E19.9783
G1 X56.527 Y119.488 E20.0644
G1 X58.271 Y120.224 E20.1636
G1 X58.934 Y120.948 E20.2150
G1 X60.801 Y120.948 E20.3128
G1 X61.132 Y118.709 E20.4314
G1 X62.233 Y114.901 E20.6390
G1 X63.931 Y111.094 E20.8574
G1 X66.135 Y107.579 E21.0747
G1 X68.802 Y104.416 E21.2915
G1 X72.033 Y101.545 E21.5179
G0 F3900 X72.312 Y101.859
G1 F900 X75.594 Y99.683 E21.7242
G1 X79.421 Y97.860 E21.9462
G1 X83.185 Y96.679 E22.1529
G1 X87.366 Y95.991 E22.3749
G1 X91.478 Y95.911 E22.5903
G1 X95.527 Y96.400 E22.8040
G1 X99.487 Y97.461 E23.0187
G1 X103.260 Y99.067 E23.2335
G1 X106.622 Y101.081 E23.4388
G1 X109.927 Y103.756 E23.6616
G1 X112.604 Y106.631 E23.8673
G1 X115.042 Y110.124 E24.0905
G1 X116.879 Y113.781 E24.3049
G1 X118.144 Y117.495 E24.5104
G1 X118.927 Y121.556 E24.7271
G1 X119.139 Y121.910 E24.7487
G1 X121.024 Y122.655 E24.8548
G1 X122.975 Y123.104 E24.9597
G1 X125.000 Y123.256 E25.0661
G1 X127.024 Y123.104 E25.1724
G1 X128.975 Y122.655 E25.2773
G1 X130.860 Y121.910 E25.3835
G1 X131.072 Y121.556 E25.4051
G1 X131.841 Y117.551 E25.6187
G1 X133.097 Y113.834 E25.8243
G1 X135.012 Y110.031 E26.0473
G1 X137.251 Y106.808 E26.2529
G1 X140.029 Y103.797 E26.4675
G1 X143.192 Y101.210 E26.6815
G1 X146.687 Y99.094 E26.8956
G1 X150.618 Y97.425 E27.1193
G1 X154.573 Y96.381 E27.3336
G1 X158.639 Y95.905 E27.5480
G1 X162.239 Y95.977 E27.7366
G1 X166.575 Y96.625 E27.9663
G1 X170.518 Y97.837 E28.1824
G1 X174.353 Y99.654 E28.4047
G1 X177.769 Y101.921 E28.6195
G1 X180.834 Y104.644 E28.8342
G1 X183.474 Y107.756 E29.0480
G1 X185.586 Y111.080 E29.2543
G1 X187.343 Y114.963 E29.4776
G1 X188.440 Y118.713 E29.6822
G1 X188.836 Y121.368 E29.8229
G1 X191.191 Y121.368 E29.9462
G1 X192.174 Y120.399 E30.0185
G1 X193.332 Y119.925 E30.0841
G1 X194.961 Y120.087 E30.1698
G1 X196.071 Y120.824 E30.2396
G1 X196.744 Y121.870 E30.3048
G1 X196.959 Y122.929 E30.3614
G1 X196.943 Y128.266 E30.6410
G1 X196.442 Y129.711 E30.7211
G1 X195.339 Y130.728 E30.7997
G1 X193.773 Y131.114 E30.8842
G1 X192.214 Y130.660 E30.9692
G1 X191.191 Y129.628 E31.0454
G1 X188.697 Y129.628 E31.1760
G1 X188.234 Y132.153 E31.3105
G1 X187.055 Y135.784 E31.5105
G1 X185.316 Y139.397 E31.7205
G1 X183.120 Y142.712 E31.9288
G1 X180.479 Y145.706 E32.1380
G1 X177.324 Y148.412 E32.3557
G1 X173.957 Y150.563 E32.5650
G1 X170.504 Y152.163 E32.7644
G1 X166.690 Y153.345 E32.9735
G1 X162.574 Y154.011 E33.1919
G1 X158.578 Y154.090 E33.4013
G1 X154.632 Y153.627 E33.6094
G1 X150.759 Y152.618 E33.8191
G1 X147.223 Y151.173 E34.0192
G1 X143.773 Y149.187 E34.2277
G1 X140.614 Y146.736 E34.4372
G1 X137.716 Y143.754 E34.6550
G1 X135.452 Y140.680 E34.8550
G1 X133.471 Y137.021 E35.0730
G1 X132.074 Y133.278 E35.2823
G1 X131.386 Y130.252 E35.4448
G1 X129.749 Y130.812 E35.5355
G1 X127.546 Y131.308 E35.6537
G1 X124.947 Y131.502 E35.7903
G1 X122.507 Y131.315 E35.9185
G1 X120.287 Y130.823 E36.0376
G1 X118.618 Y130.220 E36.1305
G1 X117.886 Y133.406 E36.3018
G1 X116.552 Y136.969 E36.5011
G1 X114.577 Y140.631 E36.7190
G1 X112.211 Y143.840 E36.9279
G1 X109.547 Y146.589 E37.1284
G1 X106.275 Y149.154 E37.3462
G1 X102.827 Y151.148 E37.5549
G1 X99.123 Y152.657 E37.7644
G1 X95.423 Y153.617 E37.9646
G1 X91.311 Y154.095 E38.1815
G1 X87.303 Y154.000 E38.3915
G1 X83.544 Y153.401 E38.5909
G1 X79.548 Y152.184 E38.8097
G1 X76.092 Y150.590 E39.0091
G1 X72.580 Y148.341 E39.2276
G1 X69.561 Y145.746 E39.4361
G1 X66.914 Y142.758 E39.6452
G1 X64.711 Y139.447 E39.8535
G1 X62.965 Y135.836 E40.0637
G1 X61.779 Y132.207 E40.2637
G1 X61.302 Y129.628 E40.4010
G1 X58.765 Y129.628 E40.5339
G1 X58.394 Y130.179 E40.5687
G1 X57.640 Y130.728 E40.6176
G1 X55.973 Y131.104 E40.7071
G1 X54.340 Y130.522 E40.7979
G1 X53.170 Y128.898 E40.9028
G1 X53.034 Y123.027 E41.2104
G1 X53.285 Y121.847 E41.2736
G1 X53.741 Y121.069 E41.3209
G1 X54.959 Y120.137 E41.4012
G1 X56.587 Y119.904 E41.4874
G1 X58.094 Y120.605 E41.5744
G1 X58.739 Y121.368 E41.6268
G1 X61.163 Y121.368 E41.7537
G1 X61.547 Y118.770 E41.8913
G1 X62.636 Y115.018 E42.0960
G1 X64.314 Y111.265 E42.3113
G1 X66.491 Y107.803 E42.5256
G1 X69.123 Y104.687 E42.7392
G1 X72.312 Y101.859 E42.9625
G0 F3900 X72.590 Y102.174
G1 F900 X75.826 Y100.033 E43.1658
G1 X79.601 Y98.239 E43.3847
G1 X83.310 Y97.080 E43.5883
G1 X87.434 Y96.405 E43.8072
G1 X91.486 Y96.331 E44.0195
G1 X95.476 Y96.817 E44.2300
G1 X99.378 Y97.867 E44.4417
G1 X103.095 Y99.453 E44.6534
G1 X106.406 Y101.441 E44.8557
G1 X109.662 Y104.082 E45.0753
G1 X112.296 Y106.917 E45.2781
G1 X114.697 Y110.364 E45.4981
G1 X116.504 Y113.969 E45.7094
G1 X117.746 Y117.630 E45.9119
G1 X118.529 Y121.709 E46.1295
G1 X118.853 Y122.249 E46.1624
G1 X120.895 Y123.056 E46.2775
G1 X122.915 Y123.521 E46.3860
G1 X125.000 Y123.677 E46.4956
G1 X127.084 Y123.521 E46.6051
G1 X129.104 Y123.056 E46.7136
G1 X131.146 Y122.249 E46.8287
G1 X131.470 Y121.709 E46.8616
G1 X132.253 Y117.630 E47.0792
G1 X133.495 Y113.969 E47.2817
G1 X135.387 Y110.220 E47.5017
G1 X137.596 Y107.048 E47.7042
G1 X140.337 Y104.082 E47.9158
G1 X143.458 Y101.535 E48.1268
G1 X146.904 Y99.453 E48.3377
G1 X150.782 Y97.812 E48.5583
G1 X154.680 Y96.787 E48.7694
G1 X158.687 Y96.322 E48.9807
G1 X162.230 Y96.397 E49.1664
G1 X166.513 Y97.040 E49.3933
G1 X170.394 Y98.238 E49.6060
G1 X174.173 Y100.033 E49.8252
G1 X177.536 Y102.271 E50.0368
G1 X180.555 Y104.958 E50.2485
G1 X183.153 Y108.027 E50.4592
G1 X185.231 Y111.305 E50.6625
G1 X186.960 Y115.136 E50.8826
G1 X188.037 Y118.831 E51.0843
G1 X188.474 Y121.788 E51.2408
G1 X191.369 Y121.788 E51.3925
G1 X192.333 Y120.788 E51.4653
G1 X193.491 Y120.314 E51.5308
G1 X193.907 Y120.309 E51.5526
G1 X194.881 Y120.499 E51.6046
G1 X195.718 Y121.051 E51.6571
G1 X196.391 Y122.097 E51.7223
G1 X196.545 Y123.000 E51.7703
G1 X196.523 Y128.264 E52.0460
G1 X196.147 Y129.412 E52.1093
G1 X195.224 Y130.324 E52.1773
G1 X193.875 Y130.707 E52.2507
G1 X192.512 Y130.364 E52.3244
G1 X191.366 Y129.208 E52.4096
G1 X188.347 Y129.208 E52.5678
G1 X187.821 Y132.077 E52.7206
G1 X186.656 Y135.654 E52.9176
G1 X184.938 Y139.215 E53.1248
G1 X182.770 Y142.480 E53.3301
G1 X180.164 Y145.428 E53.5362
G1 X177.051 Y148.093 E53.7508
G1 X173.731 Y150.209 E53.9571
G1 X170.328 Y151.782 E54.1535
G1 X166.566 Y152.944 E54.3597
G1 X162.507 Y153.596 E54.5751
G1 X158.570 Y153.670 E54.7814
G1 X154.681 Y153.210 E54.9865
G1 X150.865 Y152.212 E55.1931
G1 X147.382 Y150.784 E55.3903
G1 X143.983 Y148.823 E55.5959
G1 X140.872 Y146.404 E55.8023
G1 X138.017 Y143.462 E56.0171
G1 X135.791 Y140.431 E56.2141
G1 X133.840 Y136.821 E56.4290
G1 X132.468 Y133.132 E56.6352
G1 X131.693 Y129.703 E56.8194
G1 X129.613 Y130.415 E56.9345
G1 X127.454 Y130.898 E57.0504
G1 X124.916 Y131.083 E57.1837
G1 X122.540 Y130.896 E57.3086
G1 X120.379 Y130.413 E57.4246
G1 X118.315 Y129.663 E57.5396
G1 X117.477 Y133.312 E57.7358
G1 X116.159 Y136.821 E57.9321
G1 X114.208 Y140.431 E58.1471
G1 X111.873 Y143.590 E58.3529
G1 X109.246 Y146.297 E58.5505
G1 X106.016 Y148.823 E58.7653
G1 X102.617 Y150.784 E58.9708
G1 X98.965 Y152.268 E59.1773
G1 X95.318 Y153.210 E59.3746
G1 X91.263 Y153.678 E59.5885
G1 X87.313 Y153.580 E59.7955
G1 X83.611 Y152.986 E59.9919
G1 X79.671 Y151.782 E60.2077
G1 X76.268 Y150.209 E60.4041
G1 X72.807 Y147.988 E60.6195
G1 X69.835 Y145.428 E60.8250
G1 X67.229 Y142.480 E61.0311
G1 X65.061 Y139.215 E61.2364
G1 X63.343 Y135.654 E61.4435
G1 X62.178 Y132.077 E61.6406
G1 X61.652 Y129.208 E61.7934
G1 X58.528 Y129.208 E61.9570
G1 X58.147 Y129.839 E61.9956
G1 X57.393 Y130.388 E62.0445
G1 X56.107 Y130.706 E62.1139
G1 X54.615 Y130.205 E62.1963
G1 X53.578 Y128.797 E62.2879
G1 X53.454 Y123.018 E62.5907
G1 X53.695 Y121.938 E62.6487
G1 X54.008 Y121.393 E62.6816
G1 X55.027 Y120.552 E62.7509
G1 X56.492 Y120.313 E62.8286
G1 X57.915 Y120.985 E62.9110
G1 X58.532 Y121.788 E62.9641
G1 X61.525 Y121.788 E63.1209
G1 X61.962 Y118.831 E63.2775
G1 X63.039 Y115.136 E63.4791
G1 X64.697 Y111.437 E63.6914
G1 X66.846 Y108.027 E63.9026
G1 X69.444 Y104.958 E64.1132
G1 X72.590 Y102.174 E64.3333
;PRINTING: glasses_adult.STL
;PRINTING_ID: 0
G1 F2400 E59.3333
G0 F3900 X73.553 Y105.236
;TYPE:WALL-OUTER
;WIDTH:0.420
G1 F1500 E64.3333
G1 F2400 X70.851 Y107.840 E64.5299
G1 X68.557 Y110.812 E64.7265
G1 X66.720 Y114.085 E64.9231
G1 X65.379 Y117.591 E65.1198
G1 X64.630 Y120.954 E65.3003
G1 X64.289 Y124.997 E65.5128
G1 X64.563 Y128.742 E65.7095
G1 X65.379 Y132.406 E65.9062
G1 X66.720 Y135.911 E66.1027
G1 X68.557 Y139.184 E66.2994
G1 X70.851 Y142.155 E66.4960
G1 X73.553 Y144.761 E66.6926
G1 X76.606 Y146.945 E66.8893
G1 X79.944 Y148.661 E67.0859
G1 X83.497 Y149.873 E67.2825
G1 X87.188 Y150.554 E67.4792
G1 X90.939 Y150.691 E67.6758
G1 X94.669 Y150.281 E67.8724
G1 X98.301 Y149.331 E68.0690
G1 X101.755 Y147.863 E68.2656
G1 X104.697 Y146.069 E68.4461
G1 X107.843 Y143.508 E68.6586
G1 X110.350 Y140.712 E68.8554
G1 X112.421 Y137.581 E69.0520
G1 X114.014 Y134.183 E69.2486
G1 X115.095 Y130.589 E69.4452
G1 X115.597 Y127.180 E69.6257
G1 X115.641 Y123.123 E69.8382
G1 X115.095 Y119.408 E70.0349
G1 X114.014 Y115.814 E70.2315
G1 X112.421 Y112.415 E70.4282
G1 X110.350 Y109.284 E70.6248
G1 X107.844 Y106.489 E70.8215
G1 X104.960 Y104.088 E71.0181
G1 X101.755 Y102.133 E71.2147
G1 X98.301 Y100.665 E71.4113
G1 X94.669 Y99.715 E71.6080
G1 X90.939 Y99.305 E71.8046
G1 X87.495 Y99.431 E71.9851
G1 X83.498 Y100.123 E72.1976
G1 X79.944 Y101.335 E72.3943
G1 X76.606 Y103.052 E72.5909
G1 X73.553 Y105.236 E72.7876
G1 F2400 E67.7876
G0 F3900 X73.193 Y104.861
G0 X70.389 Y107.426
G0 X68.040 Y110.470
G0 X66.158 Y113.822
G0 X65.381 Y115.856
G0 X63.267 Y123.283
G0 X62.754 Y123.208
G1 F1500 E72.7876
G1 F2400 X63.329 Y119.221 E72.9986
G1 X64.405 Y115.531 E73.1999
G1 X65.980 Y112.044 E73.4004
G1 X68.031 Y108.809 E73.6010
G1 X70.521 Y105.886 E73.8022
G1 X73.389 Y103.347 E74.0028
G1 X76.587 Y101.232 E74.2037
G1 X80.055 Y99.585 E74.4048
G1 X83.710 Y98.443 E74.6054
G1 X87.492 Y97.824 E74.8061
G1 X91.325 Y97.741 E75.0070
G1 X95.137 Y98.197 E75.2081
G1 X98.842 Y99.181 E75.4089
G1 X102.369 Y100.673 E75.6095
G1 X105.658 Y102.648 E75.8105
G1 X108.633 Y105.061 E76.0112
G1 X111.247 Y107.873 E76.2123
G1 X113.436 Y111.018 E76.4130
G1 X115.163 Y114.439 E76.6138
G1 X116.396 Y118.074 E76.8148
G1 X117.182 Y122.217 E77.0357
G1 X117.728 Y123.141 E77.0919
G1 X118.327 Y123.568 E77.1305
G1 X120.472 Y124.416 E77.2513
G1 X122.709 Y124.930 E77.3715
G1 X125.000 Y125.103 E77.4919
G1 X127.290 Y124.930 E77.6122
G1 X129.527 Y124.416 E77.7324
G1 X131.672 Y123.568 E77.8533
G1 X132.271 Y123.141 E77.8918
G1 X132.817 Y122.217 E77.9480
G1 X133.603 Y118.074 E78.1689
G1 X134.836 Y114.439 E78.3700
G1 X136.563 Y111.018 E78.5708
G1 X138.752 Y107.873 E78.7715
G1 X141.366 Y105.061 E78.9726
G1 X144.341 Y102.648 E79.1733
G1 X147.630 Y100.673 E79.3742
G1 X151.157 Y99.181 E79.5748
G1 X154.862 Y98.197 E79.7757
G1 X158.674 Y97.741 E79.9768
G1 X162.184 Y97.817 E80.1607
G1 X166.294 Y98.444 E80.3785
G1 X169.944 Y99.585 E80.5788
G1 X173.412 Y101.232 E80.7799
G1 X176.610 Y103.347 E80.9808
G1 X179.478 Y105.886 E81.1814
G1 X181.968 Y108.809 E81.3826
G1 X184.019 Y112.044 E81.5832
G1 X185.594 Y115.531 E81.7837
G1 X186.670 Y119.221 E81.9850
G1 X187.245 Y123.208 E82.1960
G1 X192.498 Y123.208 E82.4712
G1 X192.709 Y122.378 E82.5161
G1 X192.953 Y122.065 E82.5369
G1 X193.739 Y121.720 E82.5818
G1 X194.342 Y121.818 E82.6138
G1 X194.699 Y122.047 E82.6361
G1 X195.054 Y122.590 E82.6700
G1 X195.125 Y123.014 E82.6926
