;Sliced by ideaMaker 5.2.4.8581, 2025-07-13 16:06:08 UTC+0200
;Slicer Version: 5.2.3.8580
;Dimension: 250.000 250.000 250.000 0.400
;Plate Shape: 0
;Origin Center: 0
;Extruder Offset #1: 25.000 0.000
;Filament Diameter #1: 1.750
;Filament Diameter #2: 1.750
;Filament Compensation #1: 94.000
;Filament Compensation #2: 90.000
;Filament Density #1: 1240.000
;Filament Density #2: 1240.000
;Filament Type #1: PLA
;Filament Type #2: PLA
;Filament Name #1: [Raise3D] Premium PLA 1.75mm
;Filament Name #2: [Raise3D] Premium PLA 1.75mm
;Filament #1: PLA 1.75mm
;Filament #2: PLA 1.75mm
;Printer Type: floppy
;Firmware: Klipper
;Bounding Box: 49.262 200.719 97.785 152.216 0.000 5.100
;Model Gap: 0.000
M221 T0 S94.00
M140 S50.00
M104 T0 S190.00
M109 T0 S190.00
T0
M190 S50.00
G21 ;metric values
G90 ;absolute positioning
M82 ;set extruder to absolute mode
M107 ;start with the fan off
G28 X0 Y0 ;move X/Y to min endstops
G28 Z0 ;move Z to min endstops
G1 Z15.0 F9000 ;move the platform down 15mm
G92 E0 ;zero the extruded length
G0 X43 Y27 F2000  ;go to the edge of the bed
G92 X0 Y0 E0 ;set zero to edge of the bed
G0 F9000 Z1 ;Z up with 1mm
G1 F200 Z0 ;Z home slowly
G1 Z15.0 F9000 ;move the platform down 15mm
G1 F9000 ;speed setting
G92 E-3 ;retraction
M117 Printing...
M1001
;TOTAL_NUM: 1
;PRINTING_TIME: 0
;REMAINING_TIME: 2164
;LAYER:0
;Z:0.300
;HEIGHT:0.300
;PRINTING: NON-OBJECT
;PRINTING_ID: -1
G1 F2400 E-5.0000
G0 F3900 X68.903 Y102.786
G0 F300 Z0.300
;TYPE:SKIRT
;WIDTH:0.420
G1 F1500 E0.0000
G1 F900 X71.753 Y101.188 E0.1712
G1 X74.902 Y99.891 E0.3496
G1 X78.787 Y98.775 E0.5613
G1 X82.829 Y98.069 E0.7763
G1 X86.999 Y97.785 E0.9952
G1 X91.909 Y97.882 E1.2525
G1 X96.269 Y98.230 E1.4816
G1 X99.359 Y98.767 E1.6459
G1 X102.163 Y99.601 E1.7991
G1 X104.909 Y100.845 E1.9571
G1 X107.589 Y102.569 E2.1240
G1 X110.152 Y104.769 E2.3009
G1 X112.538 Y107.368 E2.4857
G1 X114.686 Y110.309 E2.6765
G1 X116.458 Y113.381 E2.8623
G1 X117.923 Y116.677 E3.0512
G1 X119.127 Y120.417 E3.2571
G1 X121.030 Y128.501 E3.6921
G1 X121.628 Y129.945 E3.7740
G1 X122.462 Y131.140 E3.8503
G1 X123.354 Y131.799 E3.9084
G1 X125.000 Y132.176 E3.9969
G1 X126.645 Y131.799 E4.0853
G1 X127.537 Y131.140 E4.1434
G1 X128.371 Y129.945 E4.2197
G1 X128.969 Y128.501 E4.3016
G1 X130.829 Y120.568 E4.7284
G1 X132.088 Y116.644 E4.9443
G1 X133.501 Y113.458 E5.1269
G1 X135.264 Y110.386 E5.3124
G1 X137.320 Y107.543 E5.4962
G1 X139.876 Y104.741 E5.6949
G1 X142.319 Y102.637 E5.8638
G1 X144.981 Y100.904 E6.0302
G1 X147.577 Y99.698 E6.1801
G1 X150.401 Y98.826 E6.3350
G1 X153.797 Y98.222 E6.5157
G1 X157.976 Y97.888 E6.7353
G1 X163.048 Y97.787 E7.0010
G1 X167.088 Y98.065 E7.2132
G1 X171.125 Y98.755 E7.4277
G1 X175.009 Y99.861 E7.6393
G1 X178.275 Y101.203 E7.8242
G1 X180.878 Y102.646 E7.9801
G1 X182.849 Y104.084 E8.1079
G1 X184.452 Y105.645 E8.2252
G1 X185.843 Y107.545 E8.3485
G1 X189.671 Y114.550 E8.7667
G1 X191.213 Y118.431 E8.9854
G1 X192.732 Y123.524 E9.2639
G1 X194.923 Y132.775 E9.7619
G1 X195.202 Y133.481 E9.8016
G1 X196.071 Y134.532 E9.8731
G1 X198.137 Y135.379 E9.9900
G1 X198.678 Y135.892 E10.0291
G1 X198.996 Y136.541 E10.0670
G1 X200.719 Y146.130 E10.5773
G1 X200.584 Y147.213 E10.6345
G1 X199.746 Y148.244 E10.7041
G1 X196.223 Y149.110 E10.8941
G1 X195.113 Y149.020 E10.9525
G1 X193.829 Y147.743 E11.0473
G1 X193.401 Y145.575 E11.1631
G1 X192.491 Y145.747 E11.2116
G1 X192.861 Y148.352 E11.3494
G1 X192.370 Y149.378 E11.4090
G1 X191.424 Y149.992 E11.4681
G1 X183.322 Y151.209 E11.8973
G1 X175.334 Y151.945 E12.3175
G1 X167.746 Y152.215 E12.7153
G1 X160.352 Y152.047 E13.1027
G1 X153.253 Y151.455 E13.4759
G1 X146.442 Y150.454 E13.8365
G1 X132.037 Y147.559 E14.6062
G1 X125.000 Y146.670 E14.9777
G1 X117.962 Y147.559 E15.3493
G1 X103.643 Y150.437 E16.1144
G1 X96.858 Y151.440 E16.4737
G1 X89.771 Y152.041 E16.8463
G1 X82.380 Y152.216 E17.2336
G1 X74.711 Y151.949 E17.6356
G1 X66.804 Y151.225 E18.0515
G1 X58.576 Y149.993 E18.4874
G1 X57.632 Y149.382 E18.5463
G1 X57.128 Y148.281 E18.6097
G1 X57.508 Y145.747 E18.7439
G1 X56.598 Y145.575 E18.7924
G1 X56.099 Y147.918 E18.9179
G1 X55.553 Y148.656 E18.9660
G1 X54.911 Y149.028 E19.0049
G1 X53.875 Y149.122 E19.0594
G1 X50.237 Y148.215 E19.2558
G1 X49.478 Y147.367 E19.3154
G1 X49.262 Y146.314 E19.3717
G1 X51.026 Y136.463 E19.8960
G1 X51.992 Y135.321 E19.9743
G1 X53.914 Y134.549 E20.0828
G1 X54.797 Y133.481 E20.1554
G1 X55.076 Y132.775 E20.1952
G1 X57.232 Y123.658 E20.6859
G1 X58.733 Y118.584 E20.9631
G1 X60.271 Y114.663 E21.1838
G1 X64.092 Y107.642 E21.6025
G1 X65.455 Y105.752 E21.7246
G1 X67.058 Y104.163 E21.8428
G1 X68.903 Y102.786 E21.9634
G0 F3900 X69.154 Y103.123
G1 F900 X71.958 Y101.555 E22.1317
G1 X75.062 Y100.280 E22.3075
G1 X78.903 Y99.179 E22.5168
G1 X82.901 Y98.483 E22.7294
G1 X87.027 Y98.204 E22.9460
G1 X91.901 Y98.302 E23.2014
G1 X96.235 Y98.649 E23.4291
G1 X99.287 Y99.181 E23.5914
G1 X102.043 Y100.003 E23.7421
G1 X104.735 Y101.227 E23.8970
G1 X107.361 Y102.922 E24.0607
G1 X109.878 Y105.087 E24.2347
G1 X112.228 Y107.652 E24.4169
G1 X114.347 Y110.557 E24.6052
G1 X116.094 Y113.591 E24.7886
G1 X117.539 Y116.847 E24.9753
G1 X118.727 Y120.545 E25.1787
G1 X120.629 Y128.630 E25.6138
G1 X121.256 Y130.145 E25.6997
G1 X122.159 Y131.439 E25.7824
G1 X123.173 Y132.188 E25.8484
G1 X125.000 Y132.607 E25.9466
G1 X126.826 Y132.188 E26.0447
G1 X127.840 Y131.439 E26.1108
G1 X128.743 Y130.145 E26.1934
G1 X129.370 Y128.630 E26.2793
G1 X131.238 Y120.664 E26.7079
G1 X132.488 Y116.772 E26.9221
G1 X133.885 Y113.629 E27.1023
G1 X135.628 Y110.595 E27.2856
G1 X137.660 Y107.789 E27.4670
G1 X140.186 Y105.024 E27.6632
G1 X142.593 Y102.956 E27.8295
G1 X145.210 Y101.256 E27.9929
G1 X147.753 Y100.079 E28.1397
G1 X150.524 Y99.227 E28.2916
G1 X153.870 Y98.636 E28.4696
G1 X158.009 Y98.307 E28.6871
G1 X163.056 Y98.207 E28.9515
G1 X167.059 Y98.484 E29.1617
G1 X171.054 Y99.169 E29.3741
G1 X174.894 Y100.265 E29.5832
G1 X178.115 Y101.591 E29.7657
G1 X180.674 Y103.013 E29.9191
G1 X182.601 Y104.423 E30.0442
G1 X184.158 Y105.945 E30.1582
G1 X185.503 Y107.792 E30.2779
G1 X189.302 Y114.751 E30.6932
G1 X190.823 Y118.586 E30.9094
G1 X192.329 Y123.644 E31.1858
G1 X194.521 Y132.900 E31.6841
G1 X194.836 Y133.698 E31.7290
G1 X195.816 Y134.883 E31.8096
G1 X197.848 Y135.684 E31.9240
G1 X198.389 Y136.197 E31.9631
G1 X198.611 Y136.708 E31.9922
G1 X200.306 Y146.204 E32.4976
G1 X200.168 Y147.153 E32.5478
G1 X199.555 Y147.870 E32.5972
G1 X196.124 Y148.702 E32.7821
G1 X195.156 Y148.602 E32.8331
G1 X194.241 Y147.662 E32.9018
G1 X193.732 Y145.085 E33.0394
G1 X192.014 Y145.409 E33.1310
G1 X192.453 Y148.253 E33.2818
G1 X191.993 Y149.193 E33.3366
G1 X191.362 Y149.577 E33.3753
G1 X183.260 Y150.794 E33.8045
G1 X175.296 Y151.527 E34.2234
G1 X167.731 Y151.795 E34.6200
G1 X160.362 Y151.627 E35.0061
G1 X153.288 Y151.036 E35.3780
G1 X146.503 Y150.038 E35.7372
G1 X132.104 Y147.144 E36.5066
G1 X125.000 Y146.246 E36.8817
G1 X117.895 Y147.144 E37.2568
G1 X103.560 Y150.025 E38.0228
G1 X96.797 Y151.025 E38.3809
G1 X89.736 Y151.622 E38.7521
G1 X82.370 Y151.796 E39.1381
G1 X74.726 Y151.529 E39.5388
G1 X66.842 Y150.807 E39.9535
G1 X58.638 Y149.578 E40.3881
G1 X58.009 Y149.197 E40.4266
G1 X57.547 Y148.254 E40.4816
G1 X57.985 Y145.409 E40.6324
G1 X56.267 Y145.085 E40.7240
G1 X55.750 Y147.684 E40.8628
G1 X55.342 Y148.293 E40.9012
G1 X54.700 Y148.665 E40.9401
G1 X53.973 Y148.714 E40.9782
G1 X50.483 Y147.875 E41.1663
G1 X49.793 Y147.090 E41.2210
G1 X49.675 Y146.388 E41.2583
G1 X51.439 Y136.537 E41.7825
G1 X52.300 Y135.606 E41.8490
G1 X53.310 Y135.328 E41.9038
G1 X54.183 Y134.883 E41.9552
G1 X55.163 Y133.698 E42.0357
G1 X55.478 Y132.900 E42.0807
G1 X57.641 Y123.755 E42.5729
G1 X59.136 Y118.703 E42.8489
G1 X60.662 Y114.817 E43.0676
G1 X64.461 Y107.843 E43.4837
G1 X65.795 Y105.998 E43.6029
G1 X67.353 Y104.462 E43.7175
G1 X69.154 Y103.123 E43.8351
G0 F3900 X69.404 Y103.461
G1 F900 X72.163 Y101.922 E44.0006
G1 X75.221 Y100.669 E44.1737
G1 X79.018 Y99.583 E44.3806
G1 X82.973 Y98.897 E44.5909
G1 X87.055 Y98.623 E44.8052
G1 X91.892 Y98.722 E45.0586
G1 X96.201 Y99.068 E45.2851
G1 X99.215 Y99.595 E45.4454
G1 X101.923 Y100.405 E45.5934
G1 X104.561 Y101.609 E45.7453
G1 X107.133 Y103.275 E45.9059
G1 X109.604 Y105.405 E46.0768
G1 X111.918 Y107.935 E46.2564
G1 X114.007 Y110.804 E46.4423
G1 X115.730 Y113.800 E46.6233
G1 X117.155 Y117.017 E46.8076
G1 X118.327 Y120.673 E47.0088
G1 X120.228 Y128.759 E47.4439
G1 X120.884 Y130.345 E47.5338
G1 X121.856 Y131.738 E47.6228
G1 X122.992 Y132.577 E47.6968
G1 X125.000 Y133.038 E47.8047
G1 X127.007 Y132.577 E47.9126
G1 X128.143 Y131.738 E47.9865
G1 X129.115 Y130.345 E48.0755
G1 X129.771 Y128.759 E48.1654
G1 X131.647 Y120.760 E48.5958
G1 X132.888 Y116.901 E48.8082
G1 X134.269 Y113.800 E48.9860
G1 X135.992 Y110.804 E49.1670
G1 X138.000 Y108.036 E49.3462
G1 X140.496 Y105.307 E49.5399
G1 X142.866 Y103.275 E49.7034
G1 X145.438 Y101.609 E49.8640
G1 X147.929 Y100.460 E50.0077
G1 X150.647 Y99.629 E50.1566
G1 X153.943 Y99.050 E50.3319
G1 X158.042 Y98.726 E50.5473
G1 X163.064 Y98.627 E50.8104
G1 X167.030 Y98.903 E51.0187
G1 X170.983 Y99.583 E51.2288
G1 X174.778 Y100.669 E51.4355
G1 X177.955 Y101.979 E51.6156
G1 X180.470 Y103.380 E51.7664
G1 X182.352 Y104.762 E51.8887
G1 X183.864 Y106.245 E51.9996
G1 X185.163 Y108.038 E52.1156
G1 X188.933 Y114.952 E52.5282
G1 X190.432 Y118.741 E52.7416
G1 X191.926 Y123.764 E53.0161
G1 X194.119 Y133.025 E53.5147
G1 X194.470 Y133.915 E53.5648
G1 X195.547 Y135.217 E53.6533
G1 X196.537 Y135.722 E53.7115
G1 X197.578 Y136.006 E53.7681
G1 X198.004 Y136.364 E53.7972
G1 X198.226 Y136.875 E53.8264
G1 X199.892 Y146.277 E54.3266
G1 X199.754 Y147.082 E54.3694
G1 X199.378 Y147.489 E54.3984
G1 X196.026 Y148.294 E54.5790
G1 X195.211 Y148.186 E54.6220
G1 X194.653 Y147.581 E54.6652
G1 X194.063 Y144.595 E54.8246
G1 X191.527 Y145.073 E54.9598
G1 X192.064 Y148.093 E55.1205
G1 X191.754 Y148.848 E55.1632
G1 X191.300 Y149.162 E55.1921
G1 X183.198 Y150.379 E55.6213
G1 X175.258 Y151.109 E56.0390
G1 X167.716 Y151.375 E56.4344
G1 X160.372 Y151.207 E56.8192
G1 X153.323 Y150.617 E57.1897
G1 X146.564 Y149.622 E57.5476
G1 X132.171 Y146.729 E58.3167
G1 X125.000 Y145.822 E58.6953
G1 X117.828 Y146.729 E59.0740
G1 X103.477 Y149.613 E59.8408
G1 X96.736 Y150.610 E60.1978
G1 X89.701 Y151.203 E60.5676
G1 X82.360 Y151.376 E60.9523
G1 X74.741 Y151.109 E61.3516
G1 X66.880 Y150.389 E61.7651
G1 X58.700 Y149.163 E62.1984
G1 X58.248 Y148.851 E62.2272
G1 X57.935 Y148.094 E62.2701
G1 X58.472 Y145.073 E62.4309
G1 X55.936 Y144.595 E62.5660
G1 X55.338 Y147.602 E62.7266
G1 X55.007 Y148.040 E62.7554
G1 X54.511 Y148.290 E62.7845
G1 X53.970 Y148.294 E62.8128
G1 X50.780 Y147.578 E62.9841
G1 X50.204 Y147.002 E63.0268
G1 X50.088 Y146.462 E63.0557
G1 X51.852 Y136.611 E63.5800
G1 X52.411 Y136.011 E63.6229
G1 X53.463 Y135.722 E63.6801
G1 X54.452 Y135.217 E63.7382
G1 X55.529 Y133.915 E63.8268
G1 X55.880 Y133.025 E63.8769
G1 X58.050 Y123.852 E64.3707
G1 X59.539 Y118.822 E64.6455
G1 X61.053 Y114.971 E64.8622
G1 X64.830 Y108.044 E65.2755
G1 X66.135 Y106.245 E65.3920
G1 X67.647 Y104.762 E65.5029
G1 X69.404 Y103.461 E65.6174
;PRINTING: glasses_front.STL
;PRINTING_ID: 0
G1 F2400 E60.6174
G0 F3900 X141.538 Y110.570
;TYPE:WALL-OUTER
;WIDTH:0.420
G1 F1500 E65.6174
G1 F2400 X139.874 Y113.167 E65.7790
G1 X138.431 Y116.196 E65.9548
G1 X137.002 Y120.132 E66.1741
G1 X135.636 Y124.906 E66.4342
G1 X134.794 Y128.829 E66.6444
G1 X134.392 Y132.024 E66.8131
G1 X134.350 Y134.479 E66.9417
G1 X134.599 Y136.548 E67.0509
G1 X135.204 Y138.478 E67.1568
G1 X135.934 Y139.827 E67.2372
G1 X136.791 Y140.928 E67.3103
G1 X137.889 Y141.956 E67.3891
G1 X139.566 Y143.071 E67.4946
G1 X141.654 Y144.024 E67.6148
G1 X144.191 Y144.803 E67.7538
G1 X147.624 Y145.493 E67.9373
G1 X151.923 Y146.119 E68.1648
G1 X157.987 Y146.676 E68.4838
G1 X164.667 Y146.881 E68.8339
G1 X170.454 Y146.825 E69.1371
G1 X174.757 Y146.483 E69.3632
G1 X177.713 Y145.971 E69.5204
G1 X180.008 Y145.311 E69.6455
G1 X181.969 Y144.439 E69.7579
G1 X183.240 Y143.608 E69.8374
G1 X184.195 Y142.721 E69.9057
G1 X185.686 Y140.463 E70.0475
G1 X186.652 Y138.035 E70.1844
G1 X187.157 Y135.869 E70.3009
G1 X187.315 Y133.634 E70.4182
G1 X187.178 Y131.090 E70.5517
G1 X186.213 Y123.067 E70.9750
G1 X185.438 Y119.645 E71.1588
G1 X184.300 Y116.400 E71.3389
G1 X182.860 Y113.431 E71.5118
G1 X181.180 Y110.807 E71.6750
G1 X179.239 Y108.482 E71.8337
G1 X177.175 Y106.595 E71.9802
G1 X174.804 Y105.001 E72.1298
G1 X172.096 Y103.728 E72.2866
G1 X169.380 Y102.883 E72.4356
G1 X166.397 Y102.344 E72.5944
G1 X163.160 Y102.137 E72.7643
G1 X160.664 Y102.211 E72.8951
G1 X156.631 Y102.708 E73.1080
G1 X152.927 Y103.566 E73.3072
G1 X149.800 Y104.606 E73.4798
G1 X147.281 Y105.735 E73.6244
G1 X145.157 Y107.026 E73.7546
G1 X143.268 Y108.597 E73.8833
G1 X141.538 Y110.570 E74.0208
G1 F2400 E69.0208
G0 F3900 X141.101 Y110.290
G0 X133.620 Y121.272
G0 X131.719 Y129.388
G0 X130.267 Y132.374
G0 X128.235 Y134.169
G0 X115.619 Y138.896
G0 X115.115 Y138.772
G1 F1500 E74.0208
G1 F2400 X115.746 Y136.200 E74.1595
G1 X115.802 Y134.060 E74.2716
G1 X115.436 Y130.757 E74.4457
G1 X113.293 Y121.088 E74.9645
G1 X112.195 Y117.489 E75.1616
G1 X110.997 Y114.502 E75.3302
G1 X109.752 Y112.143 E75.4699
G1 X108.233 Y109.958 E75.6093
G1 X106.364 Y107.972 E75.7522
G1 X104.065 Y106.192 E75.9045
G1 X101.361 Y104.671 E76.0670
G1 X98.311 Y103.467 E76.2388
G1 X94.948 Y102.614 E76.4206
G1 X91.502 Y102.172 E76.6026
G1 X87.979 Y102.133 E76.7871
G1 X84.572 Y102.489 E76.9666
G1 X81.098 Y103.247 E77.1528
G1 X77.977 Y104.325 E77.3258
G1 X75.179 Y105.678 E77.4886
G1 X72.645 Y107.326 E77.6470
G1 X70.596 Y109.092 E77.7887
G1 X68.821 Y111.147 E77.9309
G1 X67.483 Y113.271 E78.0624
G1 X66.180 Y115.999 E78.2208
G1 X64.793 Y119.809 E78.4332
G1 X63.786 Y123.798 E78.6487
G1 X63.136 Y128.133 E78.8783
G1 X62.901 Y131.915 E79.0768
G1 X62.954 Y135.640 E79.2720
G1 X63.286 Y138.228 E79.4087
G1 X63.783 Y139.965 E79.5033
G1 X64.818 Y141.869 E79.6168
G1 X65.740 Y142.867 E79.6880
G1 X66.816 Y143.696 E79.7592
G1 X68.402 Y144.578 E79.8542
G1 X70.663 Y145.457 E79.9813
G1 X73.682 Y146.269 E80.1451
G1 X77.402 Y146.920 E80.3429
G1 X81.418 Y147.263 E80.5540
G1 X85.867 Y147.306 E80.7871
G1 X91.947 Y147.007 E81.1060
G1 X97.452 Y146.419 E81.3960
G1 X101.999 Y145.608 E81.6380
G1 X106.629 Y144.420 E81.8884
G1 X109.689 Y143.348 E82.0582
G1 X111.908 Y142.236 E82.1882
G1 X114.015 Y140.522 E82.3305
G1 X115.115 Y138.772 E82.4388
G1 F2400 E77.4388
G0 F3900 X115.619 Y138.896
G0 X147.518 Y146.104
G0 X157.949 Y147.294
G0 X170.481 Y147.444
G0 X177.851 Y146.575
G0 X182.266 Y144.984
G0 X195.643 Y142.280
G0 X195.707 Y142.842
G0 X195.196 Y142.936
G1 F1500 E82.4388
G1 F2400 X189.869 Y143.940 E82.7228
G1 X190.608 Y147.862 E82.9318
G1 X182.998 Y148.974 E83.3347
G1 X175.203 Y149.690 E83.7448
G1 X167.661 Y149.956 E84.1401
G1 X160.407 Y149.788 E84.5202
G1 X153.461 Y149.204 E84.8853
G1 X146.785 Y148.219 E85.2389
G1 X132.413 Y145.331 E86.0068
G1 X125.000 Y144.391 E86.3982
G1 X117.586 Y145.331 E86.7897
G1 X103.214 Y148.219 E87.5576
G1 X96.538 Y149.204 E87.9111
G1 X89.592 Y149.788 E88.2763
G1 X82.338 Y149.956 E88.6564
G1 X74.796 Y149.690 E89.0517
G1 X67.001 Y148.974 E89.4618
G1 X59.391 Y147.862 E89.8647
G1 X60.130 Y143.940 E90.0737
G1 X54.803 Y142.936 E90.3577
G1 X54.065 Y146.862 E90.5670
G1 X51.539 Y146.322 E90.7023
G1 X53.147 Y137.259 E91.1844
G1 X53.959 Y137.063 E91.2282
G1 X55.306 Y136.374 E91.3075
G1 X56.369 Y135.282 E91.3873
G1 X56.807 Y134.544 E91.4322
G1 X57.237 Y133.452 E91.4937
G1 X59.429 Y124.184 E91.9926
G1 X60.898 Y119.234 E92.2631
G1 X62.317 Y115.620 E92.4665
G1 X64.001 Y112.380 E92.6578
G1 X66.072 Y108.734 E92.8774
G1 X67.150 Y107.239 E92.9740
G1 X68.495 Y105.901 E93.0734
G1 X70.244 Y104.606 E93.1874
G1 X72.715 Y103.230 E93.3355
G1 X75.753 Y101.986 E93.5075
G1 X79.267 Y100.981 E93.6990
G1 X83.067 Y100.315 E93.9011
G1 X87.038 Y100.043 E94.1096
G1 X91.858 Y100.142 E94.3621
G1 X95.946 Y100.466 E94.5769
G1 X98.956 Y100.992 E94.7370
G1 X101.494 Y101.758 E94.8759
G1 X103.804 Y102.812 E95.0089
G1 X106.229 Y104.371 E95.1599
G1 X108.568 Y106.376 E95.3213
G1 X110.856 Y108.877 E95.4989
G1 X112.777 Y111.515 E95.6698
