;Sliced by ideaMaker 5.3.2.8640, 2026-01-18 15:16:01 UTC+0100
;Slicer Version: 5.3.0.8620
;Dimension: 250.000 250.000 250.000 0.400
;Plate Shape: 0
;Origin Center: 0
;Extruder Offset #1: 25.000 0.000
;Filament Diameter #1: 1.750
;Filament Diameter #2: 1.750
;Filament Compensation #1: 94.000
;Filament Compensation #2: 90.000
;Filament Density #1: 1240.000
;Filament Density #2: 1240.000
;Filament Type #1: PLA
;Filament Type #2: PLA
;Filament Name #1: [Raise3D] Premium PLA 1.75mm
;Filament Name #2: [Raise3D] Premium PLA 1.75mm
;Filament #1: PLA 1.75mm
;Filament #2: PLA 1.75mm
;Printer Type: floppy
;Firmware: Klipper
;Bounding Box: 90.942 159.010 80.199 169.762 0.000 55.950
;Model Gap: 0.000
M221 T0 S94.00
M140 S48.00
M104 T0 S195.00
M109 T0 S195.00
T0
M190 S48.00
G21 ;metric values
G90 ;absolute positioning
M82 ;set extruder to absolute mode
M107 ;start with the fan off
G28 X0 Y0 ;move X/Y to min endstops
G28 Z0 ;move Z to min endstops
G1 Z15.0 F9000 ;move the platform down 15mm

G92 E0 ;zero the extruded length

G0 X43 Y27 F2000  ;go to the edge of the bed
G92 X0 Y0 E0 ;set zero to edge of the bed
G0 F9000 Z1 ;Z up with 1mm
G1 F200 Z0 ;Z home slowly

G1 Z15.0 F9000 ;move the platform down 15mm

G1 F9000 ;speed setting
G92 E-3 ;retraction
M117 Printing...
M1001
;TOTAL_NUM: 1
;PRINTING_TIME: 0
;REMAINING_TIME: 12171
;LAYER:0
;Z:0.150
;HEIGHT:0.150
;PRINTING: NON-OBJECT
;PRINTING_ID: -1
G1 F2400 E-5.0000
SET_VELOCITY_LIMIT ACCEL=500.00
SET_VELOCITY_LIMIT SQUARE_CORNER_VELOCITY=5.00
G0 F3900 X92.183 Y80.960
G0 F300 Z0.150
;TYPE:SKIRT
;WIDTH:0.420
G1 F1500 E0.0000
G1 F900 X94.255 Y80.199 E0.0578
G1 X151.385 Y80.208 E1.5542
G1 X152.421 Y80.447 E1.5820
G1 X153.329 Y80.971 E1.6095
G1 X154.135 Y81.897 E1.6416
G1 X154.538 Y82.865 E1.6691
G1 X154.232 Y86.045 E1.7528
G1 X153.440 Y87.102 E1.7874
G1 X152.459 Y87.676 E1.8172
G1 X135.329 Y88.099 E2.2660
G1 X134.309 Y88.374 E2.2936
G1 X131.617 Y89.513 E2.3702
G1 X129.438 Y90.725 E2.4355
G1 X130.431 Y91.079 E2.4631
G1 X132.217 Y92.582 E2.5243
G1 X133.394 Y94.984 E2.5943
G1 X133.503 Y97.068 E2.6490
G1 X132.930 Y98.954 E2.7006
G1 X131.607 Y100.721 E2.7584
G1 X129.424 Y102.006 E2.8248
G1 X127.341 Y102.313 E2.8799
G1 X125.445 Y101.931 E2.9306
G1 X123.084 Y100.282 E3.0060
G1 X121.939 Y98.353 E3.0648
G1 X121.719 Y97.187 E3.0958
G1 X119.716 Y99.611 E3.1782
G1 X118.321 Y101.804 E3.2463
G1 X117.058 Y104.229 E3.3179
G1 X116.052 Y106.652 E3.3866
G1 X115.249 Y109.205 E3.4567
G1 X114.462 Y113.149 E3.5620
G1 X114.202 Y117.390 E3.6733
G1 X114.534 Y121.648 E3.7852
G1 X115.384 Y125.592 E3.8909
G1 X116.631 Y129.119 E3.9889
G1 X122.986 Y143.892 E4.4101
G1 X124.401 Y142.214 E4.4676
G1 X126.264 Y141.198 E4.5232
G1 X128.254 Y140.901 E4.5759
G1 X130.870 Y141.597 E4.6468
G1 X132.411 Y142.798 E4.6979
G1 X132.936 Y143.637 E4.7239
G1 X140.337 Y122.508 E5.3102
G1 X141.300 Y121.028 E5.3565
G1 X142.851 Y119.990 E5.4054
G1 X145.696 Y119.868 E5.4800
G1 X156.433 Y123.613 E5.7778
G1 X158.201 Y124.997 E5.8366
G1 X159.010 Y126.760 E5.8874
G1 X158.963 Y128.798 E5.9408
G1 X157.205 Y133.521 E6.0728
G1 X155.985 Y134.611 E6.1157
G1 X154.670 Y134.782 E6.1504
G1 X153.474 Y134.414 E6.1832
G1 X152.996 Y135.935 E6.2249
G1 X151.416 Y137.927 E6.2915
G1 X149.153 Y139.091 E6.3582
G1 X146.928 Y139.244 E6.4166
G1 X144.926 Y138.611 E6.4716
G1 X143.318 Y137.377 E6.5247
G1 X142.789 Y136.547 E6.5505
G1 X139.492 Y145.892 E6.8100
G1 X141.828 Y145.630 E6.8716
G1 X144.125 Y146.325 E6.9344
G1 X145.778 Y147.672 E6.9903
G1 X146.937 Y149.804 E7.0539
G1 X147.181 Y151.843 E7.1076
G1 X146.813 Y153.554 E7.1535
G1 X145.018 Y156.018 E7.2333
G1 X142.803 Y157.163 E7.2986
G1 X140.734 Y157.338 E7.3530
G1 X138.736 Y156.770 E7.4074
G1 X137.008 Y155.485 E7.4638
G1 X136.452 Y154.608 E7.4910
G1 X131.899 Y167.526 E7.8498
G1 X131.223 Y168.608 E7.8832
G1 X130.227 Y169.391 E7.9164
G1 X129.019 Y169.762 E7.9495
G1 X127.745 Y169.670 E7.9829
G1 X126.426 Y168.992 E8.0218
G1 X125.431 Y167.742 E8.0636
G1 X91.618 Y88.254 E10.3261
G1 X90.942 Y85.641 E10.3968
G1 X90.965 Y83.071 E10.4642
G1 X92.183 Y80.960 E10.5280
G0 F3900 X92.436 Y81.295
G1 F900 X94.255 Y80.619 E10.5788
G1 X151.385 Y80.628 E12.0752
G1 X152.322 Y80.855 E12.1004
G1 X153.112 Y81.331 E12.1246
G1 X153.813 Y82.167 E12.1532
G1 X154.147 Y83.018 E12.1771
G1 X153.815 Y85.998 E12.2557
G1 X153.208 Y86.752 E12.2810
G1 X152.449 Y87.256 E12.3049
G1 X135.270 Y87.680 E12.7550
G1 X134.167 Y87.978 E12.7849
G1 X131.436 Y89.133 E12.8626
G1 X128.388 Y90.829 E12.9539
G1 X130.161 Y91.400 E13.0027
G1 X131.947 Y92.903 E13.0639
G1 X132.975 Y95.011 E13.1253
G1 X133.101 Y96.946 E13.1761
G1 X132.528 Y98.832 E13.2277
G1 X131.274 Y100.465 E13.2816
G1 X129.358 Y101.591 E13.3398
G1 X127.424 Y101.901 E13.3911
G1 X125.528 Y101.519 E13.4418
G1 X123.445 Y100.068 E13.5083
G1 X122.300 Y98.139 E13.5670
G1 X121.983 Y96.207 E13.6183
G1 X119.380 Y99.357 E13.7254
G1 X117.951 Y101.604 E13.7951
G1 X116.679 Y104.047 E13.8672
G1 X115.656 Y106.511 E13.9371
G1 X114.842 Y109.098 E14.0082
G1 X114.045 Y113.093 E14.1149
G1 X113.781 Y117.397 E14.2278
G1 X114.117 Y121.711 E14.3411
G1 X114.978 Y125.703 E14.4481
G1 X116.240 Y129.274 E14.5473
G1 X123.020 Y145.033 E14.9967
G1 X123.354 Y144.081 E15.0231
G1 X124.607 Y142.580 E15.0743
G1 X126.326 Y141.613 E15.1259
G1 X128.316 Y141.316 E15.1786
G1 X130.612 Y141.928 E15.2409
G1 X132.153 Y143.129 E15.2921
G1 X133.031 Y144.635 E15.3377
G1 X140.733 Y122.647 E15.9479
G1 X141.650 Y121.260 E15.9915
G1 X143.078 Y120.344 E16.0359
G1 X145.558 Y120.265 E16.1009
G1 X156.295 Y124.010 E16.3988
G1 X157.823 Y125.181 E16.4492
G1 X158.590 Y126.755 E16.4950
G1 X158.568 Y128.655 E16.5448
G1 X156.919 Y133.213 E16.6718
G1 X155.838 Y134.218 E16.7104
G1 X154.620 Y134.365 E16.7426
G1 X153.195 Y133.874 E16.7820
G1 X152.663 Y135.679 E16.8313
G1 X151.219 Y137.556 E16.8934
G1 X149.119 Y138.672 E16.9557
G1 X147.049 Y138.842 E17.0101
G1 X145.182 Y138.278 E17.0611
G1 X143.574 Y137.044 E17.1142
G1 X142.691 Y135.562 E17.1594
G1 X138.744 Y146.750 E17.4702
G1 X139.674 Y146.268 E17.4976
G1 X141.706 Y146.032 E17.5512
G1 X144.003 Y146.727 E17.6140
G1 X145.508 Y147.993 E17.6655
G1 X146.521 Y149.859 E17.7212
G1 X146.770 Y151.755 E17.7712
G1 X146.402 Y153.466 E17.8171
G1 X144.682 Y155.767 E17.8923
G1 X142.762 Y156.745 E17.9488
G1 X140.849 Y156.934 E17.9991
G1 X138.851 Y156.366 E18.0535
G1 X137.263 Y155.151 E18.1059
G1 X136.354 Y153.621 E18.1525
G1 X131.503 Y167.386 E18.5348
G1 X130.869 Y168.383 E18.5657
G1 X129.975 Y169.055 E18.5950
G1 X128.905 Y169.358 E18.6241
G1 X127.927 Y169.291 E18.6498
G1 X126.752 Y168.727 E18.6840
G1 X125.817 Y167.578 E18.7228
G1 X92.004 Y88.090 E20.9853
G1 X91.362 Y85.645 E21.0515
G1 X91.385 Y83.075 E21.1188
G1 X92.436 Y81.295 E21.1729
G0 F3900 X92.694 Y81.626
G1 F900 X94.255 Y81.039 E21.2166
G1 X151.385 Y81.048 E22.7130
G1 X152.217 Y81.262 E22.7355
G1 X152.888 Y81.686 E22.7563
G1 X153.485 Y82.430 E22.7813
G1 X153.752 Y83.162 E22.8017
G1 X153.482 Y85.742 E22.8696
G1 X152.976 Y86.402 E22.8914
G1 X152.217 Y86.906 E22.9153
G1 X135.212 Y87.261 E23.3608
G1 X134.025 Y87.582 E23.3930
G1 X131.253 Y88.754 E23.4718
G1 X128.822 Y90.050 E23.5440
G1 X126.957 Y91.251 E23.6021
G1 X128.182 Y91.205 E23.6342
G1 X129.896 Y91.725 E23.6811
G1 X131.572 Y93.092 E23.7377
G1 X132.556 Y95.044 E23.7950
G1 X132.697 Y96.830 E23.8419
G1 X132.195 Y98.576 E23.8895
G1 X130.941 Y100.209 E23.9434
G1 X129.151 Y101.226 E23.9974
G1 X127.364 Y101.485 E24.0446
G1 X125.617 Y101.108 E24.0915
G1 X123.806 Y99.854 E24.1492
G1 X122.661 Y97.925 E24.2079
G1 X122.398 Y96.136 E24.2553
G1 X122.720 Y94.825 E24.2906
G1 X120.707 Y96.937 E24.3671
G1 X119.039 Y99.111 E24.4388
G1 X117.581 Y101.404 E24.5100
G1 X116.300 Y103.865 E24.5827
G1 X115.260 Y106.370 E24.6537
G1 X114.435 Y108.991 E24.7257
G1 X113.628 Y113.037 E24.8337
G1 X113.360 Y117.404 E24.9483
G1 X113.700 Y121.774 E25.0631
G1 X114.572 Y125.814 E25.1714
G1 X115.849 Y129.429 E25.2718
G1 X123.079 Y146.232 E25.7509
G1 X123.680 Y144.345 E25.8028
G1 X124.813 Y142.946 E25.8500
G1 X126.532 Y141.979 E25.9016
G1 X128.372 Y141.732 E25.9502
G1 X130.359 Y142.264 E26.0041
G1 X131.790 Y143.341 E26.0510
G1 X132.865 Y145.185 E26.1069
G1 X133.008 Y145.971 E26.1279
G1 X141.129 Y122.786 E26.7713
G1 X141.998 Y121.495 E26.8121
G1 X143.297 Y120.703 E26.8519
G1 X145.420 Y120.662 E26.9075
G1 X156.157 Y124.407 E27.2054
G1 X157.564 Y125.511 E27.2522
G1 X158.208 Y126.929 E27.2930
G1 X158.172 Y128.515 E27.3346
G1 X156.615 Y132.923 E27.4570
G1 X155.774 Y133.803 E27.4889
G1 X154.742 Y133.963 E27.5163
G1 X153.501 Y133.587 E27.5502
G1 X152.680 Y132.712 E27.5816
G1 X152.763 Y133.699 E27.6076
G1 X152.326 Y135.428 E27.6543
G1 X151.016 Y137.188 E27.7118
G1 X149.079 Y138.254 E27.7697
G1 X147.164 Y138.438 E27.8201
G1 X145.438 Y137.945 E27.8671
G1 X143.830 Y136.711 E27.9202
G1 X142.815 Y134.932 E27.9738
G1 X142.691 Y134.300 E27.9907
G1 X137.980 Y147.654 E28.3616
G1 X139.730 Y146.684 E28.4140
G1 X141.584 Y146.434 E28.4630
G1 X143.881 Y147.129 E28.5258
G1 X145.232 Y148.309 E28.5728
G1 X146.105 Y149.919 E28.6208
G1 X146.359 Y151.667 E28.6671
G1 X145.991 Y153.378 E28.7129
G1 X144.486 Y155.396 E28.7788
G1 X142.721 Y156.327 E28.8311
G1 X140.808 Y156.516 E28.8815
G1 X139.101 Y156.028 E28.9280
G1 X137.624 Y154.936 E28.9761
G1 X136.507 Y153.056 E29.0334
G1 X136.369 Y152.315 E29.0531
G1 X131.107 Y167.246 E29.4677
G1 X130.609 Y168.054 E29.4926
G1 X129.850 Y168.654 E29.5179
G1 X128.934 Y168.939 E29.5431
G1 X127.956 Y168.872 E29.5688
G1 X126.944 Y168.353 E29.5985
G1 X126.203 Y167.414 E29.6299
G1 X92.390 Y87.926 E31.8924
G1 X91.782 Y85.639 E31.9544
G1 X91.750 Y83.283 E32.0161
G1 X92.694 Y81.626 E32.0660
G0 F3900 X92.947 Y81.961
G1 F900 X94.255 Y81.459 E32.1027
G1 X151.292 Y81.458 E33.5967
G1 X151.993 Y81.617 E33.6155
G1 X152.664 Y82.041 E33.6363
G1 X153.150 Y82.683 E33.6574
G1 X153.353 Y83.294 E33.6742
G1 X153.149 Y85.486 E33.7319
G1 X152.643 Y86.146 E33.7537
G1 X151.995 Y86.549 E33.7737
G1 X135.154 Y86.842 E34.2148
G1 X133.883 Y87.186 E34.2493
G1 X131.070 Y88.375 E34.3293
G1 X128.618 Y89.682 E34.4021
G1 X126.454 Y91.076 E34.4695
G1 X126.667 Y91.699 E34.4868
G1 X128.060 Y91.607 E34.5233
G1 X129.774 Y92.127 E34.5702
G1 X131.200 Y93.286 E34.6184
G1 X132.138 Y95.083 E34.6715
G1 X132.291 Y96.721 E34.7146
G1 X131.862 Y98.320 E34.7579
G1 X130.608 Y99.953 E34.8119
G1 X128.950 Y100.857 E34.8613
G1 X127.310 Y101.068 E34.9046
G1 X125.711 Y100.699 E34.9476
G1 X124.050 Y99.512 E35.0011
G1 X123.026 Y97.717 E35.0552
G1 X122.815 Y96.082 E35.0984
G1 X123.223 Y94.574 E35.1393
G1 X122.695 Y94.243 E35.1556
G1 X120.388 Y96.663 E35.2432
G1 X118.699 Y98.865 E35.3159
G1 X117.211 Y101.204 E35.3885
G1 X115.921 Y103.683 E35.4617
G1 X114.864 Y106.229 E35.5339
G1 X114.028 Y108.884 E35.6068
G1 X113.211 Y112.981 E35.7162
G1 X112.939 Y117.411 E35.8325
G1 X113.283 Y121.837 E35.9488
G1 X114.166 Y125.925 E36.0583
G1 X115.458 Y129.584 E36.1599
G1 X122.828 Y146.712 E36.6483
G1 X123.498 Y146.574 E36.6662
G1 X124.006 Y144.609 E36.7194
G1 X125.139 Y143.210 E36.7666
G1 X126.732 Y142.348 E36.8140
G1 X128.421 Y142.149 E36.8585
G1 X130.244 Y142.668 E36.9082
G1 X131.532 Y143.672 E36.9510
G1 X132.499 Y145.391 E37.0026
G1 X132.638 Y146.350 E37.0280
G1 X133.313 Y146.431 E37.0458
G1 X141.525 Y122.925 E37.6980
G1 X142.344 Y121.733 E37.7359
G1 X143.506 Y121.067 E37.7709
G1 X145.282 Y121.059 E37.8175
G1 X156.019 Y124.804 E38.1153
G1 X157.187 Y125.695 E38.1538
G1 X157.788 Y126.925 E38.1896
G1 X157.775 Y128.378 E38.2277
G1 X156.304 Y132.641 E38.3458
G1 X155.594 Y133.424 E38.3735
G1 X154.864 Y133.561 E38.3930
G1 X153.623 Y133.185 E38.4269
G1 X152.830 Y132.237 E38.4593
G1 X153.679 Y129.003 E38.5469
G1 X153.582 Y128.545 E38.5591
G1 X153.287 Y128.198 E38.5711
G1 X146.151 Y125.654 E38.7695
G1 X145.546 Y125.700 E38.7854
G1 X145.121 Y126.030 E38.7995
G1 X143.873 Y129.590 E38.8983
G1 X144.428 Y129.981 E38.9161
G1 X146.266 Y128.880 E38.9722
G1 X147.997 Y128.669 E39.0179
G1 X149.997 Y129.275 E39.0726
G1 X151.264 Y130.344 E39.1160
G1 X152.186 Y132.052 E39.1668
G1 X152.354 Y133.604 E39.2077
G1 X151.989 Y135.177 E39.2500
G1 X150.679 Y136.937 E39.3075
G1 X148.883 Y137.882 E39.3607
G1 X147.273 Y138.032 E39.4030
G1 X145.688 Y137.607 E39.4460
G1 X144.195 Y136.503 E39.4946
G1 X143.180 Y134.724 E39.5483
G1 X143.058 Y133.921 E39.5695
G1 X142.382 Y133.839 E39.5874
G1 X137.479 Y147.815 E39.9753
G1 X137.999 Y148.181 E39.9920
G1 X139.942 Y147.047 E40.0509
G1 X141.632 Y146.851 E40.0955
G1 X143.610 Y147.450 E40.1496
G1 X144.863 Y148.509 E40.1926
G1 X145.736 Y150.119 E40.2405
G1 X145.942 Y151.721 E40.2828
G1 X145.582 Y153.284 E40.3248
G1 X144.284 Y155.028 E40.3818
G1 X142.673 Y155.910 E40.4299
G1 X140.917 Y156.110 E40.4762
G1 X139.351 Y155.690 E40.5187
G1 X137.874 Y154.598 E40.5668
G1 X136.872 Y152.847 E40.6196
G1 X136.737 Y151.937 E40.6437
G1 X136.062 Y151.855 E40.6615
G1 X130.711 Y167.107 E41.0849
G1 X130.254 Y167.829 E41.1073
G1 X129.599 Y168.317 E41.1286
G1 X128.821 Y168.535 E41.1498
G1 X127.997 Y168.454 E41.1715
G1 X127.147 Y167.985 E41.1969
G1 X126.589 Y167.250 E41.2211
G1 X92.776 Y87.762 E43.4836
G1 X92.188 Y85.532 E43.5440
G1 X92.170 Y83.280 E43.6030
G1 X92.947 Y81.961 E43.6431
G0 F3900 X93.193 Y82.301
G1 F900 X94.255 Y81.879 E43.6730
G1 X151.213 Y81.870 E45.1649
G1 X151.781 Y81.979 E45.1800
G1 X152.338 Y82.305 E45.1970
G1 X152.751 Y82.815 E45.2141
G1 X152.954 Y83.426 E45.2310
G1 X152.806 Y85.244 E45.2788
G1 X152.421 Y85.789 E45.2963
G1 X151.773 Y86.192 E45.3162
G1 X135.097 Y86.423 E45.7531
G1 X133.744 Y86.789 E45.7898
G1 X130.883 Y87.998 E45.8711
G1 X128.408 Y89.317 E45.9446
G1 X125.950 Y90.901 E46.0212
G1 X126.376 Y92.145 E46.0556
G1 X127.938 Y92.009 E46.0967
G1 X129.652 Y92.529 E46.1436
G1 X130.831 Y93.486 E46.1834
G1 X131.720 Y95.129 E46.2323
G1 X131.883 Y96.620 E46.2716
G1 X131.524 Y98.071 E46.3107
G1 X130.407 Y99.584 E46.3600
G1 X128.749 Y100.488 E46.4095
G1 X127.264 Y100.650 E46.4486
G1 X125.812 Y100.291 E46.4878
G1 X124.299 Y99.174 E46.5370
G1 X123.395 Y97.516 E46.5865
G1 X123.233 Y96.036 E46.6255
G1 X123.715 Y94.387 E46.6705
G1 X122.628 Y93.705 E46.7041
G1 X120.069 Y96.389 E46.8012
G1 X118.355 Y98.624 E46.8750
G1 X116.844 Y100.998 E46.9487
G1 X115.542 Y103.501 E47.0226
G1 X114.468 Y106.088 E47.0960
G1 X113.621 Y108.777 E47.1698
G1 X112.794 Y112.925 E47.2806
G1 X112.518 Y117.418 E47.3985
G1 X112.866 Y121.900 E47.5163
G1 X113.760 Y126.036 E47.6271
G1 X115.067 Y129.739 E47.7299
G1 X122.577 Y147.192 E48.2276
G1 X123.918 Y146.916 E48.2635
G1 X123.918 Y146.352 E48.2782
G1 X124.408 Y144.731 E48.3226
G1 X125.339 Y143.579 E48.3614
G1 X126.932 Y142.717 E48.4088
G1 X128.462 Y142.567 E48.4491
G1 X130.122 Y143.070 E48.4945
G1 X131.268 Y143.998 E48.5331
G1 X132.130 Y145.591 E48.5806
G1 X132.259 Y146.728 E48.6106
G1 X133.599 Y146.888 E48.6459
G1 X141.922 Y123.064 E49.3069
G1 X142.553 Y122.097 E49.3371
G1 X143.715 Y121.431 E49.3722
G1 X145.144 Y121.456 E49.4097
G1 X155.881 Y125.201 E49.7075
G1 X156.816 Y125.892 E49.7379
G1 X157.368 Y126.928 E49.7687
G1 X157.378 Y128.241 E49.8031
G1 X155.907 Y132.504 E49.9212
G1 X155.415 Y133.044 E49.9403
G1 X154.795 Y133.147 E49.9568
G1 X153.761 Y132.788 E49.9855
G1 X153.234 Y132.122 E50.0077
G1 X154.111 Y129.017 E50.0922
G1 X153.971 Y128.356 E50.1099
G1 X153.533 Y127.839 E50.1277
G1 X146.208 Y125.228 E50.3314
G1 X145.389 Y125.291 E50.3529
G1 X144.766 Y125.774 E50.3735
G1 X143.372 Y129.750 E50.4839
G1 X144.409 Y130.481 E50.5171
G1 X146.482 Y129.240 E50.5804
G1 X148.038 Y129.087 E50.6213
G1 X149.732 Y129.601 E50.6677
G1 X150.894 Y130.544 E50.7069
G1 X151.816 Y132.252 E50.7577
G1 X151.936 Y133.640 E50.7942
G1 X151.581 Y135.076 E50.8330
G1 X150.478 Y136.568 E50.8816
G1 X148.837 Y137.464 E50.9305
G1 X147.374 Y137.624 E50.9691
G1 X145.938 Y137.269 E51.0078
G1 X144.445 Y136.165 E51.0565
G1 X143.549 Y134.523 E51.1055
G1 X143.437 Y133.544 E51.1313
G1 X142.098 Y133.382 E51.1666
G1 X136.978 Y147.975 E51.5717
G1 X138.017 Y148.707 E51.6050
G1 X138.598 Y148.235 E51.6246
G1 X140.139 Y147.418 E51.6703
G1 X141.673 Y147.269 E51.7106
G1 X143.345 Y147.776 E51.7564
G1 X144.494 Y148.709 E51.7951
G1 X145.367 Y150.319 E51.8431
G1 X145.524 Y151.766 E51.8812
G1 X145.174 Y153.183 E51.9195
G1 X144.082 Y154.660 E51.9676
