;Sliced by ideaMaker 5.2.4.8581, 2025-06-08 20:07:30 UTC+0200
;Slicer Version: 5.2.3.8580
;Dimension: 250.000 250.000 250.000 0.400
;Plate Shape: 0
;Origin Center: 0
;Extruder Offset #1: 25.000 0.000
;Filament Diameter #1: 1.750
;Filament Diameter #2: 1.750
;Filament Compensation #1: 94.000
;Filament Compensation #2: 90.000
;Filament Density #1: 1240.000
;Filament Density #2: 1240.000
;Filament Type #1: PLA
;Filament Type #2: PLA
;Filament Name #1: [Raise3D] Premium PLA 1.75mm
;Filament Name #2: [Raise3D] Premium PLA 1.75mm
;Filament #1: PLA 1.75mm
;Filament #2: PLA 1.75mm
;Printer Type: floppy
;Firmware: Klipper
;Bounding Box: 101.637 148.362 101.637 148.362 0.000 11.400
;Model Gap: 0.000
M221 T0 S94.00
M140 S50.00
M104 T0 S190.00
M109 T0 S190.00
T0
M190 S50.00
G21 ;metric values
G90 ;absolute positioning
M82 ;set extruder to absolute mode
M107 ;start with the fan off
G28 X0 Y0 ;move X/Y to min endstops
G28 Z0 ;move Z to min endstops
G1 Z15.0 F9000 ;move the platform down 15mm
G92 E0 ;zero the extruded length
G0 X43 Y27 F2000  ;go to the edge of the bed
G92 X0 Y0 E0 ;set zero to edge of the bed
G0 F9000 Z1 ;Z up with 1mm
G1 F200 Z0 ;Z home slowly
G1 Z15.0 F9000 ;move the platform down 15mm
G1 F9000 ;speed setting
G92 E-3 ;retraction
M117 Printing...
M1001
;TOTAL_NUM: 1
;PRINTING_TIME: 0
;REMAINING_TIME: 1315
;LAYER:0
;Z:0.300
;HEIGHT:0.300
;PRINTING: NON-OBJECT
;PRINTING_ID: -1
G1 F2400 E-3.0000
G0 F3900 X105.314 Y111.648
G0 F300 Z0.300
;TYPE:SKIRT
;WIDTH:0.420
G1 F1500 E0.0000
G1 F900 X107.072 Y110.654 E0.1058
G1 X109.881 Y110.254 E0.2544
G1 X110.185 Y110.032 E0.2741
G1 X110.929 Y106.414 E0.4676
G1 X111.969 Y105.022 E0.5587
G1 X112.893 Y104.199 E0.6235
G1 X116.417 Y102.503 E0.8284
G1 X120.526 Y101.637 E1.0483
G1 X122.468 Y102.179 E1.1539
G1 X124.708 Y103.865 E1.3008
G1 X125.154 Y103.929 E1.3244
G1 X127.434 Y102.229 E1.4734
G1 X129.270 Y101.661 E1.5741
G1 X130.882 Y101.705 E1.6586
G1 X134.296 Y102.790 E1.8462
G1 X137.538 Y104.535 E2.0391
G1 X138.678 Y105.724 E2.1254
G1 X139.383 Y107.146 E2.2085
G1 X139.631 Y109.540 E2.3346
G1 X139.826 Y110.036 E2.3625
G1 X140.367 Y110.343 E2.3951
G1 X143.008 Y110.692 E2.5346
G1 X144.955 Y111.950 E2.6561
G1 X145.987 Y113.180 E2.7402
G1 X147.499 Y116.421 E2.9275
G1 X148.362 Y120.526 E3.1473
G1 X147.748 Y122.611 E3.2611
G1 X146.115 Y124.739 E3.4016
G1 X146.059 Y125.109 E3.4212
G1 X147.851 Y127.613 E3.5825
G1 X148.344 Y130.005 E3.7105
G1 X148.199 Y131.476 E3.7879
G1 X146.971 Y134.852 E3.9761
G1 X144.685 Y138.351 E4.1951
G1 X142.927 Y139.345 E4.3008
G1 X140.118 Y139.745 E4.4495
G1 X139.814 Y139.967 E4.4692
G1 X139.313 Y142.994 E4.6299
G1 X137.971 Y145.039 E4.7581
G1 X136.819 Y145.987 E4.8362
G1 X133.578 Y147.499 E5.0236
G1 X129.473 Y148.362 E5.2433
G1 X127.388 Y147.748 E5.3572
G1 X125.260 Y146.115 E5.4977
G1 X124.890 Y146.059 E5.5173
G1 X122.386 Y147.851 E5.6786
G1 X119.994 Y148.344 E5.8065
G1 X118.523 Y148.199 E5.8839
G1 X115.147 Y146.971 E6.0721
G1 X111.648 Y144.685 E6.2911
G1 X110.604 Y142.775 E6.4051
G1 X110.252 Y140.115 E6.5457
G1 X110.033 Y139.814 E6.5652
G1 X107.005 Y139.313 E6.7259
G1 X104.960 Y137.971 E6.8541
G1 X104.012 Y136.819 E6.9322
G1 X102.500 Y133.578 E7.1196
G1 X101.637 Y129.473 E7.3393
G1 X102.251 Y127.388 E7.4532
G1 X103.884 Y125.260 E7.5937
G1 X103.940 Y124.890 E7.6133
G1 X102.148 Y122.386 E7.7746
G1 X101.655 Y119.994 E7.9025
G1 X101.800 Y118.523 E7.9800
G1 X103.028 Y115.147 E8.1681
G1 X105.314 Y111.648 E8.3871
G0 F3900 X105.521 Y112.014
G1 F900 X107.279 Y111.020 E8.4929
G1 X110.043 Y110.656 E8.6389
G1 X110.514 Y110.311 E8.6695
G1 X110.743 Y109.858 E8.6961
G1 X111.265 Y106.665 E8.8656
G1 X112.305 Y105.273 E8.9566
G1 X113.170 Y104.515 E9.0169
G1 X116.598 Y102.882 E9.2158
G1 X120.413 Y102.042 E9.4204
G1 X122.355 Y102.584 E9.5260
G1 X124.540 Y104.265 E9.6704
G1 X125.193 Y104.359 E9.7050
G1 X125.615 Y104.214 E9.7284
G1 X127.558 Y102.630 E9.8597
G1 X129.394 Y102.062 E9.9604
G1 X130.864 Y102.125 E10.0374
G1 X134.167 Y103.190 E10.2192
G1 X137.338 Y104.904 E10.4081
G1 X138.302 Y105.911 E10.4811
G1 X139.007 Y107.333 E10.5642
G1 X139.219 Y109.640 E10.6856
G1 X139.489 Y110.327 E10.7243
G1 X140.231 Y110.748 E10.7690
G1 X142.953 Y111.108 E10.9128
G1 X144.720 Y112.298 E11.0244
G1 X145.606 Y113.358 E11.0968
G1 X147.118 Y116.599 E11.2841
G1 X147.957 Y120.413 E11.4887
G1 X147.415 Y122.355 E11.5943
G1 X145.716 Y124.569 E11.7405
G1 X145.628 Y125.151 E11.7713
G1 X145.800 Y125.636 E11.7983
G1 X147.518 Y127.869 E11.9459
G1 X147.926 Y129.968 E12.0579
G1 X147.804 Y131.332 E12.1296
G1 X146.576 Y134.708 E12.3178
G1 X144.478 Y137.985 E12.5216
G1 X142.720 Y138.979 E12.6274
G1 X139.956 Y139.343 E12.7735
G1 X139.485 Y139.688 E12.8041
G1 X139.258 Y140.137 E12.8304
G1 X138.896 Y142.940 E12.9785
G1 X137.701 Y144.717 E13.0906
G1 X136.641 Y145.606 E13.1631
G1 X133.400 Y147.118 E13.3505
G1 X129.586 Y147.957 E13.5550
G1 X127.644 Y147.415 E13.6607
G1 X125.430 Y145.716 E13.8068
G1 X124.848 Y145.628 E13.8377
G1 X124.363 Y145.800 E13.8646
G1 X122.130 Y147.518 E14.0122
G1 X120.031 Y147.926 E14.1242
G1 X118.667 Y147.804 E14.1960
G1 X115.291 Y146.576 E14.3842
G1 X112.014 Y144.478 E14.5880
G1 X111.020 Y142.720 E14.6938
G1 X110.654 Y139.953 E14.8400
G1 X110.312 Y139.485 E14.8704
G1 X109.861 Y139.258 E14.8968
G1 X107.059 Y138.896 E15.0448
G1 X105.282 Y137.701 E15.1570
G1 X104.393 Y136.641 E15.2295
G1 X102.881 Y133.400 E15.4168
G1 X102.042 Y129.586 E15.6214
G1 X102.584 Y127.644 E15.7270
G1 X104.283 Y125.430 E15.8732
G1 X104.371 Y124.848 E15.9040
G1 X104.199 Y124.363 E15.9310
G1 X102.481 Y122.130 E16.0786
G1 X102.073 Y120.031 E16.1906
G1 X102.195 Y118.667 E16.2623
G1 X103.423 Y115.291 E16.4505
G1 X105.521 Y112.014 E16.6544
G0 F3900 X105.728 Y112.380
G1 F900 X107.486 Y111.386 E16.7601
G1 X110.203 Y111.060 E16.9035
G1 X110.844 Y110.590 E16.9451
G1 X111.149 Y109.985 E16.9806
G1 X111.601 Y106.916 E17.1431
G1 X112.641 Y105.524 E17.2342
G1 X113.444 Y104.834 E17.2896
G1 X116.777 Y103.262 E17.4827
G1 X120.300 Y102.447 E17.6721
G1 X122.242 Y102.989 E17.7777
G1 X124.369 Y104.665 E17.9196
G1 X125.232 Y104.789 E17.9652
G1 X125.826 Y104.585 E17.9981
G1 X127.682 Y103.031 E18.1249
G1 X129.518 Y102.463 E18.2256
G1 X130.838 Y102.544 E18.2949
G1 X134.037 Y103.589 E18.4712
G1 X137.138 Y105.273 E18.6560
G1 X137.926 Y106.098 E18.7158
G1 X138.631 Y107.520 E18.7989
G1 X138.805 Y109.734 E18.9153
G1 X139.130 Y110.562 E18.9619
G1 X139.398 Y110.830 E18.9817
G1 X140.114 Y111.156 E19.0229
G1 X142.898 Y111.524 E19.1701
G1 X144.477 Y112.641 E19.2714
G1 X145.225 Y113.536 E19.3325
G1 X146.737 Y116.777 E19.5198
G1 X147.552 Y120.300 E19.7092
G1 X147.010 Y122.242 E19.8149
G1 X145.317 Y124.397 E19.9584
G1 X145.197 Y125.194 E20.0006
G1 X145.426 Y125.839 E20.0365
G1 X147.185 Y128.125 E20.1876
G1 X147.512 Y130.039 E20.2893
G1 X147.409 Y131.188 E20.3497
G1 X146.181 Y134.564 E20.5379
G1 X144.271 Y137.619 E20.7267
G1 X142.513 Y138.613 E20.8325
G1 X139.796 Y138.939 E20.9758
G1 X139.155 Y139.409 E21.0175
G1 X138.850 Y140.014 E21.0529
G1 X138.479 Y142.886 E21.2046
G1 X137.358 Y144.475 E21.3065
G1 X136.463 Y145.225 E21.3677
G1 X133.222 Y146.737 E21.5550
G1 X129.699 Y147.552 E21.7445
G1 X127.757 Y147.010 E21.8501
G1 X125.602 Y145.317 E21.9936
G1 X124.805 Y145.197 E22.0359
G1 X124.160 Y145.426 E22.0717
G1 X121.874 Y147.185 E22.2228
G1 X119.960 Y147.512 E22.3245
G1 X118.811 Y147.409 E22.3850
G1 X115.435 Y146.181 E22.5731
G1 X112.380 Y144.271 E22.7619
G1 X111.386 Y142.513 E22.8677
G1 X111.058 Y139.793 E23.0112
G1 X110.591 Y139.156 E23.0526
G1 X109.985 Y138.850 E23.0881
G1 X107.113 Y138.479 E23.2398
G1 X105.524 Y137.358 E23.3417
G1 X104.774 Y136.463 E23.4029
G1 X103.262 Y133.222 E23.5902
G1 X102.447 Y129.699 E23.7796
G1 X102.989 Y127.757 E23.8853
G1 X104.682 Y125.602 E24.0288
G1 X104.802 Y124.805 E24.0710
G1 X104.573 Y124.160 E24.1069
G1 X102.814 Y121.874 E24.2580
G1 X102.487 Y119.960 E24.3597
G1 X102.590 Y118.811 E24.4201
G1 X103.818 Y115.435 E24.6083
G1 X105.728 Y112.380 E24.7971
G0 F3900 X105.935 Y112.746
G1 F900 X107.693 Y111.752 E24.9029
G1 X110.361 Y111.466 E25.0434
G1 X111.173 Y110.870 E25.0962
G1 X111.557 Y110.108 E25.1409
G1 X111.937 Y107.167 E25.2962
G1 X112.977 Y105.775 E25.3873
G1 X113.714 Y105.155 E25.4377
G1 X116.955 Y103.643 E25.6251
G1 X120.187 Y102.852 E25.7994
G1 X122.129 Y103.394 E25.9050
G1 X124.195 Y105.065 E26.0442
G1 X125.271 Y105.219 E26.1011
G1 X126.037 Y104.956 E26.1435
G1 X127.952 Y103.353 E26.2744
G1 X129.635 Y102.866 E26.3661
G1 X130.708 Y102.943 E26.4225
G1 X133.907 Y103.988 E26.5988
G1 X136.937 Y105.642 E26.7796
G1 X137.617 Y106.382 E26.8323
G1 X138.253 Y107.702 E26.9090
G1 X138.390 Y109.826 E27.0205
G1 X138.771 Y110.797 E27.0752
G1 X139.154 Y111.180 E27.1035
G1 X139.997 Y111.564 E27.1521
G1 X142.843 Y111.940 E27.3024
G1 X144.225 Y112.977 E27.3930
G1 X144.844 Y113.714 E27.4434
G1 X146.356 Y116.955 E27.6307
G1 X147.147 Y120.187 E27.8050
G1 X146.605 Y122.129 E27.9106
G1 X144.919 Y124.222 E28.0514
G1 X144.766 Y125.236 E28.1052
G1 X145.052 Y126.042 E28.1500
G1 X146.852 Y128.381 E28.3046
G1 X147.096 Y130.098 E28.3954
G1 X147.014 Y131.044 E28.4452
G1 X145.786 Y134.420 E28.6333
G1 X144.064 Y137.253 E28.8070
G1 X142.306 Y138.247 E28.9128
G1 X139.638 Y138.533 E29.0534
G1 X138.826 Y139.129 E29.1061
G1 X138.442 Y139.891 E29.1508
G1 X138.062 Y142.832 E29.3062
G1 X137.022 Y144.224 E29.3972
G1 X136.285 Y144.844 E29.4477
G1 X133.044 Y146.356 E29.6350
G1 X129.812 Y147.147 E29.8093
G1 X127.870 Y146.605 E29.9149
G1 X125.777 Y144.919 E30.0557
G1 X124.763 Y144.766 E30.1094
G1 X123.957 Y145.052 E30.1542
G1 X121.618 Y146.852 E30.3088
G1 X119.901 Y147.096 E30.3997
G1 X118.955 Y147.014 E30.4494
G1 X115.579 Y145.786 E30.6376
G1 X112.746 Y144.064 E30.8113
G1 X111.752 Y142.306 E30.9171
G1 X111.464 Y139.636 E31.0578
G1 X110.870 Y138.826 E31.1104
G1 X110.108 Y138.442 E31.1551
G1 X107.167 Y138.062 E31.3104
G1 X105.775 Y137.022 E31.4014
G1 X105.155 Y136.285 E31.4519
G1 X103.643 Y133.044 E31.6392
G1 X102.852 Y129.812 E31.8135
G1 X103.394 Y127.870 E31.9192
G1 X105.080 Y125.777 E32.0600
G1 X105.233 Y124.763 E32.1137
G1 X104.947 Y123.957 E32.1585
G1 X103.147 Y121.618 E32.3131
G1 X102.903 Y119.901 E32.4039
G1 X102.985 Y118.955 E32.4537
G1 X104.213 Y115.579 E32.6419
G1 X105.935 Y112.746 E32.8155
G0 F3900 X106.293 Y112.965
G1 F900 X107.889 Y112.123 E32.9101
G1 X110.516 Y111.873 E33.0483
G1 X111.503 Y111.149 E33.1124
G1 X111.967 Y110.228 E33.1664
G1 X112.273 Y107.418 E33.3145
G1 X113.313 Y106.026 E33.4055
G1 X113.892 Y105.536 E33.4453
G1 X117.133 Y104.024 E33.6326
G1 X120.286 Y103.260 E33.8026
G1 X122.004 Y103.795 E33.8968
G1 X124.019 Y105.464 E34.0339
G1 X125.310 Y105.649 E34.1022
G1 X126.250 Y105.326 E34.1543
G1 X128.069 Y103.756 E34.2801
G1 X129.752 Y103.269 E34.3719
G1 X130.666 Y103.361 E34.4201
G1 X133.775 Y104.387 E34.5916
G1 X136.735 Y106.010 E34.7684
G1 X137.239 Y106.564 E34.8076
G1 X137.875 Y107.884 E34.8844
G1 X137.973 Y109.913 E34.9908
G1 X138.412 Y111.032 E35.0538
G1 X138.910 Y111.530 E35.0907
G1 X139.883 Y111.974 E35.1467
G1 X142.591 Y112.276 E35.2894
G1 X143.973 Y113.313 E35.3799
G1 X144.463 Y113.892 E35.4197
G1 X145.975 Y117.133 E35.6070
G1 X146.739 Y120.286 E35.7770
G1 X146.204 Y122.004 E35.8712
G1 X144.521 Y124.044 E36.0098
G1 X144.335 Y125.278 E36.0751
G1 X144.680 Y126.251 E36.1292
G1 X146.436 Y128.440 E36.2762
G1 X146.680 Y130.157 E36.3671
G1 X146.619 Y130.900 E36.4061
G1 X145.391 Y134.276 E36.5943
G1 X143.706 Y137.034 E36.7636
G1 X142.110 Y137.876 E36.8581
G1 X139.483 Y138.126 E36.9964
G1 X138.496 Y138.850 E37.0605
G1 X138.032 Y139.771 E37.1145
G1 X137.726 Y142.581 E37.2626
G1 X136.686 Y143.973 E37.3536
G1 X136.107 Y144.463 E37.3934
G1 X132.866 Y145.975 E37.5807
G1 X129.713 Y146.739 E37.7506
G1 X127.995 Y146.204 E37.8449
G1 X125.955 Y144.521 E37.9834
G1 X124.721 Y144.335 E38.0488
G1 X123.748 Y144.680 E38.1029
G1 X121.559 Y146.436 E38.2499
G1 X119.842 Y146.680 E38.3408
G1 X119.099 Y146.619 E38.3798
G1 X115.723 Y145.391 E38.5680
G1 X112.965 Y143.706 E38.7373
G1 X112.123 Y142.110 E38.8318
G1 X111.871 Y139.481 E38.9702
G1 X111.149 Y138.496 E39.0342
G1 X110.228 Y138.032 E39.0882
G1 X107.418 Y137.726 E39.2362
G1 X106.026 Y136.686 E39.3273
G1 X105.536 Y136.107 E39.3670
G1 X104.024 Y132.866 E39.5544
G1 X103.260 Y129.713 E39.7243
G1 X103.795 Y127.995 E39.8186
G1 X105.478 Y125.955 E39.9571
G1 X105.664 Y124.721 E40.0225
G1 X105.319 Y123.748 E40.0765
G1 X103.563 Y121.559 E40.2236
G1 X103.319 Y119.842 E40.3144
G1 X103.380 Y119.099 E40.3535
G1 X104.608 Y115.723 E40.5416
G1 X106.293 Y112.965 E40.7110
;PRINTING: Tool.STL
;PRINTING_ID: 0
G1 F2400 E37.7110
G0 F3900 X114.512 Y108.363
;TYPE:WALL-OUTER
;WIDTH:0.420
G1 F1500 E40.7110
G1 F2400 X115.140 Y107.612 E40.7622
G1 X117.813 Y106.346 E40.9172
G1 X120.136 Y105.686 E41.0437
G1 X120.842 Y105.923 E41.0827
G1 X122.013 Y107.087 E41.1692
G1 X123.076 Y107.719 E41.2340
G1 X124.503 Y108.091 E41.3112
G1 X125.745 Y108.058 E41.3763
G1 X127.361 Y107.502 E41.4658
G1 X128.175 Y106.931 E41.5179
G1 X129.155 Y105.927 E41.5914
G1 X129.992 Y105.685 E41.6370
G1 X132.649 Y106.531 E41.7831
G1 X135.218 Y107.905 E41.9357
G1 X135.548 Y108.570 E41.9746
G1 X135.554 Y110.223 E42.0612
G1 X135.859 Y111.417 E42.1258
G1 X136.456 Y112.499 E42.1905
G1 X137.505 Y113.548 E42.2682
G1 X139.285 Y114.361 E42.3707
G1 X141.636 Y114.512 E42.4941
G1 X142.387 Y115.140 E42.5454
G1 X143.653 Y117.813 E42.7004
G1 X144.313 Y120.136 E42.8269
G1 X144.076 Y120.842 E42.8659
G1 X142.912 Y122.013 E42.9524
G1 X142.282 Y123.074 E43.0170
G1 X141.941 Y124.260 E43.0817
G1 X141.908 Y125.491 E43.1462
G1 X142.110 Y126.464 E43.1982
G1 X142.629 Y127.584 E43.2629
G1 X144.180 Y129.347 E43.3859
G1 X144.266 Y130.321 E43.4371
G1 X143.270 Y133.111 E43.5923
G1 X142.096 Y135.217 E43.7186
G1 X141.429 Y135.548 E43.7576
G1 X139.776 Y135.554 E43.8442
G1 X138.582 Y135.859 E43.9088
G1 X137.502 Y136.455 E43.9734
G1 X136.607 Y137.305 E44.0380
G1 X135.957 Y138.352 E44.1026
G1 X135.637 Y139.296 E44.1548
G1 X135.487 Y141.636 E44.2776
G1 X134.859 Y142.387 E44.3289
G1 X132.186 Y143.653 E44.4839
G1 X129.863 Y144.313 E44.6104
G1 X129.157 Y144.076 E44.6494
G1 X127.986 Y142.912 E44.7359
G1 X126.925 Y142.282 E44.8005
G1 X125.739 Y141.941 E44.8652
G1 X124.508 Y141.908 E44.9297
G1 X123.535 Y142.110 E44.9817
G1 X122.415 Y142.629 E45.0464
G1 X120.652 Y144.180 E45.1694
G1 X119.678 Y144.266 E45.2206
G1 X116.888 Y143.270 E45.3758
G1 X114.782 Y142.096 E45.5021
G1 X114.451 Y141.429 E45.5411
G1 X114.445 Y139.776 E45.6277
G1 X114.140 Y138.582 E45.6923
G1 X113.544 Y137.502 E45.7569
G1 X112.694 Y136.607 E45.8215
G1 X111.647 Y135.957 E45.8861
G1 X110.703 Y135.637 E45.9383
G1 X108.363 Y135.487 E46.0611
G1 X107.612 Y134.859 E46.1124
G1 X106.346 Y132.186 E46.2674
G1 X105.686 Y129.863 E46.3939
G1 X105.923 Y129.157 E46.4329
G1 X107.087 Y127.986 E46.5194
G1 X107.717 Y126.925 E46.5840
G1 X108.058 Y125.739 E46.6487
G1 X108.091 Y124.508 E46.7132
G1 X107.889 Y123.535 E46.7652
G1 X107.370 Y122.415 E46.8299
G1 X105.819 Y120.652 E46.9529
G1 X105.733 Y119.678 E47.0041
G1 X106.729 Y116.888 E47.1593
G1 X107.903 Y114.782 E47.2856
G1 X108.570 Y114.451 E47.3246
G1 X110.223 Y114.445 E47.4112
G1 X111.417 Y114.140 E47.4758
G1 X112.497 Y113.544 E47.5404
G1 X113.392 Y112.694 E47.6050
G1 X114.042 Y111.647 E47.6696
G1 X114.362 Y110.703 E47.7218
G1 X114.512 Y108.363 E47.8446
G1 F2400 E44.8446
G0 F3900 X115.020 Y108.543
G0 X118.080 Y118.483
G0 X118.492 Y118.797
G1 F1500 E47.8446
G1 F2400 X117.258 Y120.429 E47.9518
G1 X116.532 Y121.978 E48.0414
G1 X116.113 Y123.635 E48.1310
G1 X116.016 Y125.342 E48.2205
G1 X116.243 Y127.036 E48.3101
G1 X116.786 Y128.656 E48.3996
G1 X117.627 Y130.145 E48.4892
G1 X118.763 Y131.473 E48.5807
G1 X120.355 Y132.698 E48.6859
G1 X121.898 Y133.438 E48.7756
G1 X123.551 Y133.872 E48.8651
G1 X125.256 Y133.986 E48.9546
G1 X126.952 Y133.775 E49.0441
G1 X128.578 Y133.247 E49.1337
G1 X130.074 Y132.420 E49.2232
G1 X131.414 Y131.298 E49.3148
G1 X132.653 Y129.716 E49.4201
G1 X133.407 Y128.182 E49.5096
G1 X133.858 Y126.533 E49.5992
G1 X133.988 Y124.828 E49.6887
G1 X133.793 Y123.130 E49.7783
G1 X133.265 Y121.465 E49.8698
G1 X132.274 Y119.716 E49.9751
G1 X131.141 Y118.434 E50.0647
G1 X129.787 Y117.390 E50.1543
