;Sliced by ideaMaker 5.2.4.8581, 2025-08-28 14:38:05 UTC+0200
;Slicer Version: 5.2.3.8580
;Dimension: 250.000 250.000 250.000 0.400
;Plate Shape: 0
;Origin Center: 0
;Extruder Offset #1: 25.000 0.000
;Filament Diameter #1: 1.750
;Filament Diameter #2: 1.750
;Filament Compensation #1: 94.000
;Filament Compensation #2: 90.000
;Filament Density #1: 1240.000
;Filament Density #2: 1240.000
;Filament Type #1: PLA
;Filament Type #2: PLA
;Filament Name #1: [Raise3D] Premium PLA 1.75mm
;Filament Name #2: [Raise3D] Premium PLA 1.75mm
;Filament #1: PLA 1.75mm
;Filament #2: PLA 1.75mm
;Printer Type: floppy
;Firmware: Klipper
;Bounding Box: 111.496 138.503 103.510 146.503 0.000 13.650
;Model Gap: 0.000
M221 T0 S94.00
M140 S50.00
M104 T0 S195.00
M109 T0 S195.00
T0
M190 S50.00
G21 ;metric values
G90 ;absolute positioning
M82 ;set extruder to absolute mode
M107 ;start with the fan off
G28 X0 Y0 ;move X/Y to min endstops
G28 Z0 ;move Z to min endstops
G1 Z15.0 F9000 ;move the platform down 15mm
G92 E0 ;zero the extruded length
G0 X43 Y27 F2000  ;go to the edge of the bed
G92 X0 Y0 E0 ;set zero to edge of the bed
G0 F9000 Z1 ;Z up with 1mm
G1 F200 Z0 ;Z home slowly
G1 Z15.0 F9000 ;move the platform down 15mm
G1 F9000 ;speed setting
G92 E-3 ;retraction
M117 Printing...
M1001
;TOTAL_NUM: 1
;PRINTING_TIME: 0
;REMAINING_TIME: 1027
;LAYER:0
;Z:0.150
;HEIGHT:0.150
M106 S153
;PRINTING: NON-OBJECT
;PRINTING_ID: -1
G1 F2400 E-5.0000
SET_VELOCITY_LIMIT ACCEL=500.00
SET_VELOCITY_LIMIT SQUARE_CORNER_VELOCITY=5.00
G0 F3900 X113.810 Y105.551
G0 F300 Z0.150
;TYPE:SKIRT
;WIDTH:0.420
G1 F1500 E0.0000
G1 F900 X115.378 Y104.409 E0.0508
G1 X117.037 Y103.755 E0.0975
G1 X118.681 Y103.512 E0.1410
G1 X131.456 Y103.510 E0.4757
G1 X133.865 Y104.068 E0.5404
G1 X135.935 Y105.305 E0.6036
G1 X136.694 Y106.064 E0.6317
G1 X137.605 Y107.392 E0.6739
G1 X138.288 Y109.213 E0.7248
G1 X138.492 Y110.707 E0.7643
G1 X138.503 Y139.099 E1.5080
G1 X138.146 Y141.294 E1.5662
G1 X137.328 Y143.066 E1.6173
G1 X136.168 Y144.468 E1.6650
G1 X134.615 Y145.588 E1.7151
G1 X133.029 Y146.224 E1.7599
G1 X118.947 Y146.503 E2.1288
G1 X116.621 Y146.108 E2.1906
G1 X114.644 Y145.124 E2.2485
G1 X113.191 Y143.776 E2.3004
G1 X112.064 Y141.876 E2.3582
G1 X111.552 Y139.824 E2.4136
G1 X111.496 Y110.902 E3.1712
G1 X111.848 Y108.720 E3.2290
G1 X112.656 Y106.953 E3.2799
G1 X113.810 Y105.551 E3.3275
G0 F3900 X114.060 Y105.889
G1 F900 X115.532 Y104.800 E3.3755
G1 X117.191 Y104.146 E3.4222
G1 X118.740 Y103.928 E3.4631
G1 X131.456 Y103.930 E3.7962
G1 X133.768 Y104.477 E3.8584
G1 X135.638 Y105.602 E3.9156
G1 X136.397 Y106.361 E3.9437
G1 X137.258 Y107.628 E3.9838
G1 X137.894 Y109.358 E4.0321
G1 X138.075 Y110.761 E4.0692
G1 X138.083 Y139.099 E4.8114
G1 X137.763 Y141.121 E4.8650
G1 X137.003 Y142.801 E4.9133
G1 X135.920 Y144.129 E4.9582
G1 X134.459 Y145.198 E5.0056
G1 X132.873 Y145.834 E5.0504
G1 X118.939 Y146.083 E5.4154
G1 X116.805 Y145.730 E5.4720
G1 X114.930 Y144.816 E5.5267
G1 X113.477 Y143.468 E5.5786
G1 X112.427 Y141.665 E5.6332
G1 X111.960 Y139.726 E5.6855
G1 X111.916 Y110.901 E6.4405
G1 X112.231 Y108.892 E6.4937
G1 X112.982 Y107.218 E6.5418
G1 X114.060 Y105.889 E6.5866
G0 F3900 X114.310 Y106.227
G1 F900 X115.782 Y105.138 E6.6346
G1 X117.342 Y104.538 E6.6784
G1 X118.796 Y104.344 E6.7168
G1 X131.456 Y104.350 E7.0484
G1 X133.554 Y104.838 E7.1048
G1 X135.341 Y105.899 E7.1592
G1 X136.100 Y106.658 E7.1873
G1 X136.909 Y107.862 E7.2253
G1 X137.499 Y109.500 E7.2709
G1 X137.658 Y110.812 E7.3056
G1 X137.663 Y139.099 E8.0465
G1 X137.379 Y140.951 E8.0955
G1 X136.675 Y142.538 E8.1410
G1 X135.669 Y143.792 E8.1831
G1 X134.303 Y144.808 E8.2277
G1 X132.717 Y145.444 E8.2725
G1 X118.932 Y145.663 E8.6336
G1 X116.989 Y145.352 E8.6851
G1 X115.114 Y144.438 E8.7397
G1 X113.766 Y143.163 E8.7883
G1 X112.792 Y141.457 E8.8398
G1 X112.369 Y139.631 E8.8889
G1 X112.336 Y110.901 E9.6414
G1 X112.615 Y109.061 E9.6901
G1 X113.310 Y107.480 E9.7354
G1 X114.310 Y106.227 E9.7774
G0 F3900 X114.563 Y106.563
G1 F900 X115.936 Y105.529 E9.8224
G1 X117.398 Y104.954 E9.8635
G1 X118.852 Y104.760 E9.9020
G1 X131.456 Y104.770 E10.2321
G1 X133.457 Y105.247 E10.2860
G1 X135.044 Y106.196 E10.3344
G1 X135.803 Y106.955 E10.3625
G1 X136.559 Y108.094 E10.3983
G1 X137.103 Y109.639 E10.4412
G1 X137.241 Y110.859 E10.4734
G1 X137.243 Y139.099 E11.2130
G1 X136.995 Y140.781 E11.2576
G1 X136.291 Y142.368 E11.3031
G1 X135.418 Y143.455 E11.3396
G1 X134.052 Y144.471 E11.3842
G1 X132.564 Y145.053 E11.4260
G1 X118.926 Y145.243 E11.7833
G1 X117.169 Y144.973 E11.8298
G1 X115.403 Y144.133 E11.8810
G1 X114.055 Y142.858 E11.9296
G1 X113.159 Y141.252 E11.9778
G1 X112.779 Y139.540 E12.0237
G1 X112.756 Y110.901 E12.7739
G1 X113.001 Y109.227 E12.8182
G1 X113.641 Y107.739 E12.8606
G1 X114.563 Y106.563 E12.8997
G0 F3900 X114.818 Y106.896
G1 F900 X116.093 Y105.919 E12.9418
G1 X117.454 Y105.370 E12.9803
G1 X118.908 Y105.176 E13.0187
G1 X131.456 Y105.190 E13.3473
G1 X133.357 Y105.655 E13.3986
G1 X134.747 Y106.493 E13.4411
G1 X135.506 Y107.252 E13.4692
G1 X136.208 Y108.324 E13.5028
G1 X136.706 Y109.775 E13.5430
G1 X136.823 Y110.902 E13.5726
G1 X136.823 Y139.099 E14.3112
G1 X136.610 Y140.614 E14.3513
G1 X135.961 Y142.108 E14.3939
G1 X135.167 Y143.118 E14.4276
G1 X133.801 Y144.134 E14.4722
G1 X132.415 Y144.660 E14.5110
G1 X118.921 Y144.823 E14.8645
G1 X117.349 Y144.594 E14.9061
G1 X115.583 Y143.754 E14.9573
G1 X114.347 Y142.556 E15.0024
G1 X113.528 Y141.051 E15.0473
G1 X113.190 Y139.453 E15.0900
G1 X113.176 Y110.901 E15.8379
G1 X113.388 Y109.390 E15.8778
G1 X113.974 Y107.995 E15.9175
G1 X114.818 Y106.896 E15.9538
;PRINTING: Kobra3_Camera3.stl
;PRINTING_ID: 0
G1 F2400 E10.9538
G1 F300 Z0.350
G0 F3900 X114.906 Y140.702
;TYPE:WALL-OUTER
;WIDTH:0.420
G1 F300 Z0.150
G1 F1500 E15.9538
G1 F2400 X114.610 Y139.428 E15.9880
G1 X114.596 Y110.923 E16.7346
G1 X114.720 Y109.883 E16.7621
G1 X115.141 Y108.805 E16.7924
G1 X115.736 Y107.980 E16.8190
G1 X116.690 Y107.206 E16.8512
G1 X117.686 Y106.772 E16.8797
G1 X118.922 Y106.596 E16.9124
G1 X131.427 Y106.610 E17.2399
G1 X132.956 Y107.018 E17.2813
G1 X133.764 Y107.518 E17.3062
G1 X134.481 Y108.235 E17.3328
G1 X134.986 Y109.051 E17.3579
G1 X135.297 Y109.953 E17.3829
G1 X135.403 Y110.920 E17.4084
G1 X135.403 Y139.076 E18.1459
G1 X135.279 Y140.115 E18.1733
G1 X134.826 Y141.252 E18.2053
G1 X134.069 Y142.215 E18.2374
G1 X133.011 Y142.954 E18.2712
G1 X131.982 Y143.308 E18.2997
G1 X118.922 Y143.403 E18.6418
G1 X117.886 Y143.279 E18.6691
G1 X116.513 Y142.681 E18.7084
G1 X115.559 Y141.814 E18.7421
G1 X114.906 Y140.702 E18.7759
G1 F2400 E13.7759
G1 F300 Z0.350
G0 F3900 X115.396 Y140.514
G0 X134.064 Y108.548
G0 X134.150 Y108.497
;TYPE:WALL-INNER
;WIDTH:0.420
G1 F300 Z0.150
G1 F1500 E18.7759
G1 F2400 X134.885 Y110.045 E18.8208
G1 X134.983 Y110.943 E18.8444
G1 X134.983 Y139.051 E19.5807
G1 X134.868 Y140.011 E19.6060
G1 X134.458 Y141.040 E19.6350
G1 X133.777 Y141.906 E19.6638
G1 X132.819 Y142.576 E19.6945
G1 X131.910 Y142.889 E19.7196
G1 X118.946 Y142.983 E20.0592
G1 X117.997 Y142.869 E20.0843
G1 X116.744 Y142.324 E20.1200
G1 X115.889 Y141.546 E20.1503
G1 X115.301 Y140.545 E20.1807
G1 X115.030 Y139.380 E20.2121
G1 X115.016 Y110.948 E20.9568
G1 X115.131 Y109.986 E20.9821
G1 X115.513 Y109.007 E21.0097
G1 X116.044 Y108.271 E21.0334
G1 X116.910 Y107.568 E21.0626
G1 X117.802 Y107.180 E21.0881
G1 X118.952 Y107.016 E21.1185
G1 X131.372 Y107.030 E21.4439
G1 X132.788 Y107.408 E21.4822
G1 X133.502 Y107.849 E21.5042
G1 X134.150 Y108.497 E21.5282
G0 F3900 X134.120 Y108.876
;TYPE:SOLID-FILL
;WIDTH:0.420
G1 F2400 X133.286 Y108.042 E21.5591
G0 F2400 X132.059 Y107.409
G1 F2400 X134.655 Y110.006 E21.6553
G0 F2400 X134.767 Y110.711
G1 F2400 X131.274 Y107.218 E21.7847
G0 F2400 X130.679 Y107.217
G1 F2400 X134.794 Y111.332 E21.9371
G0 F2400 X134.794 Y111.926
G1 F2400 X130.085 Y107.217 E22.1115
G0 F2400 X129.491 Y107.217
G1 F2400 X134.794 Y112.520 E22.3080
G0 F2400 X134.794 Y113.114
G1 F2400 X128.896 Y107.216 E22.5264
G0 F2400 X128.301 Y107.215
G1 F2400 X134.794 Y113.708 E22.7670
G0 F2400 X134.794 Y114.302
G1 F2400 X127.707 Y107.215 E23.0295
G0 F2400 X127.112 Y107.214
G1 F2400 X134.794 Y114.896 E23.3140
G0 F2400 X134.794 Y115.490
G1 F2400 X126.517 Y107.213 E23.6206
G0 F2400 X125.922 Y107.212
G1 F2400 X134.794 Y116.084 E23.9492
G0 F2400 X134.794 Y116.678
G1 F2400 X125.328 Y107.212 E24.2999
G0 F2400 X124.733 Y107.211
G1 F2400 X134.794 Y117.272 E24.6726
G0 F2400 X134.794 Y117.866
G1 F2400 X124.138 Y107.210 E25.0673
G0 F2400 X123.544 Y107.210
G1 F2400 X134.794 Y118.460 E25.4840
G0 F2400 X134.794 Y119.054
G1 F2400 X122.950 Y107.210 E25.9227
G0 F2400 X122.355 Y107.209
G1 F2400 X134.794 Y119.648 E26.3835
G0 F2400 X134.794 Y120.242
G1 F2400 X121.760 Y107.208 E26.8663
G0 F2400 X121.166 Y107.207
G1 F2400 X134.794 Y120.836 E27.3711
G0 F2400 X134.794 Y121.430
G1 F2400 X120.571 Y107.207 E27.8979
G0 F2400 X119.976 Y107.206
G1 F2400 X134.794 Y122.024 E28.4468
G0 F2400 X134.794 Y122.617
G1 F2400 X119.382 Y107.205 E29.0177
G0 F2400 X118.810 Y107.227
G1 F2400 X134.794 Y123.211 E29.6098
G0 F2400 X134.794 Y123.805
G1 F2400 X118.290 Y107.302 E30.2211
G0 F2400 X117.787 Y107.393
G1 F2400 X134.794 Y124.399 E30.8510
G0 F2400 X134.794 Y124.993
G1 F2400 X117.373 Y107.572 E31.4963
G0 F2400 X116.969 Y107.763
G1 F2400 X134.794 Y125.587 E32.1566
G0 F2400 X134.794 Y126.181
G1 F2400 X116.641 Y108.028 E32.8290
G0 F2400 X116.313 Y108.294
G1 F2400 X134.794 Y126.775 E33.5136
G0 F2400 X134.794 Y127.369
G1 F2400 X116.032 Y108.608 E34.2085
G0 F2400 X115.783 Y108.953
G1 F2400 X134.794 Y127.963 E34.9127
G0 F2400 X134.794 Y128.557
G1 F2400 X115.582 Y109.345 E35.6243
G0 F2400 X115.415 Y109.772
G1 F2400 X134.794 Y129.151 E36.3422
G0 F2400 X134.794 Y129.745
G1 F2400 X115.289 Y110.240 E37.0647
G0 F2400 X115.226 Y110.771
G1 F2400 X134.794 Y130.339 E37.7895
G0 F2400 X134.794 Y130.933
G1 F2400 X115.204 Y111.343 E38.5151
G0 F2400 X115.204 Y111.937
G1 F2400 X134.794 Y131.527 E39.2408
G0 F2400 X134.794 Y132.121
G1 F2400 X115.205 Y112.532 E39.9664
G0 F2400 X115.205 Y113.126
G1 F2400 X134.794 Y132.715 E40.6920
G0 F2400 X134.794 Y133.309
G1 F2400 X115.206 Y113.721 E41.4176
G0 F2400 X115.206 Y114.315
G1 F2400 X134.794 Y133.903 E42.1431
G0 F2400 X134.794 Y134.497
G1 F2400 X115.206 Y114.909 E42.8687
G0 F2400 X115.206 Y115.503
G1 F2400 X134.794 Y135.091 E43.5943
G0 F2400 X134.794 Y135.685
G1 F2400 X115.206 Y116.097 E44.3199
G0 F2400 X115.207 Y116.692
G1 F2400 X134.794 Y136.279 E45.0454
G0 F2400 X134.794 Y136.873
G1 F2400 X115.207 Y117.286 E45.7709
G0 F2400 X115.208 Y117.881
G1 F2400 X134.794 Y137.467 E46.4964
G0 F2400 X134.794 Y138.061
G1 F2400 X115.208 Y118.475 E47.2219
G0 F2400 X115.208 Y119.069
G1 F2400 X134.794 Y138.655 E47.9474
G0 F2400 X134.772 Y139.227
G1 F2400 X115.208 Y119.663 E48.6721
G0 F2400 X115.208 Y120.257
G1 F2400 X134.708 Y139.757 E49.3944
G0 F2400 X134.580 Y140.223
G1 F2400 X115.209 Y120.852 E50.1119
G0 F2400 X115.209 Y121.446
G1 F2400 X134.411 Y140.647 E50.8232
G0 F2400 X134.213 Y141.044
G1 F2400 X115.210 Y122.040 E51.5271
G0 F2400 X115.210 Y122.634
G1 F2400 X133.952 Y141.376 E52.2213
G0 F2400 X133.691 Y141.709
G1 F2400 X115.211 Y123.229 E52.9059
G0 F2400 X115.211 Y123.823
G1 F2400 X133.356 Y141.968 E53.5780
G0 F2400 X133.006 Y142.213
G1 F2400 X115.211 Y124.417 E54.2372
G0 F2400 X115.211 Y125.012
G1 F2400 X132.636 Y142.437 E54.8826
G0 F2400 X132.195 Y142.589
G1 F2400 X115.211 Y125.606 E55.5117
G0 F2400 X115.212 Y126.200
G1 F2400 X131.711 Y142.699 E56.1229
G0 F2400 X131.121 Y142.704
G1 F2400 X115.212 Y126.794 E56.7122
G0 F2400 X115.213 Y127.389
G1 F2400 X130.531 Y142.708 E57.2796
G0 F2400 X129.942 Y142.712
G1 F2400 X115.213 Y127.983 E57.8252
G0 F2400 X115.213 Y128.578
G1 F2400 X129.352 Y142.716 E58.3489
G0 F2400 X128.763 Y142.721
G1 F2400 X115.213 Y129.172 E58.8508
G0 F2400 X115.213 Y129.766
G1 F2400 X128.173 Y142.725 E59.3308
G0 F2400 X127.583 Y142.730
G1 F2400 X115.214 Y130.360 E59.7890
G0 F2400 X115.214 Y130.954
G1 F2400 X126.994 Y142.734 E60.2254
G0 F2400 X126.404 Y142.738
G1 F2400 X115.215 Y131.549 E60.6398
G0 F2400 X115.215 Y132.143
G1 F2400 X125.814 Y142.742 E61.0324
G0 F2400 X125.225 Y142.747
G1 F2400 X115.215 Y132.738 E61.4032
G0 F2400 X115.215 Y133.332
G1 F2400 X124.635 Y142.751 E61.7521
G0 F2400 X124.045 Y142.755
G1 F2400 X115.215 Y133.926 E62.0792
G0 F2400 X115.216 Y134.520
G1 F2400 X123.455 Y142.759 E62.3844
G0 F2400 X122.866 Y142.764
G1 F2400 X115.216 Y135.114 E62.6677
G0 F2400 X115.217 Y135.709
G1 F2400 X122.276 Y142.768 E62.9292
G0 F2400 X121.686 Y142.772
G1 F2400 X115.217 Y136.303 E63.1688
G0 F2400 X115.218 Y136.897
G1 F2400 X121.096 Y142.776 E63.3866
G0 F2400 X120.507 Y142.781
G1 F2400 X115.218 Y137.491 E63.5825
G0 F2400 X115.218 Y138.086
G1 F2400 X119.918 Y142.786 E63.7566
G0 F2400 X119.328 Y142.790
G1 F2400 X115.218 Y138.680 E63.9088
G0 F2400 X115.218 Y139.274
G1 F2400 X118.706 Y142.762 E64.0380
G0 F2400 X118.021 Y142.671
G1 F2400 X115.373 Y140.023 E64.1361
G0 F2400 X115.833 Y141.076
G1 F2400 X116.972 Y142.216 E64.1783
;PRINTING_TIME: 103
;REMAINING_TIME: 924
;LAYER:1
;Z:0.450
;HEIGHT:0.300
;PRINTING: Kobra3_Camera3.stl
;PRINTING_ID: 0
G1 F2400 E59.1783
G1 F300 Z0.650
G0 F3900 X132.564 Y107.149
G0 F300 Z0.450
G0 F3900 X132.763 Y106.661
;TYPE:WALL-OUTER
;WIDTH:0.420
G1 F300 Z0.150
G1 F1500 E64.1783
G1 F2100 X134.200 Y107.560 Z0.175 E64.1859
G1 X135.125 Y108.773 Z0.198 E64.1987
G1 X135.599 Y110.228 Z0.221 E64.2178
G1 X135.602 Y112.134 Z0.250 E64.2510
G1 X135.605 Y114.040 Z0.278 E64.2938
G1 X135.608 Y115.946 Z0.307 E64.3460
G1 X135.611 Y117.852 Z0.336 E64.4078
G1 X135.614 Y119.758 Z0.364 E64.4791
G1 X135.617 Y121.664 Z0.393 E64.5599
G1 X135.620 Y123.570 Z0.421 E64.6502
G1 X135.624 Y125.477 Z0.450 E64.7501
G1 X135.648 Y139.072 Z0.450 E65.4623
G1 X135.337 Y140.767 Z0.450 E65.5526
G1 X134.660 Y141.947 Z0.450 E65.6238
G1 X133.946 Y142.661 Z0.450 E65.6767
G1 X132.916 Y143.275 Z0.450 E65.7395
G1 X131.776 Y143.599 Z0.450 E65.8016
G1 X118.927 Y143.648 Z0.450 E66.4747
G1 X117.232 Y143.337 Z0.450 E66.5650
G1 X116.057 Y142.663 Z0.450 E66.6360
G1 X115.236 Y141.807 Z0.450 E66.6981
G1 X114.659 Y140.763 Z0.450 E66.7606
G1 X114.362 Y139.426 Z0.450 E66.8323
G1 X114.351 Y110.928 Z0.450 E68.3252
G1 X114.662 Y109.232 Z0.450 E68.4155
G1 X115.339 Y108.052 Z0.450 E68.4868
G1 X116.053 Y107.338 Z0.450 E68.5397
G1 X117.083 Y106.724 Z0.450 E68.6025
G1 X118.223 Y106.400 Z0.450 E68.6646
G1 X131.072 Y106.351 Z0.450 E69.3377
G1 X132.763 Y106.661 Z0.450 E69.4277
G1 X134.200 Y107.560 Z0.450 E69.5090
G1 X135.125 Y108.773 Z0.450 E69.5760
G1 X135.599 Y110.228 Z0.450 E69.6371
G1 X135.602 Y112.134 Z0.450 E69.7038
G1 X135.605 Y114.040 Z0.450 E69.7609
G1 X135.608 Y115.946 Z0.450 E69.8084
G1 X135.611 Y117.852 Z0.450 E69.8465
G1 X135.614 Y119.758 Z0.450 E69.8751
G1 X135.617 Y121.664 Z0.450 E69.8941
G1 X135.620 Y123.570 Z0.450 E69.9036
G1 X135.624 Y125.477 Z0.450 E69.9036
G1 F2400 E64.9036
G1 F300 Z0.650
G0 F3900 X135.104 Y125.477
G0 X132.564 Y107.149
G0 X132.608 Y107.060
;TYPE:WALL-INNER
;WIDTH:0.420
;FLOW:90.0
G1 F300 Z0.150
G1 F1500 E69.9036
G1 F2400 X133.912 Y107.875 Z0.173 E69.9092
G1 X134.748 Y108.971 Z0.194 E69.9187
G1 X135.179 Y110.295 Z0.215 E69.9328
G1 X135.182 Y112.256 Z0.244 E69.9618
G1 X135.185 Y114.217 Z0.273 E69.9998
G1 X135.188 Y116.178 Z0.303 E70.0470
G1 X135.192 Y118.140 Z0.332 E70.1032
G1 X135.195 Y120.101 Z0.362 E70.1684
G1 X135.198 Y122.063 Z0.391 E70.2428
G1 X135.201 Y124.024 Z0.421 E70.3261
G1 X135.205 Y125.986 Z0.450 E70.4186
G1 X135.228 Y139.034 Z0.450 E71.0338
G1 X134.937 Y140.620 Z0.450 E71.1098
G1 X134.324 Y141.690 Z0.450 E71.1680
G1 X133.686 Y142.327 Z0.450 E71.2105
G1 X132.748 Y142.886 Z0.450 E71.2620
G1 X131.717 Y143.179 Z0.450 E71.3125
G1 X118.964 Y143.228 Z0.450 E71.9138
G1 X117.379 Y142.937 Z0.450 E71.9897
G1 X116.318 Y142.329 Z0.450 E72.0474
G1 X115.577 Y141.556 Z0.450 E72.0979
G1 X115.056 Y140.613 Z0.450 E72.1487
G1 X114.782 Y139.380 Z0.450 E72.2082
G1 X114.771 Y110.966 Z0.450 E73.5478
G1 X115.062 Y109.379 Z0.450 E73.6239
G1 X115.675 Y108.309 Z0.450 E73.6820
G1 X116.313 Y107.672 Z0.450 E73.7245
G1 X117.251 Y107.113 Z0.450 E73.7760
G1 X118.282 Y106.820 Z0.450 E73.8265
