;Sliced by ideaMaker 5.2.4.8581, 2025-08-13 09:01:18 UTC+0200
;Slicer Version: 5.2.3.8580
;Dimension: 250.000 250.000 250.000 0.400
;Plate Shape: 0
;Origin Center: 0
;Extruder Offset #1: 25.000 0.000
;Filament Diameter #1: 1.750
;Filament Diameter #2: 1.750
;Filament Compensation #1: 94.000
;Filament Compensation #2: 90.000
;Filament Density #1: 1240.000
;Filament Density #2: 1240.000
;Filament Type #1: PLA
;Filament Type #2: PLA
;Filament Name #1: [Raise3D] Premium PLA 1.75mm
;Filament Name #2: [Raise3D] Premium PLA 1.75mm
;Filament #1: PLA 1.75mm
;Filament #2: PLA 1.75mm
;Printer Type: floppy
;Firmware: Klipper
;Bounding Box: 50.657 199.342 105.891 144.140 0.000 46.300
;Model Gap: 0.000
M221 T0 S94.00
M140 S50.00
M104 T0 S195.00
M109 T0 S195.00
T0
M190 S50.00
G21 ;metric values
G90 ;absolute positioning
M82 ;set extruder to absolute mode
M107 ;start with the fan off
G28 X0 Y0 ;move X/Y to min endstops
G28 Z0 ;move Z to min endstops
G1 Z15.0 F9000 ;move the platform down 15mm
G92 E0 ;zero the extruded length
G0 X43 Y27 F2000  ;go to the edge of the bed
G92 X0 Y0 E0 ;set zero to edge of the bed
G0 F9000 Z1 ;Z up with 1mm
G1 F200 Z0 ;Z home slowly
G1 Z15.0 F9000 ;move the platform down 15mm
G1 F9000 ;speed setting
G92 E-3 ;retraction
M117 Printing...
M1001
;TOTAL_NUM: 1
;PRINTING_TIME: 0
;REMAINING_TIME: 7565
;LAYER:0
;Z:0.100
;HEIGHT:0.100
;PRINTING: NON-OBJECT
;PRINTING_ID: -1
G1 F2400 E-5.0000
G0 F3900 X53.126 Y105.927
G0 F300 Z0.100
;TYPE:SKIRT
;WIDTH:0.420
G1 F1500 E0.0000
G1 F900 X196.724 Y105.891 E2.5074
G1 X198.760 Y107.009 E2.5480
G1 X199.342 Y108.748 E2.5800
G1 X199.342 Y141.253 E3.1476
G1 X198.620 Y143.159 E3.1832
G1 X196.873 Y144.073 E3.2176
G1 X53.544 Y144.140 E5.7204
G1 X51.638 Y143.418 E5.7560
G1 X50.724 Y141.671 E5.7904
G1 X50.657 Y108.747 E6.3653
G1 X51.379 Y106.841 E6.4009
G1 X53.126 Y105.927 E6.4353
G0 F3900 X53.316 Y106.302
G1 F900 X196.724 Y106.311 E8.9395
G1 X198.430 Y107.269 E8.9736
G1 X198.922 Y108.748 E9.0008
G1 X198.922 Y141.253 E9.5684
G1 X198.313 Y142.873 E9.5986
G1 X196.683 Y143.698 E9.6305
G1 X53.544 Y143.720 E12.1300
G1 X51.924 Y143.111 E12.1602
G1 X51.099 Y141.481 E12.1921
G1 X51.077 Y108.747 E12.7637
G1 X51.686 Y107.127 E12.7939
G1 X53.316 Y106.302 E12.8258
G0 F3900 X53.316 Y106.722
G1 F900 X196.724 Y106.731 E15.3299
G1 X198.097 Y107.525 E15.3576
G1 X198.502 Y108.748 E15.3801
G1 X198.502 Y141.253 E15.9477
G1 X198.005 Y142.588 E15.9726
G1 X196.683 Y143.278 E15.9986
G1 X53.544 Y143.300 E18.4981
G1 X52.209 Y142.803 E18.5229
G1 X51.519 Y141.481 E18.5490
G1 X51.497 Y108.747 E19.1206
G1 X51.994 Y107.412 E19.1454
G1 X53.316 Y106.722 E19.1715
G0 F3900 X53.316 Y107.142
G1 F900 X196.724 Y107.151 E21.6756
G1 X197.759 Y107.775 E21.6967
G1 X198.082 Y108.748 E21.7146
G1 X198.082 Y141.253 E22.2822
G1 X197.696 Y142.304 E22.3017
G1 X196.683 Y142.858 E22.3219
G1 X53.544 Y142.880 E24.8213
G1 X52.493 Y142.494 E24.8409
G1 X51.939 Y141.481 E24.8611
G1 X51.917 Y108.747 E25.4326
G1 X52.303 Y107.696 E25.4522
G1 X53.316 Y107.142 E25.4723
G0 F3900 X53.316 Y107.562
G1 F900 X196.724 Y107.571 E27.9765
G1 X197.414 Y108.015 E27.9908
G1 X197.662 Y108.748 E28.0043
G1 X197.662 Y141.253 E28.5719
G1 X197.385 Y142.022 E28.5862
G1 X196.683 Y142.438 E28.6004
G1 X53.544 Y142.460 E31.0999
G1 X52.775 Y142.183 E31.1141
G1 X52.359 Y141.481 E31.1284
G1 X52.337 Y108.747 E31.7000
G1 X52.614 Y107.978 E31.7142
G1 X53.316 Y107.562 E31.7285
;PRINTING: p2_Mountain_napkin_holder.stl
;PRINTING_ID: 0
G1 F2400 E26.7285
G1 F300 Z0.300
G0 F3900 X53.757 Y108.960
;TYPE:WALL-OUTER
;WIDTH:0.420
G1 F300 Z0.100
G1 F1500 E31.7285
G1 F2400 X196.242 Y108.960 E34.2165
G1 X196.242 Y141.040 E34.7767
G1 X53.757 Y141.040 E37.2647
G1 X53.757 Y108.960 E37.8248
G0 F3900 X54.177 Y109.380
;TYPE:WALL-INNER
;WIDTH:0.420
G1 F2400 X195.822 Y109.380 E40.2982
G1 X195.822 Y140.620 E40.8437
G1 X54.177 Y140.620 E43.3170
G1 X54.177 Y109.380 E43.8625
G1 F2400 E38.8625
G1 F300 Z0.300
G0 F3900 X54.277 Y109.390
G0 X54.365 Y140.194
;TYPE:SOLID-FILL
;WIDTH:0.420
G1 F300 Z0.100
G1 F1500 E43.8625
G1 F2400 X54.602 Y140.430 E43.8684
G0 F2400 X55.196 Y140.430
G1 F2400 X54.365 Y139.600 E43.8889
G0 F2400 X54.365 Y139.006
G1 F2400 X55.790 Y140.430 E43.9241
G0 F2400 X56.383 Y140.430
G1 F2400 X54.365 Y138.412 E43.9739
G0 F2400 X54.365 Y137.818
G1 F2400 X56.977 Y140.430 E44.0384
G0 F2400 X57.571 Y140.430
G1 F2400 X54.365 Y137.224 E44.1176
G0 F2400 X54.365 Y136.630
G1 F2400 X58.165 Y140.430 E44.2114
G0 F2400 X58.759 Y140.430
G1 F2400 X54.365 Y136.036 E44.3199
G0 F2400 X54.365 Y135.442
G1 F2400 X59.353 Y140.430 E44.4431
G0 F2400 X59.947 Y140.430
G1 F2400 X54.365 Y134.848 E44.5809
G0 F2400 X54.365 Y134.254
G1 F2400 X60.541 Y140.430 E44.7334
G0 F2400 X61.135 Y140.430
G1 F2400 X54.365 Y133.660 E44.9006
G0 F2400 X54.365 Y133.066
G1 F2400 X61.729 Y140.430 E45.0825
G0 F2400 X62.323 Y140.430
G1 F2400 X54.365 Y132.472 E45.2790
G0 F2400 X54.365 Y131.878
G1 F2400 X62.917 Y140.430 E45.4902
G0 F2400 X63.511 Y140.430
G1 F2400 X54.365 Y131.284 E45.7160
G0 F2400 X54.365 Y130.691
G1 F2400 X64.105 Y140.430 E45.9565
G0 F2400 X64.699 Y140.430
G1 F2400 X54.365 Y130.097 E46.2117
G0 F2400 X54.365 Y129.503
G1 F2400 X65.293 Y140.430 E46.4816
G0 F2400 X65.887 Y140.430
G1 F2400 X54.365 Y128.909 E46.7661
G0 F2400 X54.365 Y128.315
G1 F2400 X66.481 Y140.430 E47.0653
G0 F2400 X67.075 Y140.430
G1 F2400 X54.365 Y127.721 E47.3791
G0 F2400 X54.365 Y127.127
G1 F2400 X67.669 Y140.430 E47.7076
G0 F2400 X68.263 Y140.430
G1 F2400 X54.365 Y126.533 E48.0508
G0 F2400 X54.365 Y125.939
G1 F2400 X68.857 Y140.430 E48.4087
G0 F2400 X69.451 Y140.430
G1 F2400 X54.365 Y125.345 E48.7812
G0 F2400 X54.365 Y124.751
G1 F2400 X70.045 Y140.430 E49.1684
G0 F2400 X70.639 Y140.430
G1 F2400 X54.365 Y124.157 E49.5703
G0 F2400 X54.365 Y123.563
G1 F2400 X71.233 Y140.430 E49.9868
G0 F2400 X71.827 Y140.430
G1 F2400 X54.365 Y122.969 E50.4180
G0 F2400 X54.365 Y122.375
G1 F2400 X72.421 Y140.430 E50.8639
G0 F2400 X73.015 Y140.430
G1 F2400 X54.365 Y121.781 E51.3244
G0 F2400 X54.365 Y121.187
G1 F2400 X73.609 Y140.430 E51.7996
G0 F2400 X74.203 Y140.430
G1 F2400 X54.365 Y120.593 E52.2895
G0 F2400 X54.365 Y119.999
G1 F2400 X74.797 Y140.430 E52.7941
G0 F2400 X75.391 Y140.430
G1 F2400 X54.365 Y119.405 E53.3133
G0 F2400 X54.365 Y118.811
G1 F2400 X75.984 Y140.430 E53.8471
G0 F2400 X76.578 Y140.430
G1 F2400 X54.365 Y118.217 E54.3957
G0 F2400 X54.365 Y117.623
G1 F2400 X77.172 Y140.430 E54.9589
G0 F2400 X77.766 Y140.430
G1 F2400 X54.365 Y117.029 E55.5367
G0 F2400 X54.365 Y116.435
G1 F2400 X78.360 Y140.430 E56.1293
G0 F2400 X78.954 Y140.430
G1 F2400 X54.365 Y115.841 E56.7365
G0 F2400 X54.365 Y115.247
G1 F2400 X79.548 Y140.430 E57.3584
G0 F2400 X80.142 Y140.430
G1 F2400 X54.365 Y114.653 E57.9949
G0 F2400 X54.365 Y114.059
G1 F2400 X80.736 Y140.430 E58.6461
G0 F2400 X81.330 Y140.430
G1 F2400 X54.365 Y113.465 E59.3120
G0 F2400 X54.365 Y112.871
G1 F2400 X81.924 Y140.430 E59.9926
G0 F2400 X82.518 Y140.430
G1 F2400 X54.365 Y112.277 E60.6878
G0 F2400 X54.365 Y111.683
G1 F2400 X83.112 Y140.430 E61.3977
G0 F2400 X83.706 Y140.430
G1 F2400 X54.365 Y111.090 E62.1222
G0 F2400 X54.365 Y110.496
G1 F2400 X84.300 Y140.430 E62.8614
G0 F2400 X84.894 Y140.430
G1 F2400 X54.365 Y109.902 E63.6153
G0 F2400 X54.626 Y109.569
G1 F2400 X85.488 Y140.430 E64.3774
G0 F2400 X86.082 Y140.430
G1 F2400 X55.220 Y109.569 E65.1395
G0 F2400 X55.814 Y109.569
G1 F2400 X86.676 Y140.430 E65.9016
G0 F2400 X87.270 Y140.430
G1 F2400 X56.408 Y109.569 E66.6638
G0 F2400 X57.002 Y109.569
G1 F2400 X87.864 Y140.430 E67.4259
G0 F2400 X88.458 Y140.430
G1 F2400 X57.596 Y109.569 E68.1880
G0 F2400 X58.190 Y109.569
G1 F2400 X89.052 Y140.430 E68.9501
G0 F2400 X89.646 Y140.430
G1 F2400 X58.784 Y109.569 E69.7122
G0 F2400 X59.378 Y109.569
G1 F2400 X90.240 Y140.430 E70.4743
G0 F2400 X90.834 Y140.430
G1 F2400 X59.972 Y109.569 E71.2364
G0 F2400 X60.566 Y109.569
G1 F2400 X91.428 Y140.430 E71.9985
G0 F2400 X92.022 Y140.430
G1 F2400 X61.160 Y109.569 E72.7606
G0 F2400 X61.754 Y109.569
G1 F2400 X92.616 Y140.430 E73.5227
G0 F2400 X93.210 Y140.430
G1 F2400 X62.348 Y109.569 E74.2848
G0 F2400 X62.942 Y109.569
G1 F2400 X93.804 Y140.430 E75.0469
G0 F2400 X94.398 Y140.430
G1 F2400 X63.536 Y109.569 E75.8090
G0 F2400 X64.130 Y109.569
G1 F2400 X94.992 Y140.430 E76.5711
G0 F2400 X95.585 Y140.430
G1 F2400 X64.724 Y109.569 E77.3332
G0 F2400 X65.318 Y109.569
G1 F2400 X96.179 Y140.430 E78.0953
G0 F2400 X96.773 Y140.430
G1 F2400 X65.912 Y109.569 E78.8574
G0 F2400 X66.506 Y109.569
G1 F2400 X97.367 Y140.430 E79.6195
G0 F2400 X97.961 Y140.430
G1 F2400 X67.100 Y109.569 E80.3816
G0 F2400 X67.694 Y109.569
G1 F2400 X98.555 Y140.430 E81.1437
G0 F2400 X99.149 Y140.430
G1 F2400 X68.288 Y109.569 E81.9058
G0 F2400 X68.882 Y109.569
G1 F2400 X99.743 Y140.430 E82.6679
G0 F2400 X100.337 Y140.430
G1 F2400 X69.476 Y109.569 E83.4300
G0 F2400 X70.070 Y109.569
G1 F2400 X100.931 Y140.430 E84.1921
G0 F2400 X101.525 Y140.430
G1 F2400 X70.664 Y109.569 E84.9542
G0 F2400 X71.257 Y109.569
G1 F2400 X102.119 Y140.430 E85.7163
G0 F2400 X102.713 Y140.430
G1 F2400 X71.851 Y109.569 E86.4784
G0 F2400 X72.445 Y109.569
G1 F2400 X103.307 Y140.430 E87.2405
G0 F2400 X103.901 Y140.430
G1 F2400 X73.039 Y109.569 E88.0026
G0 F2400 X73.633 Y109.569
G1 F2400 X104.495 Y140.430 E88.7647
G0 F2400 X105.089 Y140.430
G1 F2400 X74.227 Y109.569 E89.5268
G0 F2400 X74.821 Y109.569
G1 F2400 X105.683 Y140.430 E90.2889
G0 F2400 X106.277 Y140.430
G1 F2400 X75.415 Y109.569 E91.0510
G0 F2400 X76.009 Y109.569
G1 F2400 X106.871 Y140.430 E91.8131
G0 F2400 X107.465 Y140.430
G1 F2400 X76.603 Y109.569 E92.5752
G0 F2400 X77.197 Y109.569
G1 F2400 X108.059 Y140.430 E93.3373
G0 F2400 X108.653 Y140.430
G1 F2400 X77.791 Y109.569 E94.0994
G0 F2400 X78.385 Y109.569
G1 F2400 X109.247 Y140.430 E94.8615
G0 F2400 X109.841 Y140.430
G1 F2400 X78.979 Y109.569 E95.6236
G0 F2400 X79.573 Y109.569
G1 F2400 X110.435 Y140.430 E96.3857
G0 F2400 X111.029 Y140.430
G1 F2400 X80.167 Y109.569 E97.1479
G0 F2400 X80.761 Y109.569
G1 F2400 X111.623 Y140.430 E97.9100
G0 F2400 X112.217 Y140.430
G1 F2400 X81.355 Y109.569 E98.6721
G0 F2400 X81.949 Y109.569
G1 F2400 X112.811 Y140.430 E99.4342
G0 F2400 X113.405 Y140.430
G1 F2400 X82.543 Y109.569 E100.1963
G0 F2400 X83.137 Y109.569
G1 F2400 X113.999 Y140.430 E100.9584
G0 F2400 X114.593 Y140.430
G1 F2400 X83.731 Y109.569 E101.7205
G0 F2400 X84.325 Y109.569
G1 F2400 X115.186 Y140.430 E102.4826
G0 F2400 X115.780 Y140.430
G1 F2400 X84.919 Y109.569 E103.2447
G0 F2400 X85.513 Y109.569
G1 F2400 X116.374 Y140.430 E104.0068
G0 F2400 X116.968 Y140.430
G1 F2400 X86.107 Y109.569 E104.7689
G0 F2400 X86.701 Y109.569
G1 F2400 X117.562 Y140.430 E105.5310
G0 F2400 X118.156 Y140.430
G1 F2400 X87.295 Y109.569 E106.2931
G0 F2400 X87.889 Y109.569
G1 F2400 X118.750 Y140.430 E107.0551
G0 F2400 X119.344 Y140.430
G1 F2400 X88.483 Y109.569 E107.8172
G0 F2400 X89.077 Y109.569
G1 F2400 X119.938 Y140.430 E108.5793
G0 F2400 X120.532 Y140.430
G1 F2400 X89.671 Y109.569 E109.3414
G0 F2400 X90.265 Y109.569
G1 F2400 X121.126 Y140.430 E110.1035
G0 F2400 X121.720 Y140.430
G1 F2400 X90.858 Y109.569 E110.8656
G0 F2400 X91.452 Y109.569
G1 F2400 X122.314 Y140.430 E111.6277
G0 F2400 X122.908 Y140.430
G1 F2400 X92.046 Y109.569 E112.3898
G0 F2400 X92.640 Y109.569
G1 F2400 X123.502 Y140.430 E113.1519
G0 F2400 X124.096 Y140.430
G1 F2400 X93.234 Y109.569 E113.9141
G0 F2400 X93.828 Y109.569
G1 F2400 X124.690 Y140.430 E114.6762
G0 F2400 X125.284 Y140.430
G1 F2400 X94.422 Y109.569 E115.4383
G0 F2400 X95.016 Y109.569
G1 F2400 X125.878 Y140.430 E116.2004
G0 F2400 X126.472 Y140.430
G1 F2400 X95.610 Y109.569 E116.9625
G0 F2400 X96.204 Y109.569
G1 F2400 X127.066 Y140.430 E117.7246
G0 F2400 X127.660 Y140.430
G1 F2400 X96.798 Y109.569 E118.4867
G0 F2400 X97.392 Y109.569
G1 F2400 X128.254 Y140.430 E119.2488
G0 F2400 X128.848 Y140.430
G1 F2400 X97.986 Y109.569 E120.0109
G0 F2400 X98.580 Y109.569
G1 F2400 X129.442 Y140.430 E120.7730
G0 F2400 X130.036 Y140.430
G1 F2400 X99.174 Y109.569 E121.5351
G0 F2400 X99.768 Y109.569
G1 F2400 X130.630 Y140.430 E122.2972
G0 F2400 X131.224 Y140.430
G1 F2400 X100.362 Y109.569 E123.0593
G0 F2400 X100.956 Y109.569
G1 F2400 X131.818 Y140.430 E123.8214
G0 F2400 X132.412 Y140.430
G1 F2400 X101.550 Y109.569 E124.5835
G0 F2400 X102.144 Y109.569
G1 F2400 X133.006 Y140.430 E125.3456
G0 F2400 X133.600 Y140.430
G1 F2400 X102.738 Y109.569 E126.1077
G0 F2400 X103.332 Y109.569
G1 F2400 X134.194 Y140.430 E126.8699
G0 F2400 X134.787 Y140.430
G1 F2400 X103.926 Y109.569 E127.6319
G0 F2400 X104.520 Y109.569
G1 F2400 X135.381 Y140.430 E128.3940
G0 F2400 X135.975 Y140.430
G1 F2400 X105.114 Y109.569 E129.1561
G0 F2400 X105.708 Y109.569
G1 F2400 X136.569 Y140.430 E129.9182
G0 F2400 X137.163 Y140.430
G1 F2400 X106.302 Y109.569 E130.6803
G0 F2400 X106.896 Y109.569
G1 F2400 X137.757 Y140.430 E131.4424
G0 F2400 X138.351 Y140.430
G1 F2400 X107.490 Y109.569 E132.2045
G0 F2400 X108.084 Y109.569
G1 F2400 X138.945 Y140.430 E132.9666
G0 F2400 X139.539 Y140.430
G1 F2400 X108.678 Y109.569 E133.7287
G0 F2400 X109.272 Y109.569
G1 F2400 X140.133 Y140.430 E134.4908
G0 F2400 X140.727 Y140.430
G1 F2400 X109.866 Y109.569 E135.2529
G0 F2400 X110.459 Y109.569
G1 F2400 X141.321 Y140.430 E136.0150
G0 F2400 X141.915 Y140.430
G1 F2400 X111.053 Y109.569 E136.7771
G0 F2400 X111.647 Y109.569
G1 F2400 X142.509 Y140.430 E137.5392
G0 F2400 X143.103 Y140.430
G1 F2400 X112.241 Y109.569 E138.3013
G0 F2400 X112.835 Y109.569
G1 F2400 X143.697 Y140.430 E139.0634
G0 F2400 X144.291 Y140.430
G1 F2400 X113.429 Y109.569 E139.8255
G0 F2400 X114.023 Y109.569
G1 F2400 X144.885 Y140.430 E140.5876
G0 F2400 X145.479 Y140.430
G1 F2400 X114.617 Y109.569 E141.3497
G0 F2400 X115.211 Y109.569
G1 F2400 X146.073 Y140.430 E142.1118
G0 F2400 X146.667 Y140.430
G1 F2400 X115.805 Y109.569 E142.8739
G0 F2400 X116.399 Y109.569
G1 F2400 X147.261 Y140.430 E143.6360
G0 F2400 X147.855 Y140.430
G1 F2400 X116.993 Y109.569 E144.3982
G0 F2400 X117.587 Y109.569
G1 F2400 X148.449 Y140.430 E145.1603
G0 F2400 X149.043 Y140.430
G1 F2400 X118.181 Y109.569 E145.9224
G0 F2400 X118.775 Y109.569
G1 F2400 X149.637 Y140.430 E146.6845
G0 F2400 X150.231 Y140.430
G1 F2400 X119.369 Y109.569 E147.4466
G0 F2400 X119.963 Y109.569
G1 F2400 X150.825 Y140.430 E148.2087
G0 F2400 X151.419 Y140.430
G1 F2400 X120.557 Y109.569 E148.9708
G0 F2400 X121.151 Y109.569
G1 F2400 X152.013 Y140.430 E149.7329
G0 F2400 X152.607 Y140.430
G1 F2400 X121.745 Y109.569 E150.4950
G0 F2400 X122.339 Y109.569
G1 F2400 X153.201 Y140.430 E151.2571
G0 F2400 X153.795 Y140.430
G1 F2400 X122.933 Y109.569 E152.0192
G0 F2400 X123.527 Y109.569
G1 F2400 X154.388 Y140.430 E152.7813
G0 F2400 X154.982 Y140.430
G1 F2400 X124.121 Y109.569 E153.5434
G0 F2400 X124.715 Y109.569
G1 F2400 X155.576 Y140.430 E154.3055
G0 F2400 X156.170 Y140.430
G1 F2400 X125.309 Y109.569 E155.0676
G0 F2400 X125.903 Y109.569
G1 F2400 X156.764 Y140.430 E155.8297
G0 F2400 X157.358 Y140.430
G1 F2400 X126.497 Y109.569 E156.5918
G0 F2400 X127.091 Y109.569
G1 F2400 X157.952 Y140.430 E157.3539
G0 F2400 X158.546 Y140.430
G1 F2400 X127.685 Y109.569 E158.1160
G0 F2400 X128.279 Y109.569
G1 F2400 X159.140 Y140.430 E158.8781
G0 F2400 X159.734 Y140.430
G1 F2400 X128.873 Y109.569 E159.6401
G0 F2400 X129.467 Y109.569
G1 F2400 X160.328 Y140.430 E160.4022
G0 F2400 X160.922 Y140.430
G1 F2400 X130.060 Y109.569 E161.1643
G0 F2400 X130.654 Y109.569
G1 F2400 X161.516 Y140.430 E161.9265
G0 F2400 X162.110 Y140.430
G1 F2400 X131.248 Y109.569 E162.6886
G0 F2400 X131.842 Y109.569
G1 F2400 X162.704 Y140.430 E163.4507
G0 F2400 X163.298 Y140.430
G1 F2400 X132.436 Y109.569 E164.2128
G0 F2400 X133.030 Y109.569
G1 F2400 X163.892 Y140.430 E164.9749
G0 F2400 X164.486 Y140.430
G1 F2400 X133.624 Y109.569 E165.7370
G0 F2400 X134.218 Y109.569
G1 F2400 X165.080 Y140.430 E166.4991
G0 F2400 X165.674 Y140.430
G1 F2400 X134.812 Y109.569 E167.2612
G0 F2400 X135.406 Y109.569
G1 F2400 X166.268 Y140.430 E168.0233
G0 F2400 X166.862 Y140.430
G1 F2400 X136.000 Y109.569 E168.7854
G0 F2400 X136.594 Y109.569
G1 F2400 X167.456 Y140.430 E169.5475
G0 F2400 X168.050 Y140.430
G1 F2400 X137.188 Y109.569 E170.3096
G0 F2400 X137.782 Y109.569
