;Sliced by ideaMaker 5.2.3.8580, 2025-05-19 10:42:02 UTC+0200
;Slicer Version: 5.2.3.8580
;Dimension: 250.000 250.000 250.000 0.400
;Plate Shape: 0
;Origin Center: 0
;Extruder Offset #1: 25.000 0.000
;Filament Diameter #1: 1.750
;Filament Diameter #2: 1.750
;Filament Compensation #1: 94.000
;Filament Compensation #2: 90.000
;Filament Density #1: 1240.000
;Filament Density #2: 1240.000
;Filament Type #1: PLA
;Filament Type #2: PLA
;Filament Name #1: [Raise3D] Premium PLA 1.75mm
;Filament Name #2: [Raise3D] Premium PLA 1.75mm
;Filament #1: PLA 1.75mm
;Filament #2: PLA 1.75mm
;Printer Type: floppy
;Firmware: Klipper
;Bounding Box: 88.978 161.021 84.730 165.270 0.000 9.000
;Model Gap: 0.000
M221 T0 S94.00
M140 S50.00
M104 T0 S190.00
M109 T0 S190.00
T0
M190 S50.00
G21 ;metric values
G90 ;absolute positioning
M82 ;set extruder to absolute mode
M107 ;start with the fan off
G28 X0 Y0 ;move X/Y to min endstops
G28 Z0 ;move Z to min endstops
G1 Z15.0 F9000 ;move the platform down 15mm
G92 E0 ;zero the extruded length
G0 X43 Y27 F2000  ;go to the edge of the bed
G92 X0 Y0 E0 ;set zero to edge of the bed
G0 F9000 Z1 ;Z up with 1mm
G1 F200 Z0 ;Z home slowly
G1 Z15.0 F9000 ;move the platform down 15mm
G1 F9000 ;speed setting
G92 E-3 ;retraction
M117 Printing...
M1001
;TOTAL_NUM: 1
;PRINTING_TIME: 0
;REMAINING_TIME: 3821
;LAYER:0
;Z:0.300
;HEIGHT:0.300
;PRINTING: New_York_Yankee_Logo_flat.stl
;PRINTING_ID: 0
G1 F2400 E-3.0000
G0 F3900 X128.760 Y115.609
G0 F300 Z0.300
;TYPE:WALL-OUTER
;WIDTH:0.400
G1 F1500 E0.0000
G1 F2400 X132.735 Y112.659 E0.2470
G1 X135.797 Y110.004 E0.4492
G1 X138.625 Y107.102 E0.6513
G1 X140.891 Y104.308 E0.8308
G1 X142.647 Y101.691 E0.9880
G1 X144.158 Y98.911 E1.1459
G1 X145.730 Y95.105 E1.3513
G1 X146.648 Y92.003 E1.5127
G1 X147.347 Y88.547 E1.6886
G1 X147.685 Y85.385 E1.8473
G1 X149.016 Y86.391 E1.9305
G1 X153.836 Y90.289 E2.2398
G1 X157.376 Y93.502 E2.4783
G1 X160.428 Y96.562 E2.6939
G1 X158.021 Y97.909 E2.8315
G1 X157.193 Y98.628 E2.8862
G1 X155.693 Y100.328 E2.9993
G1 X153.976 Y103.166 E3.1648
G1 X152.062 Y107.943 E3.4216
G1 X150.934 Y112.170 E3.6398
G1 X150.294 Y115.917 E3.8295
G1 X149.964 Y119.702 E4.0190
G1 X149.998 Y124.393 E4.2531
G1 X150.193 Y127.069 E4.3869
G1 X150.843 Y130.716 E4.5717
G1 X152.317 Y134.673 E4.7824
G1 X153.761 Y137.104 E4.9235
G1 X155.728 Y139.423 E5.0752
G1 X157.859 Y141.096 E5.2103
G1 X159.779 Y142.118 E5.3189
G1 X158.033 Y143.711 E5.4368
G1 X156.107 Y145.180 E5.5576
G1 X153.040 Y146.986 E5.7352
G1 X150.620 Y147.949 E5.8651
G1 X149.335 Y146.870 E5.9489
G1 X147.373 Y144.569 E6.0997
G1 X145.410 Y141.094 E6.2988
G1 X144.368 Y138.457 E6.4403
G1 X143.509 Y135.606 E6.5888
G1 X142.944 Y132.991 E6.7223
G1 X142.408 Y128.840 E6.9311
G1 X142.220 Y123.748 E7.1853
G1 X142.370 Y120.716 E7.3368
G1 X142.662 Y117.709 E7.4875
G1 X144.229 Y109.045 E7.9268
G1 X143.977 Y108.906 E7.9411
G1 X136.459 Y115.835 E8.4512
G1 X129.829 Y121.011 E8.8709
G1 X139.679 Y143.291 E10.0862
G1 X141.644 Y146.944 E10.2931
G1 X143.459 Y149.341 E10.4431
G1 X144.681 Y150.499 E10.5271
G1 X146.434 Y151.548 E10.6291
G1 X148.162 Y152.138 E10.7201
G1 X146.797 Y154.119 E10.8402
G1 X144.328 Y156.857 E11.0241
G1 X142.088 Y159.054 E11.1806
G1 X139.871 Y160.986 E11.3274
G1 X136.584 Y163.362 E11.5297
G1 X136.905 Y161.197 E11.6389
G1 X136.915 Y157.461 E11.8253
G1 X136.386 Y153.546 E12.0224
G1 X135.418 Y149.559 E12.2271
G1 X133.029 Y143.343 E12.5593
G1 X126.059 Y128.764 E13.3655
G1 X125.812 Y128.760 E13.3778
G1 X123.736 Y132.722 E13.6010
G1 X122.088 Y136.463 E13.8049
G1 X119.225 Y144.106 E14.2121
G1 X118.016 Y147.943 E14.4128
G1 X117.008 Y151.839 E14.6136
G1 X116.487 Y155.148 E14.7807
G1 X116.412 Y157.321 E14.8892
G1 X116.543 Y159.489 E14.9975
G1 X116.876 Y161.638 E15.1060
G1 X117.691 Y164.648 E15.2616
G1 X115.178 Y163.339 E15.4030
G1 X112.838 Y161.799 E15.5427
G1 X110.456 Y159.889 E15.6951
G1 X108.069 Y157.590 E15.8604
G1 X107.013 Y156.358 E15.9414
G1 X106.053 Y155.069 E16.0215
G1 X104.962 Y153.133 E16.1324
G1 X106.585 Y152.068 E16.2293
G1 X108.993 Y149.811 E16.3939
G1 X110.299 Y148.197 E16.4975
G1 X112.897 Y144.022 E16.7428
G1 X113.819 Y142.178 E16.8457
G1 X116.073 Y136.692 E17.1416
G1 X118.083 Y129.907 E17.4946
G1 X117.856 Y129.741 E17.5087
G1 X115.306 Y131.447 E17.6617
G1 X113.254 Y133.129 E17.7941
G1 X109.063 Y137.371 E18.0916
G1 X106.218 Y140.964 E18.3202
G1 X103.966 Y144.423 E18.5262
G1 X102.034 Y148.071 E18.7321
G1 X100.609 Y151.491 E18.9170
G1 X99.089 Y150.590 E19.0051
G1 X96.444 Y148.545 E19.1719
G1 X94.345 Y146.557 E19.3161
G1 X92.442 Y144.399 E19.4597
G1 X90.908 Y142.309 E19.5890
G1 X94.223 Y138.607 E19.8369
G1 X95.517 Y136.741 E19.9502
G1 X97.229 Y133.701 E20.1243
G1 X98.097 Y131.624 E20.2366
G1 X98.772 Y129.478 E20.3488
G1 X99.247 Y127.279 E20.4611
G1 X99.518 Y125.040 E20.5736
G1 X99.515 Y121.125 E20.7689
G1 X99.067 Y117.748 E20.9389
G1 X98.166 Y113.873 E21.1374
G1 X96.756 Y109.771 E21.3538
G1 X95.087 Y105.768 E21.5701
G1 X89.404 Y95.144 E22.1712
G1 X91.175 Y93.117 E22.3055
G1 X92.721 Y91.689 E22.4105
G1 X96.733 Y88.453 E22.6677
G1 X100.449 Y85.908 E22.8924
G1 X100.556 Y90.996 E23.1463
G1 X101.017 Y95.281 E23.3613
G1 X101.724 Y99.529 E23.5761
G1 X103.796 Y108.509 E24.0359
G1 X105.248 Y117.554 E24.4930
G1 X105.503 Y121.279 E24.6792
G1 X105.495 Y124.996 E24.8647
G1 X105.157 Y128.773 E25.0539
G1 X103.663 Y135.697 E25.4073
G1 X103.925 Y135.840 E25.4221
G1 X110.742 Y129.098 E25.9005
G1 X116.606 Y124.046 E26.2866
G1 X120.027 Y121.428 E26.5016
G1 X120.360 Y120.327 E26.5589
G1 X120.583 Y119.273 E26.6127
G1 X120.739 Y108.076 E27.1714
G1 X120.283 Y98.142 E27.6675
G1 X119.388 Y94.480 E27.8556
G1 X118.233 Y92.011 E27.9916
G1 X116.875 Y90.115 E28.1079
G1 X115.118 Y88.550 E28.2253
G1 X119.120 Y87.946 E28.4272
G1 X124.325 Y87.704 E28.6872
G1 X129.050 Y87.725 E28.9229
G1 X133.091 Y88.120 E29.1255
G1 X131.689 Y89.365 E29.2190
G1 X130.099 Y91.284 E29.3434
G1 X129.195 Y92.937 E29.4374
G1 X128.612 Y94.761 E29.5329
G1 X128.286 Y99.112 E29.7506
G1 X128.422 Y114.165 E30.5016
G1 X128.760 Y115.609 E30.5756
G0 F3900 X128.509 Y116.293
;TYPE:WALL-INNER
;WIDTH:0.400
G1 F2400 X132.986 Y112.971 E30.8537
G1 X136.072 Y110.295 E31.0575
G1 X138.924 Y107.368 E31.2614
G1 X141.213 Y104.546 E31.4427
G1 X142.990 Y101.898 E31.6018
G1 X144.520 Y99.083 E31.7616
G1 X146.108 Y95.238 E31.9692
G1 X147.037 Y92.100 E32.1324
G1 X147.743 Y88.608 E32.3102
G1 X147.995 Y86.247 E32.4286
G1 X148.770 Y86.706 E32.4736
G1 X153.576 Y90.593 E32.7820
G1 X157.100 Y93.792 E33.0194
G1 X159.772 Y96.471 E33.2082
G1 X157.790 Y97.580 E33.3215
G1 X156.911 Y98.343 E33.3796
G1 X155.369 Y100.090 E33.4958
G1 X153.617 Y102.987 E33.6647
G1 X151.682 Y107.817 E33.9243
G1 X150.543 Y112.085 E34.1447
G1 X149.897 Y115.866 E34.3361
G1 X149.564 Y119.686 E34.5274
G1 X149.598 Y124.409 E34.7630
G1 X149.796 Y127.119 E34.8986
G1 X150.456 Y130.822 E35.0862
G1 X151.955 Y134.846 E35.3004
G1 X153.434 Y137.337 E35.4450
G1 X155.449 Y139.713 E35.6004
G1 X157.640 Y141.432 E35.7393
G1 X159.091 Y142.205 E35.8214
G1 X155.883 Y144.847 E36.0287
G1 X152.864 Y146.626 E36.2035
G1 X150.694 Y147.489 E36.3200
G1 X149.618 Y146.585 E36.3901
G1 X147.702 Y144.339 E36.5374
G1 X145.772 Y140.921 E36.7333
G1 X144.746 Y138.326 E36.8725
G1 X143.897 Y135.506 E37.0194
G1 X143.339 Y132.923 E37.1512
G1 X142.807 Y128.807 E37.3583
G1 X142.620 Y123.751 E37.6107
G1 X142.769 Y120.745 E37.7609
G1 X143.059 Y117.764 E37.9103
G1 X144.674 Y108.833 E38.3631
G1 X143.918 Y108.417 E38.4061
G1 X136.200 Y115.530 E38.9298
G1 X129.337 Y120.888 E39.3642
G1 X139.319 Y143.467 E40.5958
G1 X141.306 Y147.161 E40.8051
G1 X143.160 Y149.609 E40.9583
G1 X144.438 Y150.820 E41.0461
G1 X146.265 Y151.913 E41.1523
G1 X147.533 Y152.346 E41.2192
G1 X146.482 Y153.871 E41.3116
G1 X144.039 Y156.580 E41.4936
G1 X141.816 Y158.760 E41.6489
G1 X139.622 Y160.672 E41.7941
G1 X137.256 Y162.383 E41.9398
G1 X137.144 Y162.314 E41.9463
G1 X137.305 Y161.227 E42.0012
G1 X137.315 Y157.435 E42.1903
G1 X136.780 Y153.472 E42.3899
G1 X135.801 Y149.440 E42.5969
G1 X133.397 Y143.185 E42.9312
G1 X126.313 Y128.368 E43.7505
G1 X125.572 Y128.356 E43.7875
G1 X123.375 Y132.548 E44.0236
G1 X121.717 Y136.312 E44.2288
G1 X118.847 Y143.976 E44.6371
G1 X117.631 Y147.833 E44.8389
G1 X116.616 Y151.758 E45.0411
G1 X116.088 Y155.110 E45.2104
G1 X116.012 Y157.326 E45.3211
G1 X116.145 Y159.532 E45.4313
G1 X116.484 Y161.721 E45.5418
G1 X117.024 Y163.716 E45.6449
G1 X116.923 Y163.797 E45.6514
G1 X115.381 Y162.994 E45.7381
G1 X113.074 Y161.475 E45.8759
G1 X110.720 Y159.588 E46.0265
G1 X108.360 Y157.315 E46.1899
G1 X107.326 Y156.108 E46.2692
G1 X106.389 Y154.850 E46.3475
G1 X105.494 Y153.262 E46.4384
G1 X106.833 Y152.383 E46.5183
G1 X109.287 Y150.084 E46.6861
G1 X110.626 Y148.429 E46.7923
G1 X113.246 Y144.218 E47.0397
G1 X114.183 Y142.344 E47.1443
G1 X116.451 Y136.825 E47.4420
G1 X118.547 Y129.750 E47.8101
G1 X117.866 Y129.253 E47.8522
G1 X115.067 Y131.125 E48.0201
G1 X112.984 Y132.833 E48.1545
G1 X108.763 Y137.105 E48.4542
G1 X105.893 Y140.730 E48.6848
G1 X103.621 Y144.220 E48.8926
G1 X101.672 Y147.900 E49.1003
G1 X100.417 Y150.912 E49.2631
G1 X99.314 Y150.258 E49.3271
G1 X96.705 Y148.241 E49.4916
G1 X94.633 Y146.279 E49.6340
G1 X92.754 Y144.148 E49.7757
G1 X91.423 Y142.334 E49.8880
G1 X94.538 Y138.855 E50.1210
G1 X95.856 Y136.954 E50.2364
G1 X97.589 Y133.877 E50.4126
G1 X98.473 Y131.761 E50.5270
G1 X99.159 Y129.580 E50.6410
G1 X99.642 Y127.345 E50.7551
G1 X99.918 Y125.064 E50.8697
G1 X99.915 Y121.098 E51.0676
G1 X99.461 Y117.676 E51.2398
G1 X98.551 Y113.762 E51.4403
G1 X97.130 Y109.629 E51.6584
G1 X95.449 Y105.596 E51.8763
G1 X89.887 Y95.199 E52.4646
G1 X91.462 Y93.396 E52.5840
G1 X92.983 Y91.992 E52.6873
G1 X96.972 Y88.774 E52.9430
G1 X99.962 Y86.726 E53.1238
G1 X100.067 Y86.780 E53.1297
G1 X100.156 Y91.022 E53.3414
G1 X100.621 Y95.335 E53.5578
G1 X101.331 Y99.607 E53.7739
G1 X103.403 Y108.586 E54.2336
G1 X104.850 Y117.599 E54.6890
G1 X105.103 Y121.292 E54.8737
G1 X105.095 Y124.978 E55.0576
G1 X104.761 Y128.713 E55.2447
G1 X103.209 Y135.905 E55.6118
G1 X103.995 Y136.334 E55.6564
G1 X111.013 Y129.392 E56.1489
G1 X116.858 Y124.357 E56.5338
G1 X120.373 Y121.667 E56.7546
G1 X120.748 Y120.426 E56.8193
G1 X120.982 Y119.318 E56.8758
G1 X121.139 Y108.070 E57.4370
G1 X120.681 Y98.085 E57.9357
G1 X119.767 Y94.346 E58.1277
G1 X118.580 Y91.808 E58.2675
G1 X117.174 Y89.846 E58.3879
G1 X116.131 Y88.917 E58.4576
G1 X116.167 Y88.796 E58.4639
G1 X119.159 Y88.345 E58.6149
G1 X124.333 Y88.104 E58.8733
G1 X129.030 Y88.125 E59.1076
G1 X131.980 Y88.413 E59.2555
G1 X132.020 Y88.536 E59.2619
G1 X129.766 Y91.058 E59.4307
G1 X128.826 Y92.779 E59.5285
G1 X128.217 Y94.684 E59.6283
G1 X127.886 Y99.099 E59.8492
G1 X128.022 Y114.213 E60.6033
G1 X128.509 Y116.293 E60.7098
G0 F3900 X128.258 Y116.977
G1 F2400 X133.237 Y113.283 E61.0191
G1 X136.347 Y110.586 E61.2245
G1 X139.223 Y107.634 E61.4301
G1 X141.535 Y104.784 E61.6132
G1 X143.333 Y102.105 E61.7742
G1 X144.882 Y99.255 E61.9360
G1 X146.486 Y95.371 E62.1457
G1 X147.426 Y92.197 E62.3108
G1 X148.139 Y88.669 E62.4904
G1 X148.327 Y86.908 E62.5788
G1 X148.541 Y87.035 E62.5912
G1 X153.316 Y90.897 E62.8976
G1 X159.116 Y96.380 E63.2958
G1 X157.559 Y97.251 E63.3848
G1 X156.629 Y98.058 E63.4462
G1 X155.045 Y99.852 E63.5656
G1 X153.258 Y102.808 E63.7379
G1 X151.302 Y107.691 E64.0004
G1 X150.152 Y112.000 E64.2229
G1 X149.500 Y115.815 E64.4159
G1 X149.164 Y119.670 E64.6090
G1 X149.198 Y124.425 E64.8462
G1 X149.399 Y127.169 E64.9835
G1 X150.069 Y130.928 E65.1740
G1 X151.593 Y135.019 E65.3918
G1 X153.107 Y137.570 E65.5398
G1 X155.170 Y140.003 E65.6989
G1 X157.421 Y141.768 E65.8416
G1 X158.375 Y142.277 E65.8956
G1 X155.653 Y144.518 E66.0715
G1 X152.688 Y146.266 E66.2432
G1 X150.768 Y147.029 E66.3463
G1 X149.901 Y146.300 E66.4028
G1 X148.031 Y144.109 E66.5465
G1 X146.134 Y140.748 E66.7391
G1 X145.124 Y138.195 E66.8760
G1 X144.285 Y135.406 E67.0213
G1 X143.734 Y132.855 E67.1515
G1 X143.206 Y128.774 E67.3568
G1 X143.020 Y123.754 E67.6075
G1 X143.168 Y120.774 E67.7563
G1 X143.456 Y117.819 E67.9044
G1 X145.119 Y108.621 E68.3708
G1 X143.859 Y107.928 E68.4425
G1 X135.941 Y115.225 E68.9797
G1 X128.845 Y120.765 E69.4288
G1 X138.959 Y143.643 E70.6768
G1 X140.968 Y147.378 E70.8884
G1 X142.861 Y149.877 E71.0448
G1 X144.195 Y151.141 E71.1365
G1 X146.096 Y152.278 E71.2470
G1 X146.904 Y152.554 E71.2896
G1 X146.167 Y153.623 E71.3544
G1 X143.750 Y156.303 E71.5344
G1 X141.544 Y158.466 E71.6885
G1 X139.373 Y160.359 E71.8322
G1 X137.791 Y161.502 E71.9296
G1 X137.679 Y161.434 E71.9362
G1 X137.715 Y157.409 E72.1370
G1 X137.174 Y153.398 E72.3389
G1 X136.184 Y149.321 E72.5482
G1 X133.765 Y143.027 E72.8846
G1 X126.567 Y127.972 E73.7171
G1 X125.332 Y127.952 E73.7788
G1 X123.014 Y132.374 E74.0278
G1 X121.346 Y136.161 E74.2343
G1 X118.469 Y143.846 E74.6437
G1 X117.246 Y147.723 E74.8465
G1 X116.224 Y151.677 E75.0503
G1 X115.689 Y155.072 E75.2217
G1 X115.612 Y157.331 E75.3345
G1 X115.747 Y159.575 E75.4467
G1 X116.400 Y162.940 E75.6177
G1 X116.299 Y163.021 E75.6241
G1 X113.310 Y161.151 E75.8000
G1 X110.984 Y159.287 E75.9487
G1 X108.651 Y157.040 E76.1103
G1 X107.639 Y155.858 E76.1880
G1 X106.026 Y153.391 E76.3350
G1 X107.081 Y152.698 E76.3980
G1 X109.581 Y150.357 E76.5689
G1 X110.953 Y148.661 E76.6777
G1 X113.595 Y144.414 E76.9272
G1 X114.547 Y142.510 E77.0334
G1 X116.829 Y136.958 E77.3329
G1 X119.011 Y129.593 E77.7161
G1 X117.876 Y128.765 E77.7862
G1 X114.828 Y130.803 E77.9692
G1 X112.714 Y132.537 E78.1056
G1 X108.463 Y136.839 E78.4073
G1 X105.568 Y140.496 E78.6400
G1 X103.276 Y144.017 E78.8496
G1 X101.310 Y147.729 E79.0592
G1 X100.225 Y150.333 E79.1999
G1 X96.965 Y147.937 E79.4017
G1 X94.921 Y146.001 E79.5422
G1 X93.066 Y143.897 E79.6821
G1 X91.937 Y142.359 E79.7773
G1 X94.853 Y139.103 E79.9954
G1 X96.195 Y137.167 E80.1129
G1 X97.949 Y134.053 E80.2912
G1 X98.849 Y131.898 E80.4077
G1 X99.546 Y129.682 E80.5236
G1 X100.037 Y127.411 E80.6396
G1 X100.318 Y125.088 E80.7563
G1 X100.315 Y121.071 E80.9567
G1 X99.855 Y117.604 E81.1312
G1 X98.936 Y113.651 E81.3337
G1 X97.504 Y109.487 E81.5533
G1 X95.811 Y105.424 E81.7729
G1 X90.370 Y95.254 E82.3484
G1 X91.749 Y93.675 E82.4530
G1 X93.245 Y92.295 E82.5545
G1 X97.211 Y89.095 E82.8088
G1 X99.578 Y87.474 E82.9519
G1 X99.683 Y87.528 E82.9578
G1 X99.756 Y91.048 E83.1334
G1 X100.225 Y95.389 E83.3513
G1 X100.938 Y99.685 E83.5685
G1 X103.010 Y108.663 E84.0282
G1 X104.452 Y117.644 E84.4820
G1 X104.703 Y121.305 E84.6651
G1 X104.695 Y124.960 E84.8474
G1 X104.365 Y128.653 E85.0324
G1 X102.755 Y136.113 E85.4132
G1 X104.065 Y136.828 E85.4876
G1 X111.285 Y129.686 E85.9943
G1 X117.110 Y124.668 E86.3779
G1 X120.719 Y121.906 E86.6046
G1 X121.136 Y120.525 E86.6766
G1 X121.381 Y119.363 E86.7358
G1 X121.539 Y108.064 E87.2996
G1 X121.079 Y98.028 E87.8008
G1 X120.146 Y94.212 E87.9968
G1 X118.927 Y91.605 E88.1404
G1 X117.069 Y89.065 E88.2974
G1 X119.198 Y88.744 E88.4048
G1 X124.341 Y88.504 E88.6617
G1 X129.010 Y88.525 E88.8946
G1 X131.160 Y88.735 E89.0024
G1 X131.205 Y88.848 E89.0084
G1 X129.437 Y90.826 E89.1408
G1 X128.457 Y92.621 E89.2428
G1 X127.822 Y94.607 E89.3468
G1 X127.486 Y99.086 E89.5709
G1 X127.622 Y114.261 E90.3280
G1 X128.258 Y116.977 E90.4672
G0 F3900 X128.007 Y117.661
G1 F2400 X133.488 Y113.595 E90.8077
G1 X136.622 Y110.877 E91.0147
G1 X139.522 Y107.900 E91.2220
G1 X141.857 Y105.022 E91.4069
G1 X143.676 Y102.312 E91.5697
G1 X145.244 Y99.427 E91.7335
G1 X146.864 Y95.504 E91.9453
G1 X147.815 Y92.294 E92.1123
G1 X148.638 Y87.761 E92.3422
G1 X148.747 Y87.716 E92.3481
G1 X153.052 Y91.198 E92.6243
G1 X158.446 Y96.297 E92.9946
G1 X157.328 Y96.922 E93.0585
G1 X156.347 Y97.773 E93.1233
G1 X154.721 Y99.614 E93.2458
G1 X152.899 Y102.629 E93.4216
G1 X150.922 Y107.565 E93.6869
G1 X149.761 Y111.915 E93.9115
G1 X149.103 Y115.764 E94.1063
G1 X148.764 Y119.654 E94.3011
G1 X148.798 Y124.441 E94.5399
G1 X149.002 Y127.219 E94.6789
G1 X149.682 Y131.034 E94.8722
G1 X151.231 Y135.192 E95.0936
G1 X152.780 Y137.803 E95.2451
G1 X154.891 Y140.293 E95.4079
G1 X157.659 Y142.348 E95.5799
G1 X155.423 Y144.189 E95.7244
G1 X152.512 Y145.906 E95.8930
G1 X150.842 Y146.569 E95.9827
G1 X150.184 Y146.015 E96.0256
