;Sliced by ideaMaker 5.2.4.8581, 2025-08-15 13:51:30 UTC+0200
;Slicer Version: 5.2.3.8580
;Dimension: 250.000 250.000 250.000 0.400
;Plate Shape: 0
;Origin Center: 0
;Extruder Offset #1: 25.000 0.000
;Filament Diameter #1: 1.750
;Filament Diameter #2: 1.750
;Filament Compensation #1: 94.000
;Filament Compensation #2: 90.000
;Filament Density #1: 1240.000
;Filament Density #2: 1240.000
;Filament Type #1: PLA
;Filament Type #2: PLA
;Filament Name #1: [Raise3D] Premium PLA 1.75mm
;Filament Name #2: [Raise3D] Premium PLA 1.75mm
;Filament #1: PLA 1.75mm
;Filament #2: PLA 1.75mm
;Printer Type: floppy
;Firmware: Klipper
;Bounding Box: 77.874 172.124 92.779 157.220 0.000 88.950
;Model Gap: 0.000
M221 T0 S94.00
M140 S50.00
M104 T0 S195.00
M109 T0 S195.00
T0
M190 S50.00
G21 ;metric values
G90 ;absolute positioning
M82 ;set extruder to absolute mode
M107 ;start with the fan off
G28 X0 Y0 ;move X/Y to min endstops
G28 Z0 ;move Z to min endstops
G1 Z15.0 F9000 ;move the platform down 15mm
G92 E0 ;zero the extruded length
G0 X43 Y27 F2000  ;go to the edge of the bed
G92 X0 Y0 E0 ;set zero to edge of the bed
G0 F9000 Z1 ;Z up with 1mm
G1 F200 Z0 ;Z home slowly
G1 Z15.0 F9000 ;move the platform down 15mm
G1 F9000 ;speed setting
G92 E-3 ;retraction
M117 Printing...
M1001
;TOTAL_NUM: 1
;PRINTING_TIME: 0
;REMAINING_TIME: 16447
;LAYER:0
;Z:0.150
;HEIGHT:0.150
M106 S153
;PRINTING: NON-OBJECT
;PRINTING_ID: -1
G1 F2400 E-5.0000
SET_VELOCITY_LIMIT ACCEL=500.00
SET_VELOCITY_LIMIT SQUARE_CORNER_VELOCITY=5.00
G0 F3900 X79.134 Y93.344
G0 F300 Z0.150
;TYPE:SKIRT
;WIDTH:0.420
G1 F1500 E0.0000
G1 F900 X80.763 Y92.779 E0.0452
G1 X169.259 Y92.862 E2.3631
G1 X171.395 Y93.844 E2.4247
G1 X171.914 Y94.689 E2.4506
G1 X172.124 Y95.564 E2.4742
G1 X172.124 Y154.333 E4.0135
G1 X171.780 Y155.617 E4.0483
G1 X170.864 Y156.654 E4.0846
G1 X169.236 Y157.220 E4.1297
G1 X80.762 Y157.220 E6.4470
G1 X79.476 Y156.875 E6.4819
G1 X78.441 Y155.961 E6.5181
G1 X77.875 Y154.332 E6.5633
G1 X77.874 Y95.666 E8.0999
G1 X78.219 Y94.380 E8.1347
G1 X79.134 Y93.344 E8.1709
G0 F3900 X79.278 Y93.739
G1 F900 X80.763 Y93.199 E8.2123
G1 X169.259 Y93.282 E10.5302
G1 X171.043 Y94.073 E10.5814
G1 X171.506 Y94.787 E10.6036
G1 X171.716 Y95.662 E10.6272
G1 X171.704 Y154.333 E12.1639
G1 X171.454 Y155.353 E12.1915
G1 X170.720 Y156.259 E12.2220
G1 X169.236 Y156.800 E12.2634
G1 X80.762 Y156.800 E14.5807
G1 X79.740 Y156.549 E14.6083
G1 X78.836 Y155.817 E14.6387
G1 X78.295 Y154.332 E14.6801
G1 X78.294 Y95.666 E16.2167
G1 X78.545 Y94.644 E16.2443
G1 X79.278 Y93.739 E16.2748
G0 F3900 X79.594 Y94.016
G1 F900 X80.763 Y93.619 E16.3071
G1 X169.259 Y93.702 E18.6251
G1 X170.698 Y94.312 E18.6660
G1 X171.099 Y94.891 E18.6844
G1 X171.296 Y95.662 E18.7053
G1 X171.284 Y154.333 E20.2420
G1 X171.047 Y155.248 E20.2668
G1 X170.404 Y155.982 E20.2923
G1 X169.236 Y156.380 E20.3247
G1 X80.762 Y156.380 E22.6420
G1 X79.846 Y156.142 E22.6668
G1 X79.112 Y155.501 E22.6923
G1 X78.715 Y154.332 E22.7246
G1 X78.714 Y95.666 E24.2612
G1 X78.952 Y94.750 E24.2860
G1 X79.594 Y94.016 E24.3116
G0 F3900 X79.895 Y94.309
G1 F900 X80.763 Y94.039 E24.3354
G1 X169.259 Y94.122 E26.6533
G1 X170.363 Y94.566 E26.6845
G1 X170.694 Y95.003 E26.6988
G1 X170.876 Y95.662 E26.7167
G1 X170.864 Y154.333 E28.2535
G1 X170.642 Y155.136 E28.2753
G1 X170.103 Y155.689 E28.2955
G1 X169.236 Y155.960 E28.3193
G1 X80.762 Y155.960 E30.6367
G1 X79.958 Y155.737 E30.6585
G1 X79.405 Y155.200 E30.6787
G1 X79.135 Y154.332 E30.7025
G1 X79.134 Y95.666 E32.2391
G1 X79.357 Y94.862 E32.2610
G1 X79.895 Y94.309 E32.2812
G0 F3900 X80.763 Y94.459
G1 F900 X169.259 Y94.542 E34.5991
G1 X170.028 Y94.820 E34.6205
G1 X170.359 Y95.257 E34.6349
G1 X170.465 Y95.750 E34.6481
G1 X170.444 Y154.333 E36.1825
G1 X170.318 Y154.868 E36.1969
G1 X169.968 Y155.291 E36.2113
G1 X169.236 Y155.540 E36.2315
G1 X80.762 Y155.540 E38.5489
G1 X80.225 Y155.413 E38.5633
G1 X79.803 Y155.065 E38.5777
G1 X79.555 Y154.332 E38.5979
G1 X79.554 Y95.666 E40.1345
G1 X79.681 Y95.129 E40.1490
G1 X80.029 Y94.707 E40.1633
G1 X80.763 Y94.459 E40.1836
;PRINTING: Napkin_Holder.stl
;PRINTING_ID: 0
G1 F2400 E35.1836
G1 F300 Z0.350
G0 F3900 X80.974 Y95.879
;TYPE:WALL-OUTER
;WIDTH:0.420
G1 F300 Z0.150
G1 F1500 E40.1836
G1 F2400 X169.045 Y95.962 E42.4904
G1 X169.024 Y154.120 E44.0137
G1 X80.975 Y154.120 E46.3199
G1 X80.974 Y95.879 E47.8454
G0 F3900 X81.394 Y96.299
;TYPE:WALL-INNER
;WIDTH:0.420
G1 F2400 X168.625 Y96.382 E50.1301
G1 X168.604 Y153.700 E51.6314
G1 X81.395 Y153.700 E53.9156
G1 X81.394 Y96.299 E55.4191
G1 F2400 E50.4191
G1 F300 Z0.350
G0 F3900 X81.404 Y96.399
G0 X81.583 Y153.156
;TYPE:SOLID-FILL
;WIDTH:0.420
G1 F300 Z0.150
G1 F1500 E55.4191
G1 F2400 X81.937 Y153.510 E55.4322
G0 F2400 X82.531 Y153.510
G1 F2400 X81.583 Y152.562 E55.4673
G0 F2400 X81.583 Y151.968
G1 F2400 X83.125 Y153.510 E55.5245
G0 F2400 X83.719 Y153.510
G1 F2400 X81.583 Y151.374 E55.6036
G0 F2400 X81.583 Y150.780
G1 F2400 X84.313 Y153.510 E55.7047
G0 F2400 X84.907 Y153.510
G1 F2400 X81.583 Y150.186 E55.8278
G0 F2400 X81.583 Y149.592
G1 F2400 X85.501 Y153.510 E55.9730
G0 F2400 X86.095 Y153.510
G1 F2400 X81.583 Y148.998 E56.1401
G0 F2400 X81.583 Y148.404
G1 F2400 X86.689 Y153.510 E56.3292
G0 F2400 X87.283 Y153.510
G1 F2400 X81.583 Y147.810 E56.5404
G0 F2400 X81.583 Y147.216
G1 F2400 X87.877 Y153.510 E56.7735
G0 F2400 X88.471 Y153.510
G1 F2400 X81.583 Y146.622 E57.0286
G0 F2400 X81.583 Y146.028
G1 F2400 X89.065 Y153.510 E57.3058
G0 F2400 X89.659 Y153.510
G1 F2400 X81.583 Y145.434 E57.6049
G0 F2400 X81.583 Y144.840
G1 F2400 X90.252 Y153.510 E57.9261
G0 F2400 X90.846 Y153.510
G1 F2400 X81.583 Y144.246 E58.2692
G0 F2400 X81.583 Y143.652
G1 F2400 X91.440 Y153.510 E58.6343
G0 F2400 X92.034 Y153.510
G1 F2400 X81.583 Y143.059 E59.0215
G0 F2400 X81.583 Y142.465
G1 F2400 X92.628 Y153.510 E59.4306
G0 F2400 X93.222 Y153.510
G1 F2400 X81.583 Y141.871 E59.8617
G0 F2400 X81.583 Y141.277
G1 F2400 X93.816 Y153.510 E60.3148
G0 F2400 X94.410 Y153.510
G1 F2400 X81.583 Y140.683 E60.7900
G0 F2400 X81.583 Y140.089
G1 F2400 X95.004 Y153.510 E61.2871
G0 F2400 X95.598 Y153.510
G1 F2400 X81.583 Y139.495 E61.8062
G0 F2400 X81.583 Y138.901
G1 F2400 X96.192 Y153.510 E62.3474
G0 F2400 X96.786 Y153.510
G1 F2400 X81.583 Y138.307 E62.9105
G0 F2400 X81.583 Y137.713
G1 F2400 X97.380 Y153.510 E63.4957
G0 F2400 X97.974 Y153.510
G1 F2400 X81.583 Y137.119 E64.1028
G0 F2400 X81.583 Y136.525
G1 F2400 X98.568 Y153.510 E64.7320
G0 F2400 X99.162 Y153.510
G1 F2400 X81.583 Y135.931 E65.3831
G0 F2400 X81.583 Y135.337
G1 F2400 X99.756 Y153.510 E66.0563
G0 F2400 X100.350 Y153.510
G1 F2400 X81.583 Y134.743 E66.7514
G0 F2400 X81.583 Y134.149
G1 F2400 X100.944 Y153.510 E67.4686
G0 F2400 X101.538 Y153.510
G1 F2400 X81.583 Y133.555 E68.2078
G0 F2400 X81.583 Y132.961
G1 F2400 X102.132 Y153.510 E68.9689
G0 F2400 X102.726 Y153.510
G1 F2400 X81.583 Y132.367 E69.7521
G0 F2400 X81.583 Y131.773
G1 F2400 X103.320 Y153.510 E70.5573
G0 F2400 X103.914 Y153.510
G1 F2400 X81.583 Y131.179 E71.3845
G0 F2400 X81.583 Y130.585
G1 F2400 X104.508 Y153.510 E72.2336
G0 F2400 X105.102 Y153.510
G1 F2400 X81.583 Y129.991 E73.1048
G0 F2400 X81.583 Y129.397
G1 F2400 X105.696 Y153.510 E73.9980
G0 F2400 X106.290 Y153.510
G1 F2400 X81.583 Y128.803 E74.9132
G0 F2400 X81.583 Y128.209
G1 F2400 X106.884 Y153.510 E75.8504
G0 F2400 X107.478 Y153.510
G1 F2400 X81.583 Y127.615 E76.8096
G0 F2400 X81.583 Y127.021
G1 F2400 X108.072 Y153.510 E77.7908
G0 F2400 X108.666 Y153.510
G1 F2400 X81.583 Y126.427 E78.7940
G0 F2400 X81.583 Y125.833
G1 F2400 X109.260 Y153.510 E79.8192
G0 F2400 X109.853 Y153.510
G1 F2400 X81.583 Y125.239 E80.8663
G0 F2400 X81.583 Y124.645
G1 F2400 X110.447 Y153.510 E81.9355
G0 F2400 X111.041 Y153.510
G1 F2400 X81.583 Y124.051 E83.0267
G0 F2400 X81.583 Y123.458
G1 F2400 X111.635 Y153.510 E84.1399
G0 F2400 X112.229 Y153.510
G1 F2400 X81.583 Y122.864 E85.2751
G0 F2400 X81.583 Y122.270
G1 F2400 X112.823 Y153.510 E86.4323
G0 F2400 X113.417 Y153.510
G1 F2400 X81.583 Y121.676 E87.6114
G0 F2400 X81.583 Y121.082
G1 F2400 X114.011 Y153.510 E88.8126
G0 F2400 X114.605 Y153.510
G1 F2400 X81.583 Y120.488 E90.0358
G0 F2400 X81.583 Y119.894
G1 F2400 X115.199 Y153.510 E91.2810
G0 F2400 X115.793 Y153.510
G1 F2400 X81.583 Y119.300 E92.5482
G0 F2400 X81.583 Y118.706
G1 F2400 X116.387 Y153.510 E93.8374
G0 F2400 X116.981 Y153.510
G1 F2400 X81.583 Y118.112 E95.1486
G0 F2400 X81.583 Y117.518
G1 F2400 X117.575 Y153.510 E96.4818
G0 F2400 X118.169 Y153.510
G1 F2400 X81.583 Y116.924 E97.8370
G0 F2400 X81.583 Y116.330
G1 F2400 X118.763 Y153.510 E99.2142
G0 F2400 X119.357 Y153.510
G1 F2400 X81.583 Y115.736 E100.6134
G0 F2400 X81.583 Y115.142
G1 F2400 X119.951 Y153.510 E102.0346
G0 F2400 X120.545 Y153.510
G1 F2400 X81.583 Y114.548 E103.4778
G0 F2400 X81.583 Y113.954
G1 F2400 X121.139 Y153.510 E104.9430
G0 F2400 X121.733 Y153.510
G1 F2400 X81.583 Y113.360 E106.4303
G0 F2400 X81.583 Y112.766
G1 F2400 X122.327 Y153.510 E107.9395
G0 F2400 X122.921 Y153.510
G1 F2400 X81.583 Y112.172 E109.4707
G0 F2400 X81.583 Y111.578
G1 F2400 X123.515 Y153.510 E111.0239
G0 F2400 X124.109 Y153.510
G1 F2400 X81.583 Y110.984 E112.5992
G0 F2400 X81.583 Y110.390
G1 F2400 X124.703 Y153.510 E114.1964
G0 F2400 X125.297 Y153.510
G1 F2400 X81.583 Y109.796 E115.8156
G0 F2400 X81.583 Y109.202
G1 F2400 X125.891 Y153.510 E117.4569
G0 F2400 X126.485 Y153.510
G1 F2400 X81.583 Y108.608 E119.1201
G0 F2400 X81.583 Y108.014
G1 F2400 X127.079 Y153.510 E120.8054
G0 F2400 X127.673 Y153.510
G1 F2400 X81.583 Y107.420 E122.5126
G0 F2400 X81.583 Y106.826
G1 F2400 X128.267 Y153.510 E124.2419
G0 F2400 X128.861 Y153.510
G1 F2400 X81.583 Y106.232 E125.9931
G0 F2400 X81.583 Y105.638
G1 F2400 X129.454 Y153.510 E127.7663
G0 F2400 X130.048 Y153.510
G1 F2400 X81.583 Y105.044 E129.5616
G0 F2400 X81.583 Y104.450
G1 F2400 X130.642 Y153.510 E131.3788
G0 F2400 X131.236 Y153.510
G1 F2400 X81.583 Y103.857 E133.2181
G0 F2400 X81.583 Y103.263
G1 F2400 X131.830 Y153.510 E135.0793
G0 F2400 X132.424 Y153.510
G1 F2400 X81.583 Y102.669 E136.9625
G0 F2400 X81.583 Y102.075
G1 F2400 X133.018 Y153.510 E138.8677
G0 F2400 X133.612 Y153.510
G1 F2400 X81.583 Y101.481 E140.7950
G0 F2400 X81.583 Y100.887
G1 F2400 X134.206 Y153.510 E142.7442
G0 F2400 X134.800 Y153.510
G1 F2400 X81.583 Y100.293 E144.7155
G0 F2400 X81.583 Y99.699
G1 F2400 X135.394 Y153.510 E146.7087
G0 F2400 X135.988 Y153.510
G1 F2400 X81.583 Y99.105 E148.7240
G0 F2400 X81.583 Y98.511
G1 F2400 X136.582 Y153.510 E150.7612
G0 F2400 X137.176 Y153.510
G1 F2400 X81.583 Y97.917 E152.8205
G0 F2400 X81.583 Y97.323
G1 F2400 X137.770 Y153.510 E154.9017
G0 F2400 X138.364 Y153.510
G1 F2400 X81.583 Y96.729 E157.0050
G0 F2400 X81.935 Y96.488
G1 F2400 X138.958 Y153.510 E159.1172
G0 F2400 X139.552 Y153.510
G1 F2400 X82.530 Y96.488 E161.2294
G0 F2400 X83.125 Y96.489
G1 F2400 X140.146 Y153.510 E163.3415
G0 F2400 X140.740 Y153.510
G1 F2400 X83.719 Y96.489 E165.4537
G0 F2400 X84.313 Y96.490
G1 F2400 X141.334 Y153.510 E167.5658
G0 F2400 X141.928 Y153.510
G1 F2400 X84.908 Y96.491 E169.6779
G0 F2400 X85.503 Y96.491
G1 F2400 X142.522 Y153.510 E171.7900
G0 F2400 X143.116 Y153.510
G1 F2400 X86.098 Y96.492 E173.9020
G0 F2400 X86.691 Y96.492
G1 F2400 X143.710 Y153.510 E176.0141
G0 F2400 X144.304 Y153.510
G1 F2400 X87.286 Y96.493 E178.1261
G0 F2400 X87.881 Y96.493
G1 F2400 X144.898 Y153.510 E180.2381
G0 F2400 X145.492 Y153.510
G1 F2400 X88.476 Y96.494 E182.3500
G0 F2400 X89.070 Y96.495
G1 F2400 X146.086 Y153.510 E184.4620
G0 F2400 X146.680 Y153.510
G1 F2400 X89.664 Y96.495 E186.5739
G0 F2400 X90.259 Y96.496
G1 F2400 X147.274 Y153.510 E188.6858
G0 F2400 X147.868 Y153.510
G1 F2400 X90.854 Y96.496 E190.7977
G0 F2400 X91.448 Y96.497
G1 F2400 X148.462 Y153.510 E192.9096
G0 F2400 X149.055 Y153.510
G1 F2400 X92.043 Y96.498 E195.0214
G0 F2400 X92.638 Y96.498
G1 F2400 X149.649 Y153.510 E197.1332
G0 F2400 X150.243 Y153.510
G1 F2400 X93.232 Y96.498 E199.2450
G0 F2400 X93.826 Y96.499
G1 F2400 X150.837 Y153.510 E201.3568
G0 F2400 X151.431 Y153.510
G1 F2400 X94.421 Y96.500 E203.4685
G0 F2400 X95.016 Y96.500
G1 F2400 X152.025 Y153.510 E205.5802
G0 F2400 X152.619 Y153.510
G1 F2400 X95.610 Y96.501 E207.6919
G0 F2400 X96.204 Y96.501
G1 F2400 X153.213 Y153.510 E209.8036
G0 F2400 X153.807 Y153.510
G1 F2400 X96.799 Y96.502 E211.9153
G0 F2400 X97.394 Y96.503
G1 F2400 X154.401 Y153.510 E214.0269
G0 F2400 X154.995 Y153.510
G1 F2400 X97.988 Y96.503 E216.1386
G0 F2400 X98.583 Y96.504
G1 F2400 X155.589 Y153.510 E218.2502
G0 F2400 X156.183 Y153.510
G1 F2400 X99.177 Y96.504 E220.3618
G0 F2400 X99.772 Y96.505
G1 F2400 X156.777 Y153.510 E222.4733
G0 F2400 X157.371 Y153.510
G1 F2400 X100.366 Y96.505 E224.5849
G0 F2400 X100.961 Y96.506
G1 F2400 X157.965 Y153.510 E226.6964
G0 F2400 X158.559 Y153.510
G1 F2400 X101.556 Y96.507 E228.8079
G0 F2400 X102.150 Y96.507
G1 F2400 X159.153 Y153.510 E230.9193
G0 F2400 X159.747 Y153.510
G1 F2400 X102.744 Y96.508 E233.0308
G0 F2400 X103.339 Y96.508
G1 F2400 X160.341 Y153.510 E235.1423
G0 F2400 X160.935 Y153.510
G1 F2400 X103.934 Y96.509 E237.2537
G0 F2400 X104.528 Y96.510
G1 F2400 X161.529 Y153.510 E239.3651
G0 F2400 X162.123 Y153.510
G1 F2400 X105.122 Y96.510 E241.4764
G0 F2400 X105.717 Y96.510
G1 F2400 X162.717 Y153.510 E243.5878
G0 F2400 X163.311 Y153.510
G1 F2400 X106.312 Y96.511 E245.6991
G0 F2400 X106.906 Y96.512
G1 F2400 X163.905 Y153.510 E247.8105
G0 F2400 X164.499 Y153.510
G1 F2400 X107.501 Y96.513 E249.9217
G0 F2400 X108.096 Y96.513
G1 F2400 X165.093 Y153.510 E252.0330
G0 F2400 X165.687 Y153.510
G1 F2400 X108.690 Y96.513 E254.1443
G0 F2400 X109.284 Y96.514
G1 F2400 X166.281 Y153.510 E256.2555
G0 F2400 X166.875 Y153.510
G1 F2400 X109.879 Y96.515 E258.3667
G0 F2400 X110.474 Y96.515
G1 F2400 X167.469 Y153.510 E260.4779
G0 F2400 X168.063 Y153.510
G1 F2400 X111.068 Y96.516 E262.5891
G0 F2400 X111.662 Y96.516
G1 F2400 X168.415 Y153.268 E264.6913
G0 F2400 X168.415 Y152.674
G1 F2400 X112.257 Y96.517 E266.7714
G0 F2400 X112.852 Y96.517
G1 F2400 X168.415 Y152.080 E268.8296
G0 F2400 X168.415 Y151.487
G1 F2400 X113.446 Y96.518 E270.8657
G0 F2400 X114.041 Y96.519
G1 F2400 X168.415 Y150.893 E272.8798
G0 F2400 X168.415 Y150.299
G1 F2400 X114.635 Y96.519 E274.8719
G0 F2400 X115.230 Y96.520
G1 F2400 X168.416 Y149.706 E276.8420
G0 F2400 X168.416 Y149.112
G1 F2400 X115.824 Y96.520 E278.7901
G0 F2400 X116.419 Y96.521
G1 F2400 X168.416 Y148.518 E280.7161
G0 F2400 X168.416 Y147.924
G1 F2400 X117.014 Y96.522 E282.6201
G0 F2400 X117.608 Y96.522
G1 F2400 X168.417 Y147.331 E284.5022
G0 F2400 X168.417 Y146.737
G1 F2400 X118.202 Y96.522 E286.3622
G0 F2400 X118.797 Y96.523
G1 F2400 X168.417 Y146.143 E288.2002
G0 F2400 X168.417 Y145.550
G1 F2400 X119.392 Y96.524 E290.0162
G0 F2400 X119.986 Y96.525
G1 F2400 X168.417 Y144.956 E291.8102
G0 F2400 X168.417 Y144.362
G1 F2400 X120.580 Y96.525 E293.5821
G0 F2400 X121.175 Y96.525
G1 F2400 X168.418 Y143.768 E295.3321
G0 F2400 X168.418 Y143.174
G1 F2400 X121.770 Y96.526 E297.0600
G0 F2400 X122.364 Y96.527
G1 F2400 X168.418 Y142.581 E298.7659
G0 F2400 X168.419 Y141.987
G1 F2400 X122.959 Y96.527 E300.4498
G0 F2400 X123.554 Y96.528
G1 F2400 X168.419 Y141.393 E302.1117
G0 F2400 X168.419 Y140.799
G1 F2400 X124.148 Y96.528 E303.7516
G0 F2400 X124.742 Y96.529
G1 F2400 X168.420 Y140.206 E305.3695
G0 F2400 X168.420 Y139.612
G1 F2400 X125.337 Y96.529 E306.9653
G0 F2400 X125.932 Y96.530
G1 F2400 X168.420 Y139.018 E308.5391
G0 F2400 X168.420 Y138.424
G1 F2400 X126.526 Y96.531 E310.0909
G0 F2400 X127.120 Y96.531
G1 F2400 X168.420 Y137.831 E311.6208
G0 F2400 X168.420 Y137.237
G1 F2400 X127.715 Y96.532 E313.1285
G0 F2400 X128.310 Y96.532
G1 F2400 X168.420 Y136.643 E314.6143
G0 F2400 X168.421 Y136.050
G1 F2400 X128.904 Y96.533 E316.0781
G0 F2400 X129.499 Y96.534
G1 F2400 X168.421 Y135.456 E317.5198
G0 F2400 X168.421 Y134.862
G1 F2400 X130.093 Y96.534 E318.9395
G0 F2400 X130.688 Y96.534
G1 F2400 X168.422 Y134.268 E320.3373
G0 F2400 X168.422 Y133.675
G1 F2400 X131.282 Y96.535 E321.7130
G0 F2400 X131.877 Y96.536
G1 F2400 X168.422 Y133.081 E323.0667
G0 F2400 X168.422 Y132.487
G1 F2400 X132.472 Y96.537 E324.3983
G0 F2400 X133.066 Y96.537
G1 F2400 X168.422 Y131.893 E325.7080
