;Sliced by ideaMaker 5.2.4.8581, 2025-08-10 10:00:45 UTC+0200
;Slicer Version: 5.2.3.8580
;Dimension: 250.000 250.000 250.000 0.400
;Plate Shape: 0
;Origin Center: 0
;Extruder Offset #1: 25.000 0.000
;Filament Diameter #1: 1.750
;Filament Diameter #2: 1.750
;Filament Compensation #1: 94.000
;Filament Compensation #2: 90.000
;Filament Density #1: 1240.000
;Filament Density #2: 1240.000
;Filament Type #1: PLA
;Filament Type #2: PLA
;Filament Name #1: [Raise3D] Premium PLA 1.75mm
;Filament Name #2: [Raise3D] Premium PLA 1.75mm
;Filament #1: PLA 1.75mm
;Filament #2: PLA 1.75mm
;Printer Type: floppy
;Firmware: Klipper
;Bounding Box: 91.248 158.753 65.860 184.140 0.000 99.000
;Model Gap: 0.000
M221 T0 S94.00
M140 S50.00
M104 T0 S190.00
M109 T0 S190.00
T0
M190 S50.00
G21 ;metric values
G90 ;absolute positioning
M82 ;set extruder to absolute mode
M107 ;start with the fan off
G28 X0 Y0 ;move X/Y to min endstops
G28 Z0 ;move Z to min endstops
G1 Z15.0 F9000 ;move the platform down 15mm
G92 E0 ;zero the extruded length
G0 X43 Y27 F2000  ;go to the edge of the bed
G92 X0 Y0 E0 ;set zero to edge of the bed
G0 F9000 Z1 ;Z up with 1mm
G1 F200 Z0 ;Z home slowly
G1 Z15.0 F9000 ;move the platform down 15mm
G1 F9000 ;speed setting
G92 E-3 ;retraction
M117 Printing...
M1001
;TOTAL_NUM: 1
;PRINTING_TIME: 0
;REMAINING_TIME: 17727
;LAYER:0
;Z:0.300
;HEIGHT:0.300
;PRINTING: NON-OBJECT
;PRINTING_ID: -1
G1 F2400 E-5.0000
G0 F3900 X99.776 Y67.860
G0 F300 Z0.300
G0 F3900 X99.611 Y68.747
;TYPE:SKIRT
;WIDTH:0.420
G1 F1500 E0.0000
G1 F900 X99.776 Y67.860 E0.0473
G1 X100.834 Y66.463 E0.1391
G1 X102.499 Y65.860 E0.2318
G1 X147.773 Y65.891 E2.6035
G1 X149.809 Y67.009 E2.7252
G1 X150.391 Y68.748 E2.8212
G1 X150.391 Y102.806 E4.6054
G1 X153.274 Y106.554 E4.8531
G1 X155.044 Y109.608 E5.0380
G1 X156.456 Y112.750 E5.2184
G1 X157.503 Y115.883 E5.3915
G1 X158.139 Y118.565 E5.5359
G1 X158.608 Y121.836 E5.7090
G1 X158.753 Y124.572 E5.8525
G1 X158.625 Y127.996 E6.0320
G1 X158.166 Y131.295 E6.2065
G1 X157.546 Y133.964 E6.3500
G1 X156.519 Y137.090 E6.5224
G1 X155.125 Y140.234 E6.7025
G1 X153.413 Y143.227 E6.8831
G1 X151.902 Y145.393 E7.0215
G1 X150.391 Y147.190 E7.1445
G1 X150.391 Y181.253 E8.9289
G1 X150.226 Y182.140 E8.9761
G1 X149.168 Y183.537 E9.0679
G1 X147.503 Y184.140 E9.1607
G1 X102.498 Y184.140 E11.5183
G1 X101.611 Y183.975 E11.5655
G1 X100.214 Y182.917 E11.6573
G1 X99.611 Y181.252 E11.7501
G1 X99.611 Y147.195 E13.5342
G1 X98.187 Y145.509 E13.6498
G1 X96.669 Y143.354 E13.7878
G1 X95.018 Y140.507 E13.9602
G1 X93.550 Y137.264 E14.1467
G1 X92.686 Y134.762 E14.2854
G1 X91.868 Y131.459 E14.4636
G1 X91.392 Y128.144 E14.6391
G1 X91.248 Y125.423 E14.7818
G1 X91.373 Y122.029 E14.9597
G1 X91.712 Y119.402 E15.0985
G1 X92.450 Y116.056 E15.2780
G1 X93.481 Y112.913 E15.4513
G1 X94.889 Y109.741 E15.6331
G1 X96.157 Y107.458 E15.7699
G1 X98.249 Y104.527 E15.9585
G1 X98.101 Y97.997 E16.3007
G1 X99.611 Y95.770 E16.4416
G1 X99.611 Y68.747 E17.8572
G0 F3900 X100.031 Y68.747
G1 F900 X100.188 Y67.940 E17.9003
G1 X100.983 Y66.856 E17.9707
G1 X102.499 Y66.280 E18.0556
G1 X147.773 Y66.311 E20.4273
G1 X149.479 Y67.269 E20.5298
G1 X149.971 Y68.748 E20.6114
G1 X149.971 Y102.960 E22.4036
G1 X151.427 Y104.678 E22.5216
G1 X152.932 Y106.797 E22.6578
G1 X154.681 Y109.818 E22.8406
G1 X156.073 Y112.922 E23.0188
G1 X157.105 Y116.016 E23.1897
G1 X157.730 Y118.662 E23.3321
G1 X158.192 Y121.895 E23.5032
G1 X158.334 Y124.594 E23.6448
G1 X158.205 Y127.980 E23.8223
G1 X157.750 Y131.237 E23.9945
G1 X157.137 Y133.869 E24.1361
G1 X156.120 Y136.959 E24.3065
G1 X154.741 Y140.064 E24.4845
G1 X153.049 Y143.018 E24.6628
G1 X151.558 Y145.152 E24.7992
G1 X149.971 Y147.038 E24.9283
G1 X149.971 Y181.253 E26.7207
G1 X149.814 Y182.060 E26.7637
G1 X149.019 Y183.144 E26.8341
G1 X147.503 Y183.720 E26.9191
G1 X102.498 Y183.720 E29.2767
G1 X101.691 Y183.563 E29.3197
G1 X100.607 Y182.768 E29.3902
G1 X100.031 Y181.252 E29.4751
G1 X100.031 Y147.041 E31.2672
G1 X98.508 Y145.238 E31.3909
G1 X97.013 Y143.112 E31.5270
G1 X95.381 Y140.296 E31.6975
G1 X93.933 Y137.091 E31.8818
G1 X93.083 Y134.625 E32.0184
G1 X92.276 Y131.358 E32.1947
G1 X91.808 Y128.085 E32.3679
G1 X91.667 Y125.401 E32.5087
G1 X91.793 Y122.045 E32.6846
G1 X92.129 Y119.456 E32.8214
G1 X92.860 Y116.147 E32.9989
G1 X93.880 Y113.044 E33.1700
G1 X95.273 Y109.912 E33.3496
G1 X96.524 Y107.662 E33.4844
G1 X98.705 Y104.611 E33.6809
G1 X98.560 Y104.061 E33.7107
G1 X98.521 Y97.994 E34.0285
G1 X99.680 Y96.245 E34.1384
G1 X100.031 Y95.978 E34.1615
G1 X100.031 Y68.747 E35.5880
G0 F3900 X100.451 Y68.747
G1 F900 X100.599 Y68.024 E35.6267
G1 X101.313 Y67.116 E35.6872
G1 X102.499 Y66.700 E35.7530
G1 X147.773 Y66.731 E38.1247
G1 X149.146 Y67.525 E38.2078
G1 X149.551 Y68.748 E38.2753
G1 X149.551 Y103.114 E40.0755
G1 X151.107 Y104.950 E40.2016
G1 X152.589 Y107.040 E40.3358
G1 X154.317 Y110.028 E40.5166
G1 X155.690 Y113.094 E40.6926
G1 X156.707 Y116.149 E40.8613
G1 X157.321 Y118.758 E41.0017
G1 X157.776 Y121.954 E41.1708
G1 X157.915 Y124.616 E41.3104
G1 X157.785 Y127.964 E41.4859
G1 X157.334 Y131.179 E41.6560
G1 X156.728 Y133.773 E41.7955
G1 X155.721 Y136.827 E41.9640
G1 X154.357 Y139.893 E42.1398
G1 X152.685 Y142.809 E42.3159
G1 X151.214 Y144.911 E42.4503
G1 X149.551 Y146.885 E42.5855
G1 X149.551 Y181.253 E44.3858
G1 X149.403 Y181.976 E44.4245
G1 X148.689 Y182.884 E44.4850
G1 X147.503 Y183.300 E44.5508
G1 X102.498 Y183.300 E46.9084
G1 X101.775 Y183.152 E46.9471
G1 X100.867 Y182.438 E47.0076
G1 X100.451 Y181.252 E47.0734
G1 X100.451 Y146.887 E48.8736
G1 X98.829 Y144.967 E49.0053
G1 X97.357 Y142.871 E49.1395
G1 X95.744 Y140.086 E49.3081
G1 X94.316 Y136.918 E49.4901
G1 X93.480 Y134.488 E49.6247
G1 X92.684 Y131.258 E49.7990
G1 X92.224 Y128.026 E49.9700
G1 X92.086 Y125.379 E50.1088
G1 X92.213 Y122.061 E50.2828
G1 X92.545 Y119.510 E50.4175
G1 X93.270 Y116.238 E50.5931
G1 X94.279 Y113.175 E50.7620
G1 X95.657 Y110.083 E50.9394
G1 X96.891 Y107.866 E51.0723
G1 X99.166 Y104.689 E51.2770
G1 X98.980 Y104.058 E51.3114
G1 X98.941 Y97.991 E51.6293
G1 X100.021 Y96.490 E51.7261
G1 X100.451 Y96.202 E51.7532
G1 X100.451 Y68.747 E53.1915
G0 F3900 X100.871 Y68.747
G1 F900 X101.009 Y68.113 E53.2255
G1 X101.631 Y67.390 E53.2754
G1 X102.499 Y67.120 E53.3230
G1 X147.773 Y67.151 E55.6947
G1 X148.808 Y67.775 E55.7580
G1 X149.131 Y68.748 E55.8117
G1 X149.131 Y103.268 E57.6200
G1 X150.787 Y105.222 E57.7542
G1 X152.246 Y107.283 E57.8865
G1 X153.953 Y110.238 E58.0653
G1 X155.307 Y113.265 E58.2390
G1 X156.308 Y116.281 E58.4054
G1 X156.912 Y118.854 E58.5439
G1 X157.360 Y122.013 E58.7110
G1 X157.496 Y124.638 E58.8487
G1 X157.365 Y127.947 E59.0222
G1 X156.918 Y131.120 E59.1900
G1 X156.319 Y133.677 E59.3276
G1 X155.322 Y136.695 E59.4941
G1 X153.973 Y139.722 E59.6677
G1 X152.321 Y142.600 E59.8416
G1 X150.870 Y144.670 E59.9740
G1 X149.131 Y146.731 E60.1152
G1 X149.131 Y181.253 E61.9237
G1 X148.993 Y181.887 E61.9577
G1 X148.371 Y182.610 E62.0076
G1 X147.503 Y182.880 E62.0552
G1 X102.498 Y182.880 E64.4128
G1 X101.864 Y182.742 E64.4468
G1 X101.141 Y182.120 E64.4968
G1 X100.871 Y181.252 E64.5444
G1 X100.871 Y146.733 E66.3527
G1 X99.150 Y144.696 E66.4923
G1 X97.701 Y142.630 E66.6245
G1 X96.108 Y139.876 E66.7912
G1 X94.699 Y136.746 E66.9710
G1 X93.877 Y134.352 E67.1036
G1 X93.092 Y131.158 E67.2759
G1 X92.640 Y127.967 E67.4447
G1 X92.505 Y125.357 E67.5816
G1 X92.633 Y122.077 E67.7536
G1 X92.961 Y119.564 E67.8864
G1 X93.680 Y116.329 E68.0600
G1 X94.678 Y113.307 E68.2267
G1 X96.041 Y110.254 E68.4018
G1 X97.258 Y108.071 E68.5327
G1 X99.632 Y104.760 E68.7462
G1 X99.400 Y104.055 E68.7850
G1 X99.361 Y97.988 E69.1029
G1 X100.349 Y96.752 E69.1858
G1 X100.871 Y96.441 E69.2176
G1 X100.871 Y68.747 E70.6683
G0 F3900 X101.291 Y68.747
G1 F900 X101.418 Y68.210 E70.6972
G1 X101.766 Y67.788 E70.7259
G1 X102.499 Y67.540 E70.7664
G1 X147.773 Y67.571 E73.1381
G1 X148.463 Y68.015 E73.1811
G1 X148.711 Y68.748 E73.2216
G1 X148.711 Y103.422 E75.0380
G1 X150.467 Y105.494 E75.1803
G1 X151.903 Y107.525 E75.3106
G1 X153.589 Y110.448 E75.4873
G1 X154.923 Y113.436 E75.6588
G1 X155.909 Y116.413 E75.8230
G1 X156.503 Y118.950 E75.9595
G1 X156.944 Y122.072 E76.1247
G1 X157.077 Y124.660 E76.2605
G1 X156.945 Y127.930 E76.4319
G1 X156.502 Y131.061 E76.5975
G1 X155.910 Y133.581 E76.7331
G1 X154.923 Y136.563 E76.8977
G1 X153.589 Y139.551 E77.0691
G1 X151.957 Y142.391 E77.2407
G1 X150.526 Y144.429 E77.3711
G1 X148.711 Y146.577 E77.5185
G1 X148.711 Y181.253 E79.3349
G1 X148.584 Y181.790 E79.3639
G1 X148.236 Y182.212 E79.3925
G1 X147.503 Y182.460 E79.4330
G1 X102.498 Y182.460 E81.7906
G1 X101.961 Y182.333 E81.8195
G1 X101.539 Y181.985 E81.8482
G1 X101.291 Y181.252 E81.8887
G1 X101.291 Y146.579 E83.7050
G1 X99.471 Y144.425 E83.8528
G1 X98.045 Y142.389 E83.9830
G1 X96.472 Y139.666 E84.1477
G1 X95.082 Y136.574 E84.3253
G1 X94.274 Y134.216 E84.4559
G1 X93.500 Y131.058 E84.6262
G1 X93.056 Y127.908 E84.7929
G1 X92.924 Y125.335 E84.9278
G1 X93.053 Y122.094 E85.0977
G1 X93.377 Y119.618 E85.2285
G1 X94.090 Y116.420 E85.4002
G1 X95.077 Y113.439 E85.5647
G1 X96.424 Y110.425 E85.7376
G1 X97.625 Y108.276 E85.8666
G1 X100.103 Y104.824 E86.0892
G1 X99.820 Y104.052 E86.1322
G1 X99.781 Y97.985 E86.4501
G1 X100.657 Y97.037 E86.5177
G1 X101.291 Y96.690 E86.5555
G1 X101.291 Y68.747 E88.0193
;PRINTING: p2_Napkin_Holder.stl
;PRINTING_ID: 0
G1 F2400 E83.0193
G1 F300 Z0.500
G0 F3900 X102.711 Y68.960
;TYPE:WALL-OUTER
;WIDTH:0.420
G1 F300 Z0.300
G1 F1500 E88.0193
G1 F2400 X147.291 Y68.960 E90.3546
G1 X147.291 Y103.941 E92.1871
G1 X149.371 Y106.397 E92.3557
G1 X150.731 Y108.326 E92.4793
G1 X152.291 Y111.027 E92.6427
G1 X153.582 Y113.903 E92.8079
G1 X154.563 Y116.870 E92.9716
G1 X155.097 Y119.146 E93.0941
G1 X155.537 Y122.258 E93.2587
G1 X155.658 Y124.608 E93.3820
G1 X155.537 Y127.741 E93.5462
G1 X155.099 Y130.842 E93.7103
G1 X154.563 Y133.129 E93.8333
G1 X153.582 Y136.096 E93.9970
G1 X152.293 Y138.967 E94.1619
G1 X150.731 Y141.673 E94.3255
G1 X149.371 Y143.602 E94.4492
G1 X147.291 Y146.058 E94.6178
G1 X147.291 Y181.040 E96.4503
G1 X102.711 Y181.040 E98.7856
G1 X102.711 Y146.058 E100.6181
G1 X100.631 Y143.605 E100.7866
G1 X99.273 Y141.675 E100.9102
G1 X97.707 Y138.964 E101.0742
G1 X96.421 Y136.099 E101.2388
G1 X95.657 Y133.886 E101.3614
G1 X94.902 Y130.839 E101.5258
G1 X94.465 Y127.744 E101.6896
G1 X94.343 Y125.388 E101.8132
G1 X94.464 Y122.252 E101.9776
G1 X94.764 Y119.928 E102.1003
G1 X95.438 Y116.869 E102.2644
G1 X96.418 Y113.906 E102.4279
G1 X97.708 Y111.032 E102.5929
G1 X98.858 Y108.982 E102.7160
G1 X100.628 Y106.399 E102.8801
G1 X102.711 Y103.941 E103.0488
G1 X102.711 Y68.960 E104.8813
G0 F3900 X103.131 Y69.380
;TYPE:WALL-INNER
;WIDTH:0.420
G1 F2400 X146.871 Y69.380 E107.1726
G1 X146.871 Y104.095 E108.9912
G1 X149.038 Y106.654 E109.1668
G1 X150.377 Y108.552 E109.2885
G1 X151.917 Y111.219 E109.4498
G1 X153.190 Y114.055 E109.6127
G1 X154.158 Y116.984 E109.7743
G1 X154.684 Y119.224 E109.8948
G1 X155.119 Y122.298 E110.0574
G1 X155.238 Y124.611 E110.1788
G1 X155.118 Y127.703 E110.3409
G1 X154.686 Y130.765 E110.5028
G1 X154.158 Y133.015 E110.6239
G1 X153.190 Y135.944 E110.7855
G1 X151.919 Y138.776 E110.9481
G1 X150.377 Y141.447 E111.1097
G1 X149.038 Y143.345 E111.2314
G1 X146.871 Y145.904 E111.4070
G1 X146.871 Y180.620 E113.2256
G1 X103.131 Y180.620 E115.5169
G1 X103.131 Y145.904 E117.3355
G1 X100.964 Y143.348 E117.5110
G1 X99.627 Y141.449 E117.6327
G1 X98.081 Y138.772 E117.7946
G1 X96.812 Y135.944 E117.9570
G1 X96.060 Y133.767 E118.0777
G1 X95.315 Y130.759 E118.2400
G1 X94.883 Y127.704 E118.4016
G1 X94.763 Y125.385 E118.5233
G1 X94.883 Y122.287 E118.6857
G1 X95.178 Y120.000 E118.8065
G1 X95.844 Y116.980 E118.9685
G1 X96.810 Y114.058 E119.1297
G1 X98.083 Y111.221 E119.2926
G1 X99.215 Y109.204 E119.4138
G1 X100.962 Y106.654 E119.5757
G1 X103.131 Y104.095 E119.7514
G1 X103.131 Y69.380 E121.5699
G1 F2400 E116.5699
G1 F300 Z0.500
G0 F3900 X103.231 Y69.390
G0 X146.487 Y69.568
;TYPE:SOLID-FILL
;WIDTH:0.420
G1 F300 Z0.300
G1 F1500 E121.5699
G1 F2400 X146.681 Y69.762 E121.5843
G0 F2400 X146.681 Y70.356
G1 F2400 X145.893 Y69.568 E121.6427
G0 F2400 X145.299 Y69.568
G1 F2400 X146.681 Y70.950 E121.7451
G0 F2400 X146.681 Y71.544
G1 F2400 X144.705 Y69.568 E121.8915
G0 F2400 X144.111 Y69.568
G1 F2400 X146.681 Y72.138 E122.0819
G0 F2400 X146.681 Y72.732
G1 F2400 X143.517 Y69.568 E122.3163
G0 F2400 X142.923 Y69.568
G1 F2400 X146.681 Y73.326 E122.5947
G0 F2400 X146.681 Y73.920
G1 F2400 X142.329 Y69.568 E122.9171
G0 F2400 X141.736 Y69.568
G1 F2400 X146.681 Y74.514 E123.2835
G0 F2400 X146.681 Y75.108
G1 F2400 X141.142 Y69.568 E123.6938
G0 F2400 X140.548 Y69.568
G1 F2400 X146.681 Y75.702 E124.1482
G0 F2400 X146.681 Y76.296
G1 F2400 X139.954 Y69.568 E124.6466
G0 F2400 X139.360 Y69.568
G1 F2400 X146.681 Y76.890 E125.1890
G0 F2400 X146.681 Y77.484
G1 F2400 X138.766 Y69.568 E125.7754
G0 F2400 X138.172 Y69.568
G1 F2400 X146.681 Y78.078 E126.4058
G0 F2400 X146.681 Y78.671
G1 F2400 X137.578 Y69.568 E127.0802
G0 F2400 X136.984 Y69.568
G1 F2400 X146.681 Y79.265 E127.7986
G0 F2400 X146.681 Y79.859
G1 F2400 X136.390 Y69.568 E128.5610
G0 F2400 X135.796 Y69.568
G1 F2400 X146.681 Y80.453 E129.3674
G0 F2400 X146.681 Y81.047
G1 F2400 X135.202 Y69.568 E130.2178
G0 F2400 X134.608 Y69.568
G1 F2400 X146.681 Y81.641 E131.1122
G0 F2400 X146.681 Y82.235
G1 F2400 X134.014 Y69.568 E132.0506
G0 F2400 X133.420 Y69.568
G1 F2400 X146.681 Y82.829 E133.0330
G0 F2400 X146.681 Y83.423
G1 F2400 X132.826 Y69.568 E134.0594
G0 F2400 X132.232 Y69.568
G1 F2400 X146.681 Y84.017 E135.1299
G0 F2400 X146.681 Y84.611
G1 F2400 X131.638 Y69.568 E136.2443
G0 F2400 X131.044 Y69.568
G1 F2400 X146.681 Y85.205 E137.4027
G0 F2400 X146.681 Y85.799
G1 F2400 X130.450 Y69.568 E138.6052
G0 F2400 X129.856 Y69.568
G1 F2400 X146.681 Y86.393 E139.8516
G0 F2400 X146.681 Y86.987
G1 F2400 X129.262 Y69.568 E141.1421
G0 F2400 X128.668 Y69.568
G1 F2400 X146.681 Y87.581 E142.4765
G0 F2400 X146.681 Y88.175
G1 F2400 X128.074 Y69.568 E143.8550
G0 F2400 X127.480 Y69.568
G1 F2400 X146.681 Y88.769 E145.2775
G0 F2400 X146.681 Y89.363
G1 F2400 X126.886 Y69.568 E146.7440
G0 F2400 X126.292 Y69.568
G1 F2400 X146.681 Y89.957 E148.2544
G0 F2400 X146.681 Y90.551
G1 F2400 X125.698 Y69.568 E149.8089
G0 F2400 X125.104 Y69.568
G1 F2400 X146.681 Y91.145 E151.4074
G0 F2400 X146.681 Y91.739
G1 F2400 X124.510 Y69.568 E153.0499
G0 F2400 X123.916 Y69.568
G1 F2400 X146.681 Y92.333 E154.7364
G0 F2400 X146.681 Y92.927
G1 F2400 X123.322 Y69.568 E156.4669
G0 F2400 X122.728 Y69.568
G1 F2400 X146.681 Y93.521 E158.2414
G0 F2400 X146.681 Y94.115
G1 F2400 X122.135 Y69.568 E160.0599
G0 F2400 X121.541 Y69.568
G1 F2400 X146.681 Y94.709 E161.9224
G0 F2400 X146.681 Y95.303
G1 F2400 X120.947 Y69.568 E163.8289
G0 F2400 X120.353 Y69.568
G1 F2400 X146.681 Y95.897 E165.7794
G0 F2400 X146.681 Y96.491
G1 F2400 X119.759 Y69.568 E167.7739
G0 F2400 X119.165 Y69.568
G1 F2400 X146.681 Y97.085 E169.8124
G0 F2400 X146.681 Y97.679
G1 F2400 X118.571 Y69.568 E171.8949
G0 F2400 X117.977 Y69.568
G1 F2400 X146.681 Y98.272 E174.0214
G0 F2400 X146.681 Y98.866
G1 F2400 X117.383 Y69.568 E176.1919
G0 F2400 X116.789 Y69.568
G1 F2400 X146.681 Y99.460 E178.4064
G0 F2400 X146.681 Y100.054
G1 F2400 X116.195 Y69.568 E180.6649
G0 F2400 X115.601 Y69.568
G1 F2400 X146.681 Y100.648 E182.9674
G0 F2400 X146.681 Y101.242
G1 F2400 X115.007 Y69.568 E185.3139
G0 F2400 X114.413 Y69.568
G1 F2400 X146.681 Y101.836 E187.7044
G0 F2400 X146.681 Y102.430
G1 F2400 X113.819 Y69.568 E190.1390
G0 F2400 X113.225 Y69.568
G1 F2400 X146.681 Y103.024 E192.6175
G0 F2400 X146.681 Y103.618
G1 F2400 X112.631 Y69.568 E195.1400
G0 F2400 X112.037 Y69.568
G1 F2400 X146.947 Y104.478 E197.7263
G0 F3900 X149.471 Y107.596
G1 F2400 X111.443 Y69.568 E200.5435
G0 F2400 X110.849 Y69.568
G1 F2400 X150.604 Y109.323 E203.4887
G0 F2400 X151.416 Y110.729
G1 F2400 X110.255 Y69.568 E206.5380
G0 F2400 X109.661 Y69.568
G1 F2400 X152.035 Y111.942 E209.6772
G0 F2400 X152.518 Y113.019
G1 F2400 X109.067 Y69.568 E212.8962
G0 F2400 X108.473 Y69.568
G1 F2400 X153.002 Y114.097 E216.1950
G0 F2400 X153.300 Y114.988
G1 F2400 X107.879 Y69.568 E219.5599
G0 F2400 X107.285 Y69.568
