;Sliced by ideaMaker 5.3.2.8640, 2026-02-02 08:52:07 UTC+0100
;Slicer Version: 5.3.0.8620
;Dimension: 250.000 250.000 250.000 0.400
;Plate Shape: 0
;Origin Center: 0
;Extruder Offset #1: 25.000 0.000
;Filament Diameter #1: 1.750
;Filament Diameter #2: 1.750
;Filament Compensation #1: 94.000
;Filament Compensation #2: 90.000
;Filament Density #1: 1240.000
;Filament Density #2: 1240.000
;Filament Type #1: PLA
;Filament Type #2: PLA
;Filament Name #1: [Raise3D] Premium PLA 1.75mm
;Filament Name #2: [Raise3D] Premium PLA 1.75mm
;Filament #1: PLA 1.75mm
;Filament #2: PLA 1.75mm
;Printer Type: floppy
;Firmware: Klipper
;Bounding Box: 105.000 145.000 111.450 138.550 0.000 11.550
;Model Gap: 0.000
M221 T0 S94.00
M140 S48.00
M104 T0 S195.00
M109 T0 S195.00
T0
M190 S48.00
G21 ;metric values
G90 ;absolute positioning
M82 ;set extruder to absolute mode
M107 ;start with the fan off
G28 X0 Y0 ;move X/Y to min endstops
G28 Z0 ;move Z to min endstops
G1 Z15.0 F9000 ;move the platform down 15mm

G92 E0 ;zero the extruded length

G0 X43 Y27 F2000  ;go to the edge of the bed
G92 X0 Y0 E0 ;set zero to edge of the bed
G0 F9000 Z1 ;Z up with 1mm
G1 F200 Z0 ;Z home slowly

G1 Z15.0 F9000 ;move the platform down 15mm

G1 F9000 ;speed setting
G92 E-3 ;retraction
M117 Printing...
M1001
;TOTAL_NUM: 1
;PRINTING_TIME: 0
;REMAINING_TIME: 840
;LAYER:0
;Z:0.150
;HEIGHT:0.150
;PRINTING: Print_Wago_221-2411_Holder_3x.stl
;PRINTING_ID: 0
G1 F2400 E-5.0000
SET_VELOCITY_LIMIT ACCEL=500.00
SET_VELOCITY_LIMIT SQUARE_CORNER_VELOCITY=5.00
G0 F3900 X143.839 Y112.686
G0 F300 Z0.150
;TYPE:WALL-OUTER
;WIDTH:0.420
G1 F1500 E0.0000
G1 F2400 X144.168 Y113.544 E0.0241
G1 X144.168 Y136.489 E0.6251
G1 X143.987 Y137.115 E0.6421
G1 X143.626 Y137.495 E0.6558
G1 X142.968 Y137.694 E0.6739
G1 X107.028 Y137.694 E1.6152
G1 X106.441 Y137.538 E1.6311
G1 X106.059 Y137.184 E1.6448
G1 X105.831 Y136.440 E1.6651
G1 X105.831 Y113.553 E2.2646
G1 X105.987 Y112.930 E2.2814
G1 X106.342 Y112.525 E2.2955
G1 X107.010 Y112.304 E2.3140
G1 X143.048 Y112.309 E3.2579
G1 X143.839 Y112.686 E3.2808
G1 F2400 E-1.7192
G1 F300 Z0.350
G0 F3900 X143.417 Y113.037
G0 X106.622 Y112.980
G0 X106.582 Y112.888
;TYPE:WALL-INNER
;WIDTH:0.420
G1 F300 Z0.150
G1 F1500 E3.2808
G1 F2400 X107.078 Y112.724 E3.2945
G1 X142.953 Y112.729 E4.2342
G1 X143.507 Y112.993 E4.2502
G1 X143.748 Y113.622 E4.2679
G1 X143.748 Y136.429 E4.8653
G1 X143.398 Y137.125 E4.8857
G1 X142.906 Y137.274 E4.8991
G1 X107.083 Y137.274 E5.8374
G1 X106.427 Y136.953 E5.8565
G1 X106.251 Y136.377 E5.8723
G1 X106.251 Y113.605 E6.4688
G1 X106.582 Y112.888 E6.4895
G1 F2400 E1.4895
G1 F300 Z0.350
G0 F3900 X106.622 Y112.980
G0 X106.477 Y136.473
;TYPE:SOLID-FILL
;WIDTH:0.420
G1 F300 Z0.150
G1 F1500 E6.4895
G1 F2400 X107.051 Y137.047 E6.5107
G0 F2400 X107.682 Y137.083
G1 F2400 X106.440 Y135.841 E6.5567
G0 F2400 X106.440 Y135.247
G1 F2400 X108.276 Y137.083 E6.6247
G0 F2400 X108.870 Y137.083
G1 F2400 X106.440 Y134.653 E6.7147
G0 F2400 X106.440 Y134.059
G1 F2400 X109.464 Y137.083 E6.8268
G0 F2400 X110.058 Y137.083
G1 F2400 X106.440 Y133.465 E6.9608
G0 F2400 X106.440 Y132.871
G1 F2400 X110.652 Y137.083 E7.1168
G0 F2400 X111.246 Y137.083
G1 F2400 X106.440 Y132.277 E7.2948
G0 F2400 X106.440 Y131.683
G1 F2400 X111.840 Y137.083 E7.4948
G0 F2400 X112.434 Y137.083
G1 F2400 X106.440 Y131.089 E7.7169
G0 F2400 X106.440 Y130.495
G1 F2400 X113.028 Y137.083 E7.9609
G0 F2400 X113.622 Y137.083
G1 F2400 X106.440 Y129.901 E8.2269
G0 F2400 X106.440 Y129.307
G1 F2400 X114.216 Y137.083 E8.5150
G0 F2400 X114.810 Y137.083
G1 F2400 X106.440 Y128.713 E8.8250
G0 F2400 X106.440 Y128.119
G1 F2400 X115.404 Y137.083 E9.1570
G0 F2400 X115.998 Y137.083
G1 F2400 X106.440 Y127.526 E9.5111
G0 F2400 X106.440 Y126.932
G1 F2400 X116.592 Y137.083 E9.8871
G0 F2400 X117.185 Y137.083
G1 F2400 X106.440 Y126.338 E10.2851
G0 F2400 X106.440 Y125.744
G1 F2400 X117.779 Y137.083 E10.7051
G0 F2400 X118.373 Y137.083
G1 F2400 X106.440 Y125.150 E11.1471
G0 F2400 X106.440 Y124.556
G1 F2400 X118.967 Y137.083 E11.6112
G0 F2400 X119.561 Y137.083
G1 F2400 X106.440 Y123.962 E12.0972
G0 F2400 X106.440 Y123.368
G1 F2400 X120.155 Y137.083 E12.6052
G0 F2400 X120.749 Y137.083
G1 F2400 X106.440 Y122.774 E13.1352
G0 F2400 X106.440 Y122.180
G1 F2400 X121.343 Y137.083 E13.6873
G0 F2400 X121.937 Y137.083
G1 F2400 X106.440 Y121.586 E14.2613
G0 F2400 X106.440 Y120.992
G1 F2400 X122.531 Y137.083 E14.8573
G0 F2400 X123.125 Y137.083
G1 F2400 X106.440 Y120.398 E15.4754
G0 F2400 X106.440 Y119.804
G1 F2400 X123.719 Y137.083 E16.1154
G0 F2400 X124.313 Y137.083
G1 F2400 X106.440 Y119.210 E16.7775
G0 F2400 X106.440 Y118.616
G1 F2400 X124.907 Y137.083 E17.4615
G0 F2400 X125.501 Y137.083
G1 F2400 X106.440 Y118.022 E18.1676
G0 F2400 X106.440 Y117.428
G1 F2400 X126.095 Y137.083 E18.8956
G0 F2400 X126.689 Y137.083
G1 F2400 X106.440 Y116.834 E19.6457
G0 F2400 X106.440 Y116.240
G1 F2400 X127.283 Y137.083 E20.4177
G0 F2400 X127.877 Y137.083
G1 F2400 X106.440 Y115.646 E21.2118
G0 F2400 X106.440 Y115.052
G1 F2400 X128.471 Y137.083 E22.0278
G0 F2400 X129.065 Y137.083
G1 F2400 X106.440 Y114.458 E22.8659
G0 F2400 X106.440 Y113.864
G1 F2400 X129.659 Y137.083 E23.7260
G0 F2400 X130.253 Y137.083
G1 F2400 X106.557 Y113.388 E24.6037
G0 F2400 X106.783 Y113.019
G1 F2400 X130.847 Y137.083 E25.4951
G0 F2400 X131.441 Y137.083
G1 F2400 X107.270 Y112.913 E26.3904
G0 F2400 X107.864 Y112.913
G1 F2400 X132.035 Y137.083 E27.2857
G0 F2400 X132.629 Y137.083
G1 F2400 X108.458 Y112.913 E28.1810
G0 F2400 X109.052 Y112.913
G1 F2400 X133.223 Y137.083 E29.0763
G0 F2400 X133.817 Y137.083
G1 F2400 X109.646 Y112.913 E29.9716
G0 F2400 X110.240 Y112.913
G1 F2400 X134.411 Y137.083 E30.8669
G0 F2400 X135.005 Y137.083
G1 F2400 X110.834 Y112.913 E31.7623
G0 F2400 X111.428 Y112.913
G1 F2400 X135.599 Y137.083 E32.6576
G0 F2400 X136.193 Y137.083
G1 F2400 X112.022 Y112.913 E33.5529
G0 F2400 X112.617 Y112.914
G1 F2400 X136.786 Y137.083 E34.4481
G0 F2400 X137.380 Y137.083
G1 F2400 X113.211 Y112.914 E35.3434
G0 F2400 X113.805 Y112.914
G1 F2400 X137.974 Y137.083 E36.2387
G0 F2400 X138.568 Y137.083
G1 F2400 X114.399 Y112.914 E37.1339
G0 F2400 X114.993 Y112.914
G1 F2400 X139.162 Y137.083 E38.0292
G0 F2400 X139.756 Y137.083
G1 F2400 X115.587 Y112.914 E38.9244
G0 F2400 X116.181 Y112.914
G1 F2400 X140.350 Y137.083 E39.8197
G0 F2400 X140.944 Y137.083
G1 F2400 X116.775 Y112.914 E40.7149
G0 F2400 X117.369 Y112.915
G1 F2400 X141.538 Y137.083 E41.6102
G0 F2400 X142.132 Y137.083
G1 F2400 X117.963 Y112.915 E42.5054
G0 F2400 X118.557 Y112.915
G1 F2400 X142.726 Y137.083 E43.4007
G0 F2400 X143.218 Y136.981
G1 F2400 X119.151 Y112.915 E44.2921
G0 F2400 X119.745 Y112.915
G1 F2400 X143.443 Y136.613 E45.1699
G0 F2400 X143.558 Y136.133
G1 F2400 X120.339 Y112.915 E46.0300
G0 F2400 X120.933 Y112.915
G1 F2400 X143.558 Y135.539 E46.8680
G0 F2400 X143.558 Y134.945
G1 F2400 X121.527 Y112.915 E47.6841
G0 F2400 X122.121 Y112.915
G1 F2400 X143.558 Y134.351 E48.4781
G0 F2400 X143.558 Y133.757
G1 F2400 X122.716 Y112.915 E49.2501
G0 F2400 X123.310 Y112.915
G1 F2400 X143.558 Y133.163 E50.0002
G0 F2400 X143.558 Y132.569
G1 F2400 X123.904 Y112.915 E50.7282
G0 F2400 X124.498 Y112.915
G1 F2400 X143.558 Y131.975 E51.4342
G0 F2400 X143.558 Y131.381
G1 F2400 X125.092 Y112.915 E52.1182
G0 F2400 X125.686 Y112.915
G1 F2400 X143.558 Y130.787 E52.7802
G0 F2400 X143.558 Y130.193
G1 F2400 X126.280 Y112.915 E53.4202
G0 F2400 X126.874 Y112.915
G1 F2400 X143.558 Y129.599 E54.0382
G0 F2400 X143.558 Y129.005
G1 F2400 X127.468 Y112.915 E54.6342
G0 F2400 X128.062 Y112.916
G1 F2400 X143.558 Y128.412 E55.2082
G0 F2400 X143.558 Y127.818
G1 F2400 X128.656 Y112.916 E55.7602
G0 F2400 X129.250 Y112.916
G1 F2400 X143.558 Y127.224 E56.2902
G0 F2400 X143.558 Y126.630
G1 F2400 X129.844 Y112.916 E56.7982
G0 F2400 X130.438 Y112.916
G1 F2400 X143.558 Y126.036 E57.2842
G0 F2400 X143.558 Y125.442
G1 F2400 X131.032 Y112.916 E57.7482
G0 F2400 X131.626 Y112.916
G1 F2400 X143.558 Y124.848 E58.1901
G0 F2400 X143.558 Y124.254
G1 F2400 X132.220 Y112.916 E58.6101
G0 F2400 X132.815 Y112.917
G1 F2400 X143.558 Y123.660 E59.0080
G0 F2400 X143.558 Y123.066
G1 F2400 X133.409 Y112.917 E59.3840
G0 F2400 X134.003 Y112.917
G1 F2400 X143.558 Y122.472 E59.7379
G0 F2400 X143.558 Y121.878
G1 F2400 X134.597 Y112.917 E60.0698
G0 F2400 X135.191 Y112.917
G1 F2400 X143.558 Y121.284 E60.3798
G0 F2400 X143.558 Y120.690
G1 F2400 X135.785 Y112.917 E60.6677
G0 F2400 X136.378 Y112.917
G1 F2400 X143.558 Y120.096 E60.9336
G0 F2400 X143.558 Y119.502
G1 F2400 X136.972 Y112.917 E61.1776
G0 F2400 X137.566 Y112.917
G1 F2400 X143.558 Y118.908 E61.3995
G0 F2400 X143.558 Y118.314
G1 F2400 X138.161 Y112.917 E61.5994
G0 F2400 X138.755 Y112.917
G1 F2400 X143.558 Y117.720 E61.7773
G0 F2400 X143.558 Y117.126
G1 F2400 X139.349 Y112.917 E61.9332
G0 F2400 X139.943 Y112.917
G1 F2400 X143.558 Y116.532 E62.0671
G0 F2400 X143.558 Y115.938
G1 F2400 X140.537 Y112.917 E62.1790
G0 F2400 X141.131 Y112.917
G1 F2400 X143.558 Y115.344 E62.2689
G0 F2400 X143.558 Y114.750
G1 F2400 X141.725 Y112.917 E62.3368
G0 F2400 X142.319 Y112.917
G1 F2400 X143.558 Y114.156 E62.3827
G0 F2400 X143.500 Y113.504
G1 F2400 X142.916 Y112.920 E62.4044
;PRINTING_TIME: 77
;REMAINING_TIME: 763
;LAYER:1
;Z:0.450
;HEIGHT:0.300
M106 S64
;PRINTING: Print_Wago_221-2411_Holder_3x.stl
;PRINTING_ID: 0
G1 F2400 E57.4044
G1 F300 Z0.650
G0 F3900 X106.431 Y112.692
G0 F300 Z0.450
G0 F3900 X106.152 Y112.238
;TYPE:WALL-OUTER
;WIDTH:0.420
G1 F300 Z0.450
G1 F1500 E62.4044
G1 F2100 X107.005 Y111.957 E62.4514
G1 X143.048 Y111.959 E64.3395
G1 X143.587 Y112.086 E64.3685
G1 X144.066 Y112.425 E64.3993
G1 X144.386 Y112.930 E64.4306
G1 X144.501 Y113.478 E64.4599
G1 X144.502 Y136.501 E65.6660
G1 X144.272 Y137.297 E65.7094
G1 X143.807 Y137.788 E65.7448
G1 X142.968 Y138.042 E65.7907
G1 X107.028 Y138.042 E67.6734
G1 X106.280 Y137.843 E67.7140
G1 X105.786 Y137.385 E67.7493
G1 X105.496 Y136.440 E67.8010
G1 X105.496 Y113.551 E69.0001
G1 X105.701 Y112.746 E69.0436
G1 X106.152 Y112.238 E69.0792
G1 F2400 E64.0792
G1 F300 Z0.650
G0 F3900 X106.431 Y112.692
G0 X143.667 Y112.766
G0 X143.756 Y112.720
;TYPE:WALL-INNER
;WIDTH:0.420
;FLOW:90.0
G1 F300 Z0.450
G1 F1500 E69.0792
G1 F2400 X144.081 Y113.522 E69.1200
G1 X144.082 Y136.442 E70.2006
G1 X143.897 Y137.082 E70.2320
G1 X143.579 Y137.418 E70.2538
G1 X142.906 Y137.622 E70.2869
G1 X107.083 Y137.622 E71.9759
G1 X106.489 Y137.464 E72.0048
G1 X106.154 Y137.154 E72.0264
G1 X105.916 Y136.377 E72.0647
G1 X105.916 Y113.604 E73.1383
G1 X106.083 Y112.949 E73.1702
G1 X106.391 Y112.601 E73.1921
G1 X107.072 Y112.377 E73.2259
G1 X142.999 Y112.379 E74.9197
G1 X143.756 Y112.720 E74.9589
G1 F2400 E69.9589
G1 F300 Z0.650
G0 F3900 X143.667 Y112.766
G0 X143.751 Y136.898
;TYPE:SOLID-FILL
;WIDTH:0.420
;FLOW:95.0
G1 F300 Z0.450
G1 F1500 E74.9589
G1 F2700 X143.366 Y137.284 E74.9860
G0 F2700 X142.624 Y137.432
G1 F2700 X143.891 Y136.165 E75.0752
G0 F2700 X143.891 Y135.571
G1 F2700 X142.030 Y137.432 E75.2062
G0 F2700 X141.436 Y137.432
G1 F2700 X143.891 Y134.977 E75.3789
G0 F2700 X143.891 Y134.383
G1 F2700 X140.842 Y137.432 E75.5935
G0 F2700 X140.248 Y137.432
G1 F2700 X143.891 Y133.789 E75.8499
G0 F2700 X143.891 Y133.195
G1 F2700 X139.654 Y137.432 E76.1481
G0 F2700 X139.060 Y137.432
G1 F2700 X143.891 Y132.601 E76.4881
G0 F2700 X143.891 Y132.007
G1 F2700 X138.466 Y137.432 E76.8699
G0 F2700 X137.872 Y137.432
G1 F2700 X143.891 Y131.413 E77.2935
G0 F2700 X143.891 Y130.819
G1 F2700 X137.278 Y137.432 E77.7589
G0 F2700 X136.684 Y137.432
G1 F2700 X143.891 Y130.225 E78.2662
G0 F2700 X143.891 Y129.631
G1 F2700 X136.090 Y137.432 E78.8152
G0 F2700 X135.496 Y137.432
G1 F2700 X143.891 Y129.037 E79.4060
G0 F2700 X143.891 Y128.443
G1 F2700 X134.902 Y137.432 E80.0387
G0 F2700 X134.308 Y137.432
G1 F2700 X143.891 Y127.849 E80.7131
G0 F2700 X143.891 Y127.255
G1 F2700 X133.714 Y137.432 E81.4294
G0 F2700 X133.120 Y137.432
G1 F2700 X143.891 Y126.661 E82.1874
G0 F2700 X143.891 Y126.067
G1 F2700 X132.526 Y137.432 E82.9873
G0 F2700 X131.932 Y137.432
G1 F2700 X143.891 Y125.473 E83.8289
G0 F2700 X143.891 Y124.880
G1 F2700 X131.338 Y137.432 E84.7124
G0 F2700 X130.744 Y137.432
G1 F2700 X143.891 Y124.286 E85.6376
G0 F2700 X143.891 Y123.692
G1 F2700 X130.150 Y137.432 E86.6046
G0 F2700 X129.556 Y137.432
G1 F2700 X143.891 Y123.098 E87.6135
G0 F2700 X143.891 Y122.504
G1 F2700 X128.962 Y137.432 E88.6641
G0 F2700 X128.368 Y137.432
G1 F2700 X143.891 Y121.910 E89.7566
G0 F2700 X143.891 Y121.316
G1 F2700 X127.774 Y137.432 E90.8909
G0 F2700 X127.180 Y137.432
G1 F2700 X143.891 Y120.722 E92.0669
G0 F2700 X143.891 Y120.128
G1 F2700 X126.586 Y137.432 E93.2848
G0 F2700 X125.992 Y137.432
G1 F2700 X143.891 Y119.534 E94.5445
G0 F2700 X143.891 Y118.940
G1 F2700 X125.399 Y137.432 E95.8459
G0 F2700 X124.805 Y137.432
G1 F2700 X143.891 Y118.346 E97.1892
G0 F2700 X143.891 Y117.752
G1 F2700 X124.211 Y137.432 E98.5742
G0 F2700 X123.617 Y137.432
G1 F2700 X143.891 Y117.158 E100.0011
G0 F2700 X143.891 Y116.564
G1 F2700 X123.023 Y137.432 E101.4698
G0 F2700 X122.429 Y137.432
G1 F2700 X143.891 Y115.970 E102.9803
G0 F2700 X143.891 Y115.376
G1 F2700 X121.835 Y137.432 E104.5325
G0 F2700 X121.241 Y137.432
G1 F2700 X143.891 Y114.782 E106.1266
G0 F2700 X143.891 Y114.188
G1 F2700 X120.647 Y137.432 E107.7625
G0 F2700 X120.053 Y137.432
G1 F2700 X143.891 Y113.594 E109.4402
G0 F2700 X143.729 Y113.162
G1 F2700 X119.459 Y137.432 E111.1483
G0 F2700 X118.865 Y137.432
G1 F2700 X143.491 Y112.806 E112.8815
G0 F2700 X143.080 Y112.623
G1 F2700 X118.271 Y137.432 E114.6275
G0 F2700 X117.677 Y137.432
G1 F2700 X142.542 Y112.567 E116.3775
G0 F2700 X141.948 Y112.567
G1 F2700 X117.083 Y137.432 E118.1274
G0 F2700 X116.489 Y137.432
G1 F2700 X141.354 Y112.567 E119.8774
G0 F2700 X140.760 Y112.567
G1 F2700 X115.895 Y137.432 E121.6274
G0 F2700 X115.301 Y137.432
G1 F2700 X140.166 Y112.567 E123.3774
G0 F2700 X139.572 Y112.567
G1 F2700 X114.707 Y137.432 E125.1273
G0 F2700 X114.113 Y137.432
G1 F2700 X138.978 Y112.567 E126.8773
G0 F2700 X138.384 Y112.567
G1 F2700 X113.519 Y137.432 E128.6273
G0 F2700 X112.925 Y137.432
G1 F2700 X137.790 Y112.567 E130.3773
G0 F2700 X137.196 Y112.567
G1 F2700 X112.331 Y137.432 E132.1272
G0 F2700 X111.737 Y137.432
G1 F2700 X136.602 Y112.567 E133.8772
G0 F2700 X136.008 Y112.567
G1 F2700 X111.143 Y137.432 E135.6272
G0 F2700 X110.549 Y137.432
G1 F2700 X135.415 Y112.567 E137.3772
G0 F2700 X134.821 Y112.567
G1 F2700 X109.955 Y137.432 E139.1272
G0 F2700 X109.361 Y137.432
G1 F2700 X134.227 Y112.567 E140.8772
G0 F2700 X133.633 Y112.567
G1 F2700 X108.767 Y137.432 E142.6272
G0 F2700 X108.173 Y137.432
G1 F2700 X133.039 Y112.567 E144.3772
G0 F2700 X132.445 Y112.567
G1 F2700 X107.579 Y137.432 E146.1272
G0 F2700 X107.010 Y137.407
G1 F2700 X131.851 Y112.567 E147.8755
G0 F2700 X131.257 Y112.567
G1 F2700 X106.556 Y137.267 E149.6139
G0 F2700 X106.287 Y136.943
G1 F2700 X130.663 Y112.567 E151.3294
G0 F2700 X130.069 Y112.567
G1 F2700 X106.148 Y136.488 E153.0130
G0 F2700 X106.104 Y135.937
G1 F2700 X129.475 Y112.567 E154.6578
G0 F2700 X128.881 Y112.567
G1 F2700 X106.104 Y135.343 E156.2608
G0 F2700 X106.104 Y134.749
G1 F2700 X128.288 Y112.566 E157.8220
G0 F2700 X127.694 Y112.566
G1 F2700 X106.104 Y134.155 E159.3415
G0 F2700 X106.104 Y133.561
G1 F2700 X127.100 Y112.566 E160.8191
G0 F2700 X126.506 Y112.566
G1 F2700 X106.104 Y132.967 E162.2549
G0 F2700 X106.104 Y132.373
G1 F2700 X125.912 Y112.566 E163.6490
G0 F2700 X125.318 Y112.566
G1 F2700 X106.104 Y131.779 E165.0012
G0 F2700 X106.104 Y131.185
G1 F2700 X124.724 Y112.566 E166.3116
G0 F2700 X124.130 Y112.566
G1 F2700 X106.104 Y130.592 E167.5803
G0 F2700 X106.104 Y129.998
G1 F2700 X123.536 Y112.566 E168.8071
G0 F2700 X122.942 Y112.566
G1 F2700 X106.104 Y129.404 E169.9922
G0 F2700 X106.104 Y128.810
G1 F2700 X122.348 Y112.566 E171.1354
G0 F2700 X121.754 Y112.566
G1 F2700 X106.104 Y128.216 E172.2368
G0 F2700 X106.104 Y127.622
G1 F2700 X121.161 Y112.565 E173.2965
G0 F2700 X120.567 Y112.565
G1 F2700 X106.104 Y127.028 E174.3144
G0 F2700 X106.104 Y126.434
G1 F2700 X119.973 Y112.565 E175.2905
G0 F2700 X119.379 Y112.565
G1 F2700 X106.104 Y125.840 E176.2248
G0 F2700 X106.104 Y125.246
