;Sliced by ideaMaker 5.2.4.8581, 2025-07-31 19:31:43 UTC+0200
;Slicer Version: 5.2.3.8580
;Dimension: 250.000 250.000 250.000 0.400
;Plate Shape: 0
;Origin Center: 0
;Extruder Offset #1: 25.000 0.000
;Filament Diameter #1: 1.750
;Filament Diameter #2: 1.750
;Filament Compensation #1: 94.000
;Filament Compensation #2: 90.000
;Filament Density #1: 1240.000
;Filament Density #2: 1240.000
;Filament Type #1: PLA
;Filament Type #2: PLA
;Filament Name #1: [Raise3D] Premium PLA 1.75mm
;Filament Name #2: [Raise3D] Premium PLA 1.75mm
;Filament #1: PLA 1.75mm
;Filament #2: PLA 1.75mm
;Printer Type: floppy
;Firmware: Klipper
;Bounding Box: 95.297 154.708 95.234 154.765 0.000 4.500
;Model Gap: 0.000
M221 T0 S94.00
M140 S50.00
M104 T0 S190.00
M109 T0 S190.00
T0
M190 S50.00
G21 ;metric values
G90 ;absolute positioning
M82 ;set extruder to absolute mode
M107 ;start with the fan off
G28 X0 Y0 ;move X/Y to min endstops
G28 Z0 ;move Z to min endstops
G1 Z15.0 F9000 ;move the platform down 15mm
G92 E0 ;zero the extruded length
G0 X43 Y27 F2000  ;go to the edge of the bed
G92 X0 Y0 E0 ;set zero to edge of the bed
G0 F9000 Z1 ;Z up with 1mm
G1 F200 Z0 ;Z home slowly
G1 Z15.0 F9000 ;move the platform down 15mm
G1 F9000 ;speed setting
G92 E-3 ;retraction
M117 Printing...
M1001
;TOTAL_NUM: 1
;PRINTING_TIME: 0
;REMAINING_TIME: 1458
;LAYER:0
;Z:0.300
;HEIGHT:0.300
;PRINTING: NON-OBJECT
;PRINTING_ID: -1
G1 F2400 E-5.0000
G0 F3900 X103.967 Y103.925
G0 F300 Z0.300
;TYPE:SKIRT
;WIDTH:0.420
G1 F1500 E0.0000
G1 F900 X105.840 Y102.193 E0.1336
G1 X109.460 Y99.596 E0.3670
G1 X113.156 Y97.675 E0.5852
G1 X115.402 Y96.804 E0.7114
G1 X119.077 Y95.821 E0.9107
G1 X121.606 Y95.407 E1.0449
G1 X123.924 Y95.234 E1.1667
G1 X127.749 Y95.352 E1.3672
G1 X132.493 Y96.177 E1.6194
G1 X136.448 Y97.507 E1.8380
G1 X138.507 Y98.451 E1.9567
G1 X142.292 Y100.752 E2.1887
G1 X145.297 Y103.217 E2.3923
G1 X147.188 Y105.131 E2.5332
G1 X149.722 Y108.394 E2.7497
G1 X150.917 Y110.320 E2.8684
G1 X152.804 Y114.336 E3.1008
G1 X154.021 Y118.315 E3.3188
G1 X154.468 Y120.659 E3.4438
G1 X154.708 Y122.852 E3.5594
G1 X154.702 Y127.146 E3.7843
G1 X154.114 Y131.265 E4.0023
G1 X153.560 Y133.455 E4.1206
G1 X152.803 Y135.672 E4.2433
G1 X151.080 Y139.378 E4.4574
G1 X149.822 Y141.461 E4.5849
G1 X147.514 Y144.483 E4.7841
G1 X144.082 Y147.862 E5.0364
G1 X140.537 Y150.405 E5.2649
G1 X136.842 Y152.324 E5.4831
G1 X134.602 Y153.194 E5.6089
G1 X130.615 Y154.246 E5.8249
G1 X128.373 Y154.594 E5.9438
G1 X126.051 Y154.765 E6.0658
G1 X121.817 Y154.614 E6.2877
G1 X119.554 Y154.280 E6.4075
G1 X115.591 Y153.255 E6.6220
G1 X111.423 Y151.507 E6.8587
G1 X108.106 Y149.516 E7.0614
G1 X105.965 Y147.908 E7.2016
G1 X104.304 Y146.420 E7.3185
G1 X101.753 Y143.604 E7.5175
G1 X99.061 Y139.629 E7.7690
G1 X97.372 Y136.099 E7.9740
G1 X96.520 Y133.721 E8.1063
G1 X95.566 Y129.548 E8.3306
G1 X95.302 Y127.291 E8.4496
G1 X95.297 Y122.856 E8.6819
G1 X95.927 Y118.552 E8.9098
G1 X97.015 Y114.833 E9.1128
G1 X98.028 Y112.365 E9.2525
G1 X99.892 Y108.997 E9.4542
G1 X101.339 Y106.905 E9.5874
G1 X103.967 Y103.925 E9.7956
G0 F3900 X104.282 Y104.203
G1 F900 X106.125 Y102.502 E9.9269
G1 X109.705 Y99.937 E10.1577
G1 X113.349 Y98.048 E10.3727
G1 X115.553 Y97.196 E10.4965
G1 X119.185 Y96.227 E10.6934
G1 X121.673 Y95.822 E10.8254
G1 X123.955 Y95.653 E10.9453
G1 X127.736 Y95.772 E11.1434
G1 X132.421 Y96.591 E11.3926
G1 X136.314 Y97.905 E11.6078
G1 X138.331 Y98.833 E11.7241
G1 X142.074 Y101.111 E11.9537
G1 X145.030 Y103.541 E12.1541
G1 X146.889 Y105.426 E12.2928
G1 X149.390 Y108.651 E12.5066
G1 X150.560 Y110.541 E12.6230
G1 X152.424 Y114.514 E12.8529
G1 X153.619 Y118.437 E13.0678
G1 X154.055 Y120.737 E13.1904
G1 X154.290 Y122.897 E13.3042
G1 X154.282 Y127.145 E13.5267
G1 X153.698 Y131.205 E13.7416
G1 X153.153 Y133.352 E13.8577
G1 X152.406 Y135.536 E13.9786
G1 X150.699 Y139.201 E14.1904
G1 X149.463 Y141.244 E14.3154
G1 X147.180 Y144.228 E14.5123
G1 X143.788 Y147.563 E14.7615
G1 X140.293 Y150.063 E14.9866
G1 X136.649 Y151.951 E15.2015
G1 X134.450 Y152.802 E15.3251
G1 X130.508 Y153.840 E15.5386
G1 X128.309 Y154.179 E15.6552
G1 X126.020 Y154.346 E15.7754
G1 X121.832 Y154.194 E15.9949
G1 X119.616 Y153.865 E16.1123
G1 X115.696 Y152.848 E16.3244
G1 X111.586 Y151.120 E16.5580
G1 X108.323 Y149.156 E16.7575
G1 X106.217 Y147.572 E16.8955
G1 X104.584 Y146.107 E17.0104
G1 X102.064 Y143.322 E17.2072
G1 X99.409 Y139.394 E17.4556
G1 X97.751 Y135.918 E17.6573
G1 X96.915 Y133.580 E17.7874
G1 X95.976 Y129.455 E18.0090
G1 X95.719 Y127.243 E18.1256
G1 X95.717 Y122.856 E18.3555
G1 X96.343 Y118.613 E18.5801
G1 X97.418 Y114.951 E18.7801
G1 X98.416 Y112.525 E18.9175
G1 X100.259 Y109.201 E19.1166
G1 X101.684 Y107.144 E19.2477
G1 X104.282 Y104.203 E19.4532
G0 F3900 X104.597 Y104.481
G1 F900 X106.410 Y102.811 E19.5824
G1 X109.949 Y100.279 E19.8103
G1 X113.542 Y98.421 E20.0222
G1 X115.704 Y97.588 E20.1436
G1 X119.293 Y96.633 E20.3381
G1 X121.740 Y96.237 E20.4680
G1 X123.986 Y96.072 E20.5859
G1 X127.723 Y96.192 E20.7818
G1 X132.348 Y97.005 E21.0278
G1 X136.179 Y98.303 E21.2397
G1 X138.155 Y99.214 E21.3537
G1 X141.855 Y101.470 E21.5807
G1 X144.763 Y103.865 E21.7780
G1 X146.590 Y105.721 E21.9145
G1 X149.058 Y108.908 E22.1256
G1 X150.203 Y110.762 E22.2398
G1 X152.044 Y114.692 E22.4671
G1 X153.217 Y118.559 E22.6788
G1 X153.642 Y120.815 E22.7991
G1 X153.872 Y122.942 E22.9111
G1 X153.862 Y127.144 E23.1313
G1 X153.282 Y131.145 E23.3430
G1 X152.746 Y133.248 E23.4567
G1 X152.009 Y135.400 E23.5759
G1 X150.318 Y139.023 E23.7853
G1 X149.104 Y141.026 E23.9080
G1 X146.847 Y143.973 E24.1025
G1 X143.494 Y147.263 E24.3486
G1 X140.049 Y149.721 E24.5702
G1 X136.456 Y151.578 E24.7821
G1 X134.299 Y152.410 E24.9032
G1 X130.401 Y153.434 E25.1143
G1 X128.245 Y153.764 E25.2286
G1 X125.990 Y153.927 E25.3470
G1 X121.848 Y153.774 E25.5642
G1 X119.678 Y153.450 E25.6791
G1 X115.802 Y152.442 E25.8889
G1 X111.749 Y150.733 E26.1193
G1 X108.540 Y148.796 E26.3157
G1 X106.470 Y147.237 E26.4514
G1 X104.865 Y145.795 E26.5644
G1 X102.376 Y143.040 E26.7589
G1 X99.757 Y139.159 E27.0042
G1 X98.130 Y135.738 E27.2026
G1 X97.311 Y133.439 E27.3305
G1 X96.386 Y129.362 E27.5495
G1 X96.136 Y127.195 E27.6638
G1 X96.137 Y122.856 E27.8911
G1 X96.758 Y118.675 E28.1125
G1 X97.821 Y115.070 E28.3094
G1 X98.804 Y112.685 E28.4445
G1 X100.626 Y109.405 E28.6411
G1 X102.029 Y107.384 E28.7699
G1 X104.597 Y104.481 E28.9730
G0 F3900 X104.911 Y104.759
G1 F900 X106.694 Y103.120 E29.0998
G1 X110.193 Y100.621 E29.3251
G1 X113.735 Y98.794 E29.5339
G1 X115.855 Y97.980 E29.6528
G1 X119.401 Y97.039 E29.8450
G1 X121.807 Y96.652 E29.9727
G1 X124.017 Y96.491 E30.0887
G1 X127.709 Y96.612 E30.2822
G1 X132.275 Y97.419 E30.5251
G1 X136.044 Y98.701 E30.7337
G1 X137.979 Y99.595 E30.8453
G1 X141.636 Y101.828 E31.0698
G1 X144.496 Y104.189 E31.2641
G1 X146.290 Y106.015 E31.3982
G1 X148.726 Y109.165 E31.6068
G1 X149.845 Y110.982 E31.7186
G1 X151.664 Y114.870 E31.9434
G1 X152.815 Y118.680 E32.1519
G1 X153.229 Y120.892 E32.2698
G1 X153.454 Y122.987 E32.3802
G1 X153.442 Y127.143 E32.5979
G1 X152.866 Y131.084 E32.8065
G1 X152.339 Y133.144 E32.9179
G1 X151.612 Y135.264 E33.0353
G1 X149.938 Y138.845 E33.2424
G1 X148.745 Y140.808 E33.3627
G1 X146.514 Y143.717 E33.5548
G1 X143.200 Y146.963 E33.7978
G1 X139.805 Y149.379 E34.0161
G1 X136.264 Y151.205 E34.2248
G1 X134.148 Y152.018 E34.3435
G1 X130.295 Y153.028 E34.5522
G1 X128.182 Y153.349 E34.6641
G1 X125.960 Y153.508 E34.7808
G1 X121.864 Y153.354 E34.9955
G1 X119.740 Y153.035 E35.1081
G1 X115.908 Y152.036 E35.3155
G1 X111.913 Y150.346 E35.5427
G1 X108.757 Y148.437 E35.7360
G1 X106.723 Y146.902 E35.8694
G1 X105.146 Y145.483 E35.9806
G1 X102.688 Y142.759 E36.1728
G1 X100.105 Y138.924 E36.4150
G1 X98.510 Y135.558 E36.6101
G1 X97.707 Y133.298 E36.7358
G1 X96.796 Y129.269 E36.9521
G1 X96.553 Y127.147 E37.0640
G1 X96.557 Y122.856 E37.2888
G1 X97.173 Y118.737 E37.5070
G1 X98.224 Y115.189 E37.7008
G1 X99.192 Y112.845 E37.8337
G1 X100.993 Y109.609 E38.0277
G1 X102.374 Y107.624 E38.1544
G1 X104.911 Y104.759 E38.3548
G0 F3900 X105.225 Y105.038
G1 F900 X106.978 Y103.429 E38.4795
G1 X110.437 Y100.963 E38.7020
G1 X113.927 Y99.167 E38.9076
G1 X116.005 Y98.372 E39.0242
G1 X119.508 Y97.445 E39.2140
G1 X121.873 Y97.067 E39.3394
G1 X124.047 Y96.910 E39.4536
G1 X127.695 Y97.032 E39.6448
G1 X132.202 Y97.833 E39.8846
G1 X135.908 Y99.098 E40.0898
G1 X137.802 Y99.976 E40.1991
G1 X141.417 Y102.186 E40.4211
G1 X144.228 Y104.513 E40.6122
G1 X145.990 Y106.309 E40.7440
G1 X148.394 Y109.422 E40.9501
G1 X149.487 Y111.202 E41.0595
G1 X151.283 Y115.048 E41.2819
G1 X152.413 Y118.801 E41.4872
G1 X152.816 Y120.969 E41.6027
G1 X153.036 Y123.032 E41.7114
G1 X153.022 Y127.142 E41.9267
G1 X152.450 Y131.023 E42.1322
G1 X151.932 Y133.039 E42.2412
G1 X151.215 Y135.128 E42.3569
G1 X149.558 Y138.667 E42.5616
G1 X148.386 Y140.589 E42.6795
G1 X146.181 Y143.461 E42.8692
G1 X142.906 Y146.663 E43.1092
G1 X139.562 Y149.036 E43.3239
G1 X136.072 Y150.832 E43.5296
G1 X133.998 Y151.626 E43.6459
G1 X130.189 Y152.622 E43.8521
G1 X128.119 Y152.934 E43.9618
G1 X125.930 Y153.089 E44.0768
G1 X121.880 Y152.934 E44.2891
G1 X119.803 Y152.620 E44.3991
G1 X116.014 Y151.630 E44.6043
G1 X112.077 Y149.959 E44.8283
G1 X108.975 Y148.078 E45.0183
G1 X106.976 Y146.567 E45.1496
G1 X105.427 Y145.171 E45.2588
G1 X103.000 Y142.478 E45.4488
G1 X100.454 Y138.690 E45.6878
G1 X98.890 Y135.379 E45.8797
G1 X98.103 Y133.158 E46.0031
G1 X97.206 Y129.177 E46.2169
G1 X96.970 Y127.100 E46.3264
G1 X96.977 Y122.857 E46.5486
G1 X97.588 Y118.800 E46.7636
G1 X98.627 Y115.309 E46.9544
G1 X99.580 Y113.006 E47.0849
G1 X101.360 Y109.814 E47.2764
G1 X102.719 Y107.864 E47.4009
G1 X105.225 Y105.038 E47.5988
;PRINTING: Perpetual_wheel.STL
;PRINTING_ID: 0
G1 F2400 E42.5988
G1 F300 Z0.500
G0 F3900 X106.278 Y105.993
;TYPE:WALL-OUTER
;WIDTH:0.420
G1 F300 Z0.300
G1 F1500 E47.5988
G1 F2400 X107.926 Y104.487 E47.7157
G1 X111.096 Y102.219 E47.9199
G1 X114.568 Y100.435 E48.1244
G1 X116.378 Y99.743 E48.2259
G1 X119.875 Y98.817 E48.4154
G1 X122.083 Y98.470 E48.5325
G1 X124.016 Y98.329 E48.6340
G1 X127.627 Y98.450 E48.8233
G1 X131.750 Y99.180 E49.0426
G1 X135.445 Y100.441 E49.2471
G1 X137.201 Y101.264 E49.3487
G1 X140.525 Y103.292 E49.5527
G1 X143.310 Y105.596 E49.7420
G1 X144.877 Y107.191 E49.8592
G1 X147.260 Y110.277 E50.0634
G1 X148.270 Y111.932 E50.1650
G1 X149.927 Y115.466 E50.3695
G1 X151.048 Y119.194 E50.5734
G1 X151.404 Y121.121 E50.6760
G1 X151.616 Y123.050 E50.7777
G1 X151.616 Y126.946 E50.9818
G1 X151.047 Y130.810 E51.1864
G1 X150.558 Y132.681 E51.2877
G1 X149.926 Y134.533 E51.3902
G1 X148.270 Y138.067 E51.5946
G1 X147.266 Y139.713 E51.6956
G1 X145.060 Y142.587 E51.8854
G1 X142.071 Y145.513 E52.1045
G1 X138.903 Y147.780 E52.3086
G1 X135.431 Y149.564 E52.5131
G1 X133.619 Y150.257 E52.6147
G1 X129.847 Y151.243 E52.8190
G1 X127.910 Y151.529 E52.9215
G1 X125.984 Y151.670 E53.0227
G1 X122.079 Y151.527 E53.2274
G1 X120.152 Y151.243 E53.3294
G1 X116.382 Y150.258 E53.5335
G1 X112.801 Y148.736 E53.7374
G1 X109.705 Y146.860 E53.9270
G1 X107.925 Y145.512 E54.0440
G1 X106.483 Y144.220 E54.1454
G1 X104.059 Y141.531 E54.3350
G1 X101.728 Y138.063 E54.5539
G1 X100.184 Y134.795 E54.7433
G1 X99.445 Y132.692 E54.8600
G1 X98.596 Y128.883 E55.0645
G1 X98.383 Y126.949 E55.1664
G1 X98.383 Y123.053 E55.3705
G1 X98.951 Y119.193 E55.5749
G1 X99.980 Y115.738 E55.7637
G1 X100.834 Y113.671 E55.8809
G1 X102.586 Y110.528 E56.0694
G1 X103.874 Y108.691 E56.1869
G1 X106.278 Y105.993 E56.3762
G1 F2400 E51.3762
G1 F300 Z0.500
G0 F3900 X106.644 Y106.363
G0 X108.995 Y104.350
G0 X111.957 Y102.386
G0 X113.241 Y102.737
G0 X113.922 Y103.990
G0 X113.577 Y115.216
G0 X121.444 Y122.796
G0 X121.278 Y123.059
G0 X120.783 Y122.901
G1 F300 Z0.300
G1 F1500 E56.3762
G1 F2400 X120.510 Y122.520 E56.4008
G1 X118.937 Y121.811 E56.4911
G1 X117.571 Y120.976 E56.5750
G1 X115.712 Y119.439 E56.7014
G1 X114.174 Y117.583 E56.8276
G1 X113.013 Y115.475 E56.9537
G1 X112.449 Y113.971 E57.0378
G1 X112.083 Y112.426 E57.1210
G1 X111.894 Y110.017 E57.2476
G1 X112.011 Y108.431 E57.3309
G1 X112.328 Y106.857 E57.4150
G1 X113.267 Y104.047 E57.5702
G1 X112.834 Y103.251 E57.6177
G1 X112.043 Y103.036 E57.6606
G1 X110.289 Y104.067 E57.7672
G1 X106.800 Y107.021 E58.0067
G1 X105.648 Y108.424 E58.1018
G1 X104.921 Y109.650 E58.1765
G1 X104.144 Y111.643 E58.2885
G1 X103.758 Y114.441 E58.4365
G1 X103.946 Y116.574 E58.5486
G1 X104.561 Y118.624 E58.6608
G1 X105.575 Y120.505 E58.7727
G1 X106.913 Y122.138 E58.8833
G1 X108.559 Y123.502 E58.9953
G1 X110.448 Y124.506 E59.1073
G1 X112.501 Y125.109 E59.2194
G1 X114.606 Y125.286 E59.3301
G1 X116.734 Y125.075 E59.4421
G1 X119.414 Y124.124 E59.5911
G1 X120.617 Y123.426 E59.6639
G1 X120.783 Y122.901 E59.6928
G1 F2400 E54.6928
G1 F300 Z0.500
G0 F3900 X123.439 Y120.604
G1 F300 Z0.300
G1 F1500 E59.6928
G1 F2400 X123.595 Y120.156 E59.7176
G1 X122.745 Y117.661 E59.8557
G1 X122.456 Y116.104 E59.9387
G1 X122.364 Y114.500 E60.0228
G1 X122.589 Y112.106 E60.1488
G1 X123.438 Y109.364 E60.2992
G1 X124.763 Y106.970 E60.4425
G1 X126.325 Y105.141 E60.5685
G1 X128.201 Y103.639 E60.6944
G1 X131.395 Y102.000 E60.8824
G1 X131.783 Y101.210 E60.9285
G1 X131.554 Y100.500 E60.9676
G1 X130.963 Y100.117 E61.0045
G1 X127.788 Y99.575 E61.1732
G1 X124.902 Y99.417 E61.3246
G1 X123.033 Y99.595 E61.4230
G1 X120.986 Y100.196 E61.5348
G1 X119.695 Y100.810 E61.6096
G1 X117.445 Y102.513 E61.7575
G1 X116.070 Y104.155 E61.8697
G1 X115.057 Y106.034 E61.9815
G1 X114.593 Y107.384 E62.0563
G1 X114.247 Y109.505 E62.1688
G1 X114.244 Y110.914 E62.2426
G1 X114.602 Y113.015 E62.3543
G1 X115.062 Y114.368 E62.4292
G1 X116.492 Y116.800 E62.5769
G1 X117.962 Y118.358 E62.6892
G1 X119.711 Y119.584 E62.8010
G1 X120.996 Y120.201 E62.8757
G1 X123.001 Y120.785 E62.9851
G1 X123.439 Y120.604 E63.0099
G1 F2400 E58.0099
G1 F300 Z0.500
G0 F3900 X126.709 Y120.753
G1 F300 Z0.300
G1 F1500 E63.0099
G1 F2400 X127.418 Y120.609 E63.0478
G1 X128.593 Y118.219 E63.1873
G1 X130.558 Y115.714 E63.3541
G1 X132.419 Y114.172 E63.4807
G1 X133.783 Y113.358 E63.5639
G1 X135.251 Y112.719 E63.6478
G1 X137.581 Y112.082 E63.7743
G1 X139.982 Y111.894 E63.9005
G1 X143.140 Y112.327 E64.0675
G1 X145.772 Y113.256 E64.2137
G1 X146.465 Y113.084 E64.2511
G1 X146.854 Y112.651 E64.2816
G1 X146.895 Y111.781 E64.3272
G1 X145.344 Y109.494 E64.4720
G1 X143.089 Y106.906 E64.6518
G1 X141.575 Y105.648 E64.7549
G1 X140.349 Y104.921 E64.8296
G1 X138.363 Y104.147 E64.9412
G1 X136.967 Y103.856 E65.0159
G1 X135.051 Y103.767 E65.1164
G1 X133.426 Y103.946 E65.2021
G1 X132.046 Y104.314 E65.2769
G1 X129.494 Y105.574 E65.4260
G1 X127.357 Y107.430 E65.5742
G1 X125.798 Y109.794 E65.7226
G1 X124.889 Y112.500 E65.8721
G1 X124.719 Y115.323 E66.0203
G1 X125.089 Y117.430 E66.1323
G1 X125.562 Y118.778 E66.2072
G1 X126.709 Y120.753 E66.3268
G1 F2400 E61.3268
G1 F300 Z0.500
G0 F3900 X129.241 Y123.282
G1 F300 Z0.300
G1 F1500 E66.3268
G1 F2400 X129.823 Y123.602 E66.3616
G1 X132.338 Y122.745 E66.5008
G1 X133.895 Y122.456 E66.5837
G1 X135.498 Y122.364 E66.6679
G1 X137.896 Y122.589 E66.7940
G1 X140.211 Y123.259 E66.9203
G1 X142.334 Y124.331 E67.0449
G1 X144.269 Y125.764 E67.1710
G1 X146.362 Y128.205 E67.3394
G1 X147.994 Y131.386 E67.5267
G1 X148.611 Y131.758 E67.5645
G1 X149.340 Y131.655 E67.6030
G1 X149.829 Y131.127 E67.6407
G1 X150.203 Y129.394 E67.7336
G1 X150.586 Y124.993 E67.9650
G1 X150.166 Y122.085 E68.1189
G1 X149.196 Y119.707 E68.2535
G1 X148.412 Y118.511 E68.3284
G1 X146.962 Y116.939 E68.4404
G1 X144.616 Y115.358 E68.5886
G1 X141.914 Y114.441 E68.7381
G1 X139.133 Y114.243 E68.8841
G1 X137.679 Y114.434 E68.9610
G1 X135.641 Y115.058 E69.0726
G1 X134.365 Y115.696 E69.1473
G1 X132.640 Y116.948 E69.2590
G1 X131.639 Y117.965 E69.3337
G1 X130.413 Y119.714 E69.4456
G1 X129.565 Y121.678 E69.5577
G1 X129.241 Y123.282 E69.6434
G1 F2400 E64.6434
G1 F300 Z0.500
G0 F3900 X129.207 Y127.015
G1 F300 Z0.300
G1 F1500 E69.6434
G1 F2400 X129.480 Y127.475 E69.6714
G1 X131.062 Y128.188 E69.7623
G1 X132.428 Y129.023 E69.8462
G1 X134.287 Y130.560 E69.9726
G1 X135.825 Y132.416 E70.0988
G1 X136.986 Y134.524 E70.2249
G1 X137.550 Y136.028 E70.3090
G1 X137.916 Y137.573 E70.3922
