;Sliced by ideaMaker 5.2.4.8581, 2025-08-14 21:26:40 UTC+0200
;Slicer Version: 5.2.3.8580
;Dimension: 250.000 250.000 250.000 0.400
;Plate Shape: 0
;Origin Center: 0
;Extruder Offset #1: 25.000 0.000
;Filament Diameter #1: 1.750
;Filament Diameter #2: 1.750
;Filament Compensation #1: 94.000
;Filament Compensation #2: 90.000
;Filament Density #1: 1240.000
;Filament Density #2: 1240.000
;Filament Type #1: PLA
;Filament Type #2: PLA
;Filament Name #1: [Raise3D] Premium PLA 1.75mm
;Filament Name #2: [Raise3D] Premium PLA 1.75mm
;Filament #1: PLA 1.75mm
;Filament #2: PLA 1.75mm
;Printer Type: floppy
;Firmware: Klipper
;Bounding Box: 95.399 154.600 95.431 154.589 0.000 4.650
;Model Gap: 0.000
M221 T0 S94.00
M140 S50.00
M104 T0 S195.00
M109 T0 S195.00
T0
M190 S50.00
G21 ;metric values
G90 ;absolute positioning
M82 ;set extruder to absolute mode
M107 ;start with the fan off
G28 X0 Y0 ;move X/Y to min endstops
G28 Z0 ;move Z to min endstops
G1 Z15.0 F9000 ;move the platform down 15mm
G92 E0 ;zero the extruded length
G0 X43 Y27 F2000  ;go to the edge of the bed
G92 X0 Y0 E0 ;set zero to edge of the bed
G0 F9000 Z1 ;Z up with 1mm
G1 F200 Z0 ;Z home slowly
G1 Z15.0 F9000 ;move the platform down 15mm
G1 F9000 ;speed setting
G92 E-3 ;retraction
M117 Printing...
M1001
;TOTAL_NUM: 1
;PRINTING_TIME: 0
;REMAINING_TIME: 1788
;LAYER:0
;Z:0.150
;HEIGHT:0.150
M106 S153
;PRINTING: NON-OBJECT
;PRINTING_ID: -1
G1 F2400 E-5.0000
SET_VELOCITY_LIMIT ACCEL=500.00
SET_VELOCITY_LIMIT SQUARE_CORNER_VELOCITY=5.00
G0 F3900 X102.965 Y105.231
G0 F300 Z0.150
;TYPE:SKIRT
;WIDTH:0.420
G1 F1500 E0.0000
G1 F900 X105.901 Y102.384 E0.1071
G1 X107.792 Y100.911 E0.1699
G1 X111.271 Y98.777 E0.2768
G1 X115.368 Y97.008 E0.3937
G1 X117.577 Y96.343 E0.4541
G1 X121.550 Y95.599 E0.5600
G1 X126.325 Y95.431 E0.6851
G1 X130.163 Y95.855 E0.7863
G1 X132.367 Y96.327 E0.8453
G1 X136.389 Y97.677 E0.9564
G1 X138.421 Y98.613 E1.0150
G1 X142.162 Y100.881 E1.1296
G1 X143.987 Y102.289 E1.1900
G1 X146.991 Y105.183 E1.2992
G1 X148.454 Y106.937 E1.3591
G1 X150.710 Y110.332 E1.4658
G1 X152.648 Y114.435 E1.5847
G1 X153.841 Y118.341 E1.6917
G1 X154.272 Y120.569 E1.7511
G1 X154.600 Y124.777 E1.8616
G1 X154.536 Y127.037 E1.9209
G1 X153.895 Y131.411 E2.0367
G1 X152.644 Y135.577 E2.1506
G1 X150.918 Y139.294 E2.2579
G1 X148.482 Y143.023 E2.3746
G1 X147.040 Y144.762 E2.4338
G1 X144.096 Y147.616 E2.5412
G1 X140.421 Y150.262 E2.6598
G1 X136.762 Y152.163 E2.7678
G1 X134.674 Y152.980 E2.8265
G1 X130.374 Y154.106 E2.9429
G1 X126.298 Y154.570 E3.0504
G1 X124.029 Y154.589 E3.1098
G1 X119.842 Y154.148 E3.2201
G1 X117.617 Y153.667 E3.2797
G1 X113.413 Y152.235 E3.3960
G1 X109.763 Y150.377 E3.5033
G1 X107.865 Y149.143 E3.5626
G1 X106.011 Y147.709 E3.6240
G1 X103.008 Y144.816 E3.7332
G1 X101.545 Y143.062 E3.7930
G1 X99.289 Y139.667 E3.8998
G1 X97.351 Y135.564 E4.0186
G1 X96.158 Y131.658 E4.1256
G1 X95.727 Y129.429 E4.1851
G1 X95.399 Y125.215 E4.2958
G1 X95.463 Y122.962 E4.3548
G1 X96.104 Y118.588 E4.4706
G1 X97.355 Y114.422 E4.5845
G1 X99.081 Y110.705 E4.6919
G1 X101.517 Y106.976 E4.8086
G1 X102.965 Y105.231 E4.8679
G0 F3900 X103.288 Y105.500
G1 F900 X106.193 Y102.686 E4.9739
G1 X108.050 Y101.243 E5.0355
G1 X111.490 Y99.135 E5.1412
G1 X115.534 Y97.394 E5.2565
G1 X117.698 Y96.745 E5.3156
G1 X121.627 Y96.012 E5.4203
G1 X126.279 Y95.848 E5.5423
G1 X130.117 Y96.272 E5.6434
G1 X132.279 Y96.738 E5.7013
G1 X136.255 Y98.075 E5.8112
G1 X138.245 Y98.994 E5.8686
G1 X141.944 Y101.240 E5.9820
G1 X143.730 Y102.621 E6.0411
G1 X146.699 Y105.485 E6.1491
G1 X148.131 Y107.206 E6.2078
G1 X150.360 Y110.564 E6.3133
G1 X152.268 Y114.614 E6.4306
G1 X153.439 Y118.463 E6.5360
G1 X153.860 Y120.648 E6.5943
G1 X154.181 Y124.809 E6.7036
G1 X154.116 Y127.025 E6.7616
G1 X153.479 Y131.350 E6.8761
G1 X152.242 Y135.456 E6.9885
G1 X150.537 Y139.117 E7.0942
G1 X148.131 Y142.793 E7.2093
G1 X146.717 Y144.494 E7.2673
G1 X143.804 Y147.314 E7.3734
G1 X140.176 Y149.921 E7.4905
G1 X136.569 Y151.790 E7.5969
G1 X134.521 Y152.589 E7.6544
G1 X130.268 Y153.700 E7.7696
G1 X126.251 Y154.153 E7.8755
G1 X124.026 Y154.169 E7.9337
G1 X119.886 Y153.730 E8.0428
G1 X117.706 Y153.257 E8.1012
G1 X113.549 Y151.838 E8.2163
G1 X109.954 Y150.003 E8.3220
G1 X108.094 Y148.791 E8.3801
G1 X106.268 Y147.377 E8.4406
G1 X103.300 Y144.514 E8.5486
G1 X101.868 Y142.793 E8.6073
G1 X99.639 Y139.435 E8.7128
G1 X97.731 Y135.385 E8.8301
G1 X96.560 Y131.536 E8.9355
G1 X96.139 Y129.350 E8.9938
G1 X95.818 Y125.183 E9.1033
G1 X95.883 Y122.974 E9.1611
G1 X96.520 Y118.649 E9.2756
G1 X97.757 Y114.543 E9.3880
G1 X99.462 Y110.882 E9.4937
G1 X101.868 Y107.206 E9.6088
G1 X103.288 Y105.500 E9.6670
G0 F3900 X103.610 Y105.769
G1 F900 X106.485 Y102.988 E9.7717
G1 X108.307 Y101.575 E9.8321
G1 X111.709 Y99.493 E9.9366
G1 X115.700 Y97.780 E10.0503
G1 X117.818 Y97.147 E10.1082
G1 X121.704 Y96.425 E10.2118
G1 X126.233 Y96.265 E10.3305
G1 X130.071 Y96.689 E10.4316
G1 X132.190 Y97.148 E10.4884
G1 X136.121 Y98.473 E10.5970
G1 X138.068 Y99.375 E10.6532
G1 X141.726 Y101.599 E10.7654
G1 X143.473 Y102.953 E10.8233
G1 X146.407 Y105.787 E10.9301
G1 X147.808 Y107.474 E10.9876
G1 X150.010 Y110.796 E11.0919
G1 X151.888 Y114.793 E11.2076
G1 X153.037 Y118.585 E11.3114
G1 X153.447 Y120.727 E11.3685
G1 X153.762 Y124.841 E11.4766
G1 X153.696 Y127.012 E11.5335
G1 X153.064 Y131.289 E11.6467
G1 X151.840 Y135.334 E11.7574
G1 X150.156 Y138.939 E11.8616
G1 X147.780 Y142.563 E11.9751
G1 X146.394 Y144.225 E12.0318
G1 X143.512 Y147.012 E12.1368
G1 X139.931 Y149.580 E12.2522
G1 X136.376 Y151.417 E12.3571
G1 X134.369 Y152.198 E12.4135
G1 X130.162 Y153.294 E12.5273
G1 X126.204 Y153.736 E12.6316
G1 X124.023 Y153.749 E12.6888
G1 X119.931 Y153.312 E12.7966
G1 X117.795 Y152.847 E12.8538
G1 X113.685 Y151.441 E12.9676
G1 X110.145 Y149.629 E13.0718
G1 X108.324 Y148.439 E13.1287
G1 X106.525 Y147.045 E13.1883
G1 X103.592 Y144.212 E13.2951
G1 X102.191 Y142.525 E13.3526
G1 X99.989 Y139.203 E13.4570
G1 X98.111 Y135.206 E13.5726
G1 X96.962 Y131.414 E13.6764
G1 X96.551 Y129.271 E13.7336
G1 X96.237 Y125.151 E13.8418
G1 X96.303 Y122.987 E13.8985
G1 X96.935 Y118.710 E14.0118
G1 X98.159 Y114.665 E14.1224
G1 X99.843 Y111.060 E14.2267
G1 X102.219 Y107.436 E14.3402
G1 X103.610 Y105.769 E14.3970
G0 F3900 X103.932 Y106.038
G1 F900 X106.777 Y103.290 E14.5006
G1 X108.564 Y101.907 E14.5598
G1 X111.928 Y99.851 E14.6631
G1 X115.865 Y98.166 E14.7753
G1 X117.938 Y97.550 E14.8319
G1 X121.781 Y96.838 E14.9343
G1 X126.187 Y96.682 E15.0497
G1 X130.025 Y97.106 E15.1509
G1 X132.101 Y97.558 E15.2065
G1 X135.987 Y98.871 E15.3140
G1 X137.891 Y99.756 E15.3690
G1 X141.508 Y101.958 E15.4799
G1 X143.215 Y103.285 E15.5365
G1 X146.115 Y106.089 E15.6422
G1 X147.485 Y107.742 E15.6984
G1 X149.660 Y111.028 E15.8016
G1 X151.508 Y114.971 E15.9157
G1 X152.635 Y118.706 E16.0179
G1 X153.034 Y120.805 E16.0738
G1 X153.343 Y124.873 E16.1807
G1 X153.276 Y126.999 E16.2364
G1 X152.649 Y131.227 E16.3483
G1 X151.438 Y135.212 E16.4574
G1 X149.776 Y138.761 E16.5601
G1 X147.429 Y142.332 E16.6720
G1 X146.072 Y143.956 E16.7274
G1 X143.220 Y146.710 E16.8313
G1 X139.687 Y149.238 E16.9451
G1 X136.184 Y151.044 E17.0483
G1 X134.217 Y151.806 E17.1035
G1 X130.056 Y152.887 E17.2161
G1 X126.158 Y153.319 E17.3189
G1 X124.021 Y153.329 E17.3748
G1 X119.976 Y152.894 E17.4814
G1 X117.885 Y152.437 E17.5375
G1 X113.821 Y151.044 E17.6500
G1 X110.337 Y149.255 E17.7526
G1 X108.554 Y148.088 E17.8084
G1 X106.782 Y146.713 E17.8671
G1 X103.884 Y143.910 E17.9727
G1 X102.514 Y142.257 E18.0290
G1 X100.339 Y138.971 E18.1322
G1 X98.491 Y135.028 E18.2462
G1 X97.364 Y131.293 E18.3484
G1 X96.964 Y129.192 E18.4044
G1 X96.656 Y125.119 E18.5114
G1 X96.723 Y123.000 E18.5670
G1 X97.350 Y118.772 E18.6789
G1 X98.561 Y114.787 E18.7880
G1 X100.223 Y111.238 E18.8906
G1 X102.570 Y107.667 E19.0026
G1 X103.932 Y106.038 E19.0582
G0 F3900 X104.254 Y106.308
G1 F900 X107.069 Y103.592 E19.1606
G1 X108.821 Y102.239 E19.2186
G1 X112.147 Y100.210 E19.3207
G1 X116.030 Y98.552 E19.4312
G1 X118.057 Y97.953 E19.4866
G1 X121.857 Y97.251 E19.5878
G1 X126.141 Y97.099 E19.7001
G1 X129.979 Y97.523 E19.8012
G1 X132.011 Y97.968 E19.8557
G1 X135.852 Y99.269 E19.9619
G1 X137.714 Y100.137 E20.0158
G1 X141.289 Y102.317 E20.1254
G1 X142.957 Y103.616 E20.1808
G1 X145.823 Y106.391 E20.2853
G1 X147.161 Y108.010 E20.3403
G1 X149.310 Y111.260 E20.4424
G1 X151.127 Y115.149 E20.5548
G1 X152.233 Y118.827 E20.6554
G1 X152.621 Y120.883 E20.7102
G1 X152.924 Y124.905 E20.8158
G1 X152.856 Y126.985 E20.8703
G1 X152.234 Y131.165 E20.9810
G1 X151.036 Y135.089 E21.0885
G1 X149.396 Y138.583 E21.1896
G1 X147.078 Y142.101 E21.2999
G1 X145.750 Y143.686 E21.3541
G1 X142.928 Y146.408 E21.4568
G1 X139.443 Y148.896 E21.5689
G1 X135.992 Y150.670 E21.6706
G1 X134.066 Y151.414 E21.7247
G1 X129.951 Y152.480 E21.8360
G1 X126.112 Y152.902 E21.9372
G1 X124.020 Y152.909 E21.9920
G1 X120.021 Y152.476 E22.0973
G1 X117.975 Y152.027 E22.1522
G1 X113.957 Y150.647 E22.2634
G1 X110.529 Y148.882 E22.3644
G1 X108.784 Y147.737 E22.4191
G1 X107.040 Y146.381 E22.4770
G1 X104.176 Y143.608 E22.5814
G1 X102.838 Y141.989 E22.6364
G1 X100.689 Y138.739 E22.7384
G1 X98.872 Y134.850 E22.8509
G1 X97.766 Y131.172 E22.9515
G1 X97.377 Y129.114 E23.0063
G1 X97.075 Y125.088 E23.1121
G1 X97.143 Y123.014 E23.1664
G1 X97.765 Y118.834 E23.2771
G1 X98.963 Y114.910 E23.3846
G1 X100.603 Y111.416 E23.4857
G1 X102.921 Y107.898 E23.5960
G1 X104.254 Y106.308 E23.6504
;PRINTING: Perpetual_wheel.STL
;PRINTING_ID: 0
G1 F2400 E18.6504
G1 F300 Z0.350
G0 F3900 X105.251 Y107.318
;TYPE:WALL-OUTER
;WIDTH:0.420
G1 F300 Z0.150
G1 F1500 E23.6504
G1 F2400 X108.049 Y104.620 E23.7522
G1 X109.573 Y103.444 E23.8026
G1 X112.878 Y101.426 E23.9040
G1 X116.444 Y99.911 E24.0055
G1 X118.319 Y99.349 E24.0568
G1 X122.102 Y98.651 E24.1575
G1 X126.001 Y98.513 E24.2597
G1 X129.819 Y98.935 E24.3603
G1 X131.698 Y99.353 E24.4108
G1 X135.374 Y100.607 E24.5125
G1 X137.118 Y101.425 E24.5629
G1 X140.426 Y103.444 E24.6644
G1 X141.976 Y104.642 E24.7158
G1 X144.748 Y107.318 E24.8167
G1 X145.975 Y108.793 E24.8669
G1 X148.115 Y112.028 E24.9685
G1 X149.769 Y115.563 E25.0707
G1 X150.872 Y119.233 E25.1711
G1 X151.225 Y121.147 E25.2221
G1 X151.507 Y124.998 E25.3232
G1 X151.437 Y126.926 E25.3738
G1 X150.872 Y130.765 E25.4754
G1 X149.743 Y134.502 E25.5777
G1 X148.115 Y137.971 E25.6780
G1 X145.975 Y141.206 E25.7796
G1 X144.748 Y142.681 E25.8299
G1 X141.955 Y145.374 E25.9315
G1 X138.778 Y147.642 E26.0337
G1 X135.360 Y149.398 E26.1344
G1 X133.561 Y150.086 E26.1848
G1 X129.783 Y151.069 E26.2871
G1 X125.961 Y151.489 E26.3878
G1 X124.038 Y151.489 E26.4382
G1 X120.180 Y151.064 E26.5398
G1 X118.301 Y150.646 E26.5902
G1 X114.601 Y149.380 E26.6927
G1 X111.190 Y147.625 E26.7931
G1 X108.018 Y145.351 E26.8954
G1 X105.251 Y142.681 E26.9961
G1 X104.024 Y141.206 E27.0463
G1 X101.884 Y137.971 E27.1479
G1 X100.230 Y134.436 E27.2502
G1 X99.127 Y130.766 E27.3505
G1 X98.774 Y128.852 E27.4015
G1 X98.492 Y125.000 E27.5027
G1 X98.563 Y123.070 E27.5533
G1 X99.127 Y119.234 E27.6548
G1 X100.256 Y115.497 E27.7571
G1 X101.884 Y112.028 E27.8574
G1 X104.024 Y108.793 E27.9590
G1 X105.251 Y107.318 E28.0093
G1 F2400 E23.0093
G1 F300 Z0.350
G0 F3900 X105.597 Y107.713
G0 X104.308 Y109.487
G0 X103.228 Y113.040
G0 X103.347 Y116.747
G0 X104.869 Y120.562
G0 X106.719 Y122.819
G0 X110.161 Y125.060
G0 X113.782 Y125.903
G0 X117.101 Y125.631
G0 X121.038 Y123.901
G0 X121.269 Y123.111
G0 X120.790 Y122.911
G1 F300 Z0.150
G1 F1500 E28.0093
G1 F2400 X120.510 Y122.520 E28.0219
G1 X118.769 Y121.723 E28.0720
G1 X117.267 Y120.762 E28.1187
G1 X115.606 Y119.334 E28.1761
G1 X114.216 Y117.646 E28.2334
G1 X113.136 Y115.749 E28.2905
G1 X112.481 Y114.079 E28.3375
G1 X112.071 Y112.350 E28.3841
G1 X111.893 Y110.165 E28.4415
G1 X112.016 Y108.389 E28.4881
G1 X112.384 Y106.649 E28.5347
G1 X113.267 Y104.047 E28.6067
G1 X112.832 Y103.248 E28.6305
G1 X111.994 Y103.043 E28.6531
G1 X110.154 Y104.163 E28.7095
G1 X106.799 Y107.020 E28.8249
G1 X105.667 Y108.394 E28.8716
G1 X104.865 Y109.760 E28.9131
G1 X104.166 Y111.568 E28.9638
G1 X103.844 Y113.119 E29.0053
G1 X103.758 Y114.699 E29.0468
G1 X103.957 Y116.627 E29.0975
G1 X104.506 Y118.490 E29.1484
G1 X105.390 Y120.222 E29.1993
G1 X107.155 Y122.376 E29.2723
G1 X108.680 Y123.582 E29.3232
G1 X110.398 Y124.486 E29.3740
G1 X112.251 Y125.059 E29.4249
G1 X113.817 Y125.284 E29.4663
G1 X115.042 Y125.277 E29.4984
G1 X116.962 Y125.025 E29.5491
G1 X119.126 Y124.267 E29.6092
G1 X120.557 Y123.472 E29.6520
G1 X120.790 Y122.911 E29.6679
G1 F2400 E24.6679
G1 F300 Z0.350
G0 F3900 X123.439 Y120.604
G1 F300 Z0.150
G1 F1500 E29.6679
G1 F2400 X123.595 Y120.155 E29.6804
G1 X122.802 Y117.884 E29.7434
G1 X122.460 Y116.137 E29.7900
G1 X122.365 Y114.350 E29.8369
G1 X122.575 Y112.178 E29.8940
G1 X123.468 Y109.325 E29.9724
G1 X124.807 Y106.907 E30.0447
G1 X126.219 Y105.246 E30.1018
G1 X127.900 Y103.843 E30.1592
G1 X129.419 Y102.905 E30.2060
G1 X131.392 Y102.005 E30.2628
G1 X131.783 Y101.210 E30.2860
G1 X131.554 Y100.500 E30.3055
G1 X130.963 Y100.117 E30.3239
G1 X127.639 Y99.565 E30.4122
G1 X124.949 Y99.415 E30.4828
G1 X123.071 Y99.587 E30.5322
G1 X121.538 Y99.987 E30.5737
G1 X119.763 Y100.771 E30.6245
G1 X118.161 Y101.870 E30.6754
G1 X116.680 Y103.378 E30.7307
G1 X115.265 Y105.574 E30.7992
G1 X114.590 Y107.396 E30.8501
G1 X114.277 Y109.131 E30.8962
G1 X114.243 Y110.893 E30.9424
G1 X114.547 Y112.807 E30.9931
G1 X115.038 Y114.311 E31.0346
G1 X115.750 Y115.725 E31.0761
G1 X116.664 Y117.016 E31.1175
G1 X118.017 Y118.404 E31.1683
G1 X119.602 Y119.521 E31.2190
G1 X121.028 Y120.215 E31.2606
G1 X123.001 Y120.785 E31.3144
G1 X123.439 Y120.604 E31.3268
G1 F2400 E26.3268
G1 F300 Z0.350
G0 F3900 X126.709 Y120.753
G1 F300 Z0.150
G1 F1500 E31.3268
G1 F2400 X127.419 Y120.609 E31.3458
G1 X128.478 Y118.413 E31.4096
G1 X129.473 Y116.934 E31.4563
G1 X130.662 Y115.609 E31.5029
G1 X132.356 Y114.214 E31.5604
G1 X133.880 Y113.308 E31.6069
G1 X135.533 Y112.615 E31.6538
G1 X137.649 Y112.071 E31.7110
G1 X139.834 Y111.893 E31.7684
G1 X141.610 Y112.016 E31.8151
G1 X143.348 Y112.384 E31.8616
G1 X145.772 Y113.256 E31.9291
G1 X146.465 Y113.084 E31.9478
G1 X146.854 Y112.651 E31.9630
G1 X146.895 Y111.782 E31.9858
G1 X145.542 Y109.756 E32.0496
G1 X143.090 Y106.907 E32.1481
G1 X141.605 Y105.668 E32.1987
G1 X140.239 Y104.864 E32.2403
G1 X138.431 Y104.166 E32.2910
G1 X136.879 Y103.844 E32.3325
G1 X135.051 Y103.762 E32.3805
G1 X133.372 Y103.957 E32.4247
G1 X131.844 Y104.383 E32.4663
G1 X129.785 Y105.386 E32.5263
G1 X128.499 Y106.311 E32.5678
G1 X127.369 Y107.418 E32.6092
G1 X126.417 Y108.681 E32.6506
G1 X125.665 Y110.075 E32.6921
G1 X124.941 Y112.248 E32.7521
G1 X124.715 Y113.817 E32.7936
G1 X124.726 Y115.401 E32.8351
G1 X125.056 Y117.310 E32.8858
G1 X125.576 Y118.810 E32.9274
G1 X126.709 Y120.753 E32.9863
G1 F2400 E27.9863
G1 F300 Z0.350
G0 F3900 X129.237 Y123.280
G1 F300 Z0.150
G1 F1500 E32.9863
G1 F2400 X129.824 Y123.602 E33.0039
G1 X132.115 Y122.802 E33.0674
G1 X133.862 Y122.460 E33.1141
G1 X135.647 Y122.365 E33.1609
G1 X137.822 Y122.575 E33.2181
G1 X139.941 Y123.155 E33.2757
G1 X141.565 Y123.866 E33.3221
G1 X142.739 Y124.586 E33.3582
G1 X144.460 Y125.939 E33.4155
G1 X146.156 Y127.901 E33.4834
G1 X147.094 Y129.419 E33.5302
G1 X147.990 Y131.383 E33.5867
G1 X148.611 Y131.758 E33.6057
G1 X149.340 Y131.655 E33.6250
G1 X149.829 Y131.127 E33.6438
G1 X150.231 Y129.232 E33.6946
G1 X150.583 Y124.842 E33.8099
G1 X150.411 Y123.070 E33.8566
G1 X150.012 Y121.538 E33.8980
G1 X149.229 Y119.765 E33.9488
G1 X148.359 Y118.440 E33.9903
G1 X147.046 Y117.015 E34.0411
G1 X145.799 Y116.040 E34.0825
G1 X144.417 Y115.262 E34.1241
G1 X142.252 Y114.515 E34.1841
G1 X140.658 Y114.259 E34.2263
G1 X139.126 Y114.243 E34.2665
G1 X137.540 Y114.463 E34.3084
G1 X135.689 Y115.038 E34.3592
G1 X134.273 Y115.750 E34.4007
G1 X132.707 Y116.889 E34.4514
G1 X131.593 Y118.019 E34.4930
G1 X130.476 Y119.604 E34.5438
G1 X129.667 Y121.372 E34.5947
G1 X129.237 Y123.280 E34.6459
G1 F2400 E29.6459
G1 F300 Z0.350
G0 F3900 X129.209 Y127.088
G1 F300 Z0.150
G1 F1500 E34.6459
G1 F2400 X129.489 Y127.479 E34.6585
G1 X131.230 Y128.276 E34.7087
G1 X132.732 Y129.237 E34.7554
