;Sliced by ideaMaker 5.2.4.8581, 2025-07-24 12:41:55 UTC+0200
;Slicer Version: 5.2.3.8580
;Dimension: 250.000 250.000 250.000 0.400
;Plate Shape: 0
;Origin Center: 0
;Extruder Offset #1: 25.000 0.000
;Filament Diameter #1: 1.750
;Filament Diameter #2: 1.750
;Filament Compensation #1: 94.000
;Filament Compensation #2: 90.000
;Filament Density #1: 1240.000
;Filament Density #2: 1240.000
;Filament Type #1: PLA
;Filament Type #2: PLA
;Filament Name #1: [Raise3D] Premium PLA 1.75mm
;Filament Name #2: [Raise3D] Premium PLA 1.75mm
;Filament #1: PLA 1.75mm
;Filament #2: PLA 1.75mm
;Printer Type: floppy
;Firmware: Klipper
;Bounding Box: 96.495 153.512 71.958 178.021 0.000 5.400
;Model Gap: 0.000
M221 T0 S94.00
M140 S50.00
M104 T0 S190.00
M109 T0 S190.00
T0
M190 S50.00
G21 ;metric values
G90 ;absolute positioning
M82 ;set extruder to absolute mode
M107 ;start with the fan off
G28 X0 Y0 ;move X/Y to min endstops
G28 Z0 ;move Z to min endstops
G1 Z15.0 F9000 ;move the platform down 15mm
G92 E0 ;zero the extruded length
G0 X43 Y27 F2000  ;go to the edge of the bed
G92 X0 Y0 E0 ;set zero to edge of the bed
G0 F9000 Z1 ;Z up with 1mm
G1 F200 Z0 ;Z home slowly
G1 Z15.0 F9000 ;move the platform down 15mm
G1 F9000 ;speed setting
G92 E-3 ;retraction
M117 Printing...
M1001
;TOTAL_NUM: 1
;PRINTING_TIME: 0
;REMAINING_TIME: 3026
;LAYER:0
;Z:0.300
;HEIGHT:0.300
;PRINTING: NON-OBJECT
;PRINTING_ID: -1
G1 F2400 E-5.0000
G0 F3900 X96.681 Y73.866
G0 F300 Z0.300
;TYPE:SKIRT
;WIDTH:0.420
G1 F1500 E0.0000
G1 F900 X97.734 Y72.474 E0.0914
G1 X99.375 Y71.958 E0.1815
G1 X150.894 Y71.989 E2.8804
G1 X152.930 Y73.107 E3.0020
G1 X153.512 Y74.846 E3.0981
G1 X153.512 Y149.641 E7.0162
G1 X153.023 Y154.834 E7.2894
G1 X151.671 Y159.679 E7.5529
G1 X149.377 Y164.403 E7.8280
G1 X146.251 Y168.629 E8.1034
G1 X142.209 Y172.355 E8.3914
G1 X137.734 Y175.135 E8.6674
G1 X132.832 Y177.041 E8.9429
G1 X127.673 Y178.013 E9.2179
G1 X122.417 Y178.021 E9.4932
G1 X117.233 Y177.060 E9.7694
G1 X112.542 Y175.273 E10.0324
G1 X108.047 Y172.550 E10.3077
G1 X103.965 Y168.868 E10.5956
G1 X100.788 Y164.674 E10.8713
G1 X98.525 Y160.189 E11.1344
G1 X96.991 Y154.914 E11.4222
G1 X96.495 Y149.797 E11.6915
G1 X96.681 Y73.866 E15.6691
G0 F3900 X97.069 Y74.027
G1 F900 X97.951 Y72.833 E15.7469
G1 X99.375 Y72.378 E15.8252
G1 X150.894 Y72.409 E18.5240
G1 X152.600 Y73.367 E18.6265
G1 X153.092 Y74.846 E18.7082
G1 X153.092 Y149.641 E22.6263
G1 X152.605 Y154.794 E22.8974
G1 X151.267 Y159.566 E23.1571
G1 X148.999 Y164.219 E23.4282
G1 X145.914 Y168.379 E23.6995
G1 X141.925 Y172.046 E23.9834
G1 X137.513 Y174.778 E24.2552
G1 X132.680 Y176.649 E24.5267
G1 X127.596 Y177.600 E24.7976
G1 X122.417 Y177.601 E25.0689
G1 X117.310 Y176.647 E25.3411
G1 X112.692 Y174.881 E25.6001
G1 X108.265 Y172.191 E25.8714
G1 X104.247 Y168.557 E26.1552
G1 X101.123 Y164.421 E26.4268
G1 X98.900 Y160.000 E26.6860
G1 X97.394 Y154.797 E26.9697
G1 X96.913 Y149.757 E27.2350
G1 X97.069 Y74.027 E31.2021
G0 F3900 X97.457 Y74.188
G1 F900 X98.173 Y73.189 E31.2664
G1 X99.375 Y72.798 E31.3327
G1 X150.894 Y72.829 E34.0315
G1 X152.267 Y73.623 E34.1146
G1 X152.672 Y74.846 E34.1820
G1 X152.672 Y149.641 E38.1002
G1 X152.187 Y154.754 E38.3692
G1 X150.863 Y159.452 E38.6249
G1 X148.622 Y164.035 E38.8921
G1 X145.577 Y168.128 E39.1594
G1 X141.641 Y171.736 E39.4391
G1 X137.292 Y174.421 E39.7068
G1 X132.529 Y176.257 E39.9742
G1 X127.519 Y177.187 E40.2412
G1 X122.417 Y177.181 E40.5084
G1 X117.388 Y176.234 E40.7765
G1 X112.843 Y174.489 E41.0315
G1 X108.484 Y171.832 E41.2989
G1 X104.529 Y168.246 E41.5786
G1 X101.459 Y164.168 E41.8460
G1 X99.275 Y159.812 E42.1013
G1 X97.798 Y154.681 E42.3810
G1 X97.331 Y149.718 E42.6421
G1 X97.457 Y74.188 E46.5987
G0 F3900 X97.845 Y74.349
G1 F900 X98.402 Y73.541 E46.6501
G1 X99.375 Y73.218 E46.7038
G1 X150.894 Y73.249 E49.4026
G1 X151.929 Y73.873 E49.4660
G1 X152.252 Y74.846 E49.5197
G1 X152.252 Y149.641 E53.4378
G1 X151.769 Y154.714 E53.7047
G1 X150.459 Y159.338 E53.9565
G1 X148.245 Y163.850 E54.2198
G1 X145.240 Y167.877 E54.4830
G1 X141.358 Y171.426 E54.7585
G1 X137.072 Y174.063 E55.0221
G1 X132.378 Y175.865 E55.2855
G1 X127.443 Y176.774 E55.5484
G1 X122.418 Y176.761 E55.8116
G1 X117.466 Y175.821 E56.0757
G1 X112.994 Y174.097 E56.3267
G1 X108.703 Y171.474 E56.5902
G1 X104.812 Y167.935 E56.8657
G1 X101.795 Y163.916 E57.1290
G1 X99.651 Y159.624 E57.3803
G1 X98.202 Y154.565 E57.6560
G1 X97.749 Y149.679 E57.9130
G1 X97.845 Y74.349 E61.8592
G0 F3900 X98.198 Y74.576
G1 F900 X98.642 Y73.886 E61.9021
G1 X99.375 Y73.638 E61.9427
G1 X150.894 Y73.669 E64.6415
G1 X151.584 Y74.113 E64.6845
G1 X151.832 Y74.846 E64.7250
G1 X151.832 Y149.641 E68.6431
G1 X151.351 Y154.674 E68.9080
G1 X150.055 Y159.223 E69.1557
G1 X147.868 Y163.664 E69.4151
G1 X144.904 Y167.625 E69.6742
G1 X141.075 Y171.116 E69.9457
G1 X136.852 Y173.705 E70.2051
G1 X132.228 Y175.473 E70.4645
G1 X127.368 Y176.361 E70.7233
G1 X122.420 Y176.341 E70.9825
G1 X117.545 Y175.408 E71.2425
G1 X113.146 Y173.705 E71.4896
G1 X108.923 Y171.116 E71.7491
G1 X105.095 Y167.625 E72.0205
G1 X102.131 Y163.664 E72.2796
G1 X100.027 Y159.437 E72.5270
G1 X98.606 Y154.450 E72.7986
G1 X98.167 Y149.641 E73.0516
G1 X98.198 Y74.576 E76.9838
;PRINTING: Pump_House_Door_A.stl
;PRINTING_ID: 0
G1 F2400 E71.9838
G1 F300 Z0.500
G0 F3900 X99.587 Y75.058
;TYPE:WALL-OUTER
;WIDTH:0.420
G1 F300 Z0.300
G1 F1500 E76.9838
G1 F2400 X150.412 Y75.058 E79.6463
G1 X150.412 Y149.630 E83.5527
G1 X149.979 Y154.307 E83.7988
G1 X148.696 Y158.816 E84.0444
G1 X146.606 Y163.013 E84.2900
G1 X143.775 Y166.762 E84.5361
G1 X140.318 Y169.913 E84.7811
G1 X136.324 Y172.386 E85.0272
G1 X131.950 Y174.080 E85.2729
G1 X127.346 Y174.941 E85.5183
G1 X122.653 Y174.941 E85.7641
G1 X118.049 Y174.080 E86.0095
G1 X113.674 Y172.386 E86.2552
G1 X109.680 Y169.913 E86.5013
G1 X106.224 Y166.762 E86.7463
G1 X103.393 Y163.013 E86.9924
G1 X101.303 Y158.816 E87.2380
G1 X100.020 Y154.307 E87.4836
G1 X99.587 Y149.630 E87.7296
G1 X99.587 Y75.058 E91.6361
G1 F2400 E86.6361
G1 F300 Z0.500
G0 F3900 X100.107 Y75.488
G0 X108.847 Y149.600
G0 X108.847 Y150.120
G1 F300 Z0.300
G1 F1500 E91.6361
G1 F2400 X109.264 Y153.222 E91.8000
G1 X110.163 Y155.988 E91.9524
G1 X111.648 Y158.742 E92.1163
G1 X115.355 Y156.048 E92.3563
G1 X114.348 Y154.132 E92.4697
G1 X113.740 Y152.262 E92.5727
G1 X113.429 Y150.120 E92.6861
G1 X108.847 Y150.120 E92.9261
G1 F2400 E87.9261
G1 F300 Z0.500
G0 F3900 X108.847 Y149.600
G0 X114.391 Y149.600
G0 X114.391 Y150.120
G1 F300 Z0.300
G1 F1500 E92.9261
G1 F2400 X114.684 Y152.071 E93.0295
G1 X115.224 Y153.732 E93.1210
G1 X116.133 Y155.483 E93.2243
G1 X119.837 Y152.792 E93.4642
G1 X119.172 Y151.139 E93.5575
G1 X118.980 Y150.120 E93.6118
G1 X114.391 Y150.120 E93.8522
G1 F2400 E88.8522
G1 F300 Z0.500
G0 F3900 X114.391 Y149.600
G0 X119.925 Y149.600
G0 X119.925 Y150.120
G1 F300 Z0.300
G1 F1500 E93.8522
G1 F2400 X120.345 Y151.621 E93.9339
G1 X121.010 Y152.749 E94.0025
G1 X121.942 Y153.669 E94.0711
G1 X123.080 Y154.319 E94.1397
G1 X124.345 Y154.655 E94.2083
G1 X125.654 Y154.655 E94.2769
G1 X126.919 Y154.319 E94.3454
G1 X128.057 Y153.669 E94.4141
G1 X128.989 Y152.749 E94.4827
G1 X129.654 Y151.621 E94.5513
G1 X130.074 Y150.120 E94.6329
G1 X119.925 Y150.120 E95.1646
G1 F2400 E90.1646
G1 F300 Z0.500
G0 F3900 X119.831 Y150.155
G0 X120.029 Y152.847
G0 X118.627 Y153.816
G0 X116.637 Y156.340
G0 X116.701 Y156.263
G1 F300 Z0.300
G1 F1500 E95.1646
G1 F2400 X118.084 Y157.670 E95.2679
G1 X119.498 Y158.696 E95.3594
G1 X121.262 Y159.578 E95.4628
G1 X122.681 Y155.213 E95.7032
G1 X121.804 Y154.742 E95.7553
G1 X120.405 Y153.573 E95.8508
G1 X119.907 Y153.934 E95.8831
G1 X116.701 Y156.263 E96.0906
G1 F2400 E91.0906
G1 F300 Z0.500
G0 F3900 X116.637 Y156.340
G0 X112.658 Y158.955
G0 X112.149 Y159.598
G0 X112.215 Y159.522
G1 F300 Z0.300
G1 F1500 E96.0906
G1 F2400 X114.376 Y161.787 E96.2546
G1 X116.729 Y163.496 E96.4070
G1 X119.550 Y164.851 E96.5709
G1 X120.965 Y160.493 E96.8109
G1 X119.023 Y159.536 E96.9244
G1 X117.434 Y158.380 E97.0273
G1 X115.923 Y156.829 E97.1407
G1 X112.775 Y159.116 E97.3446
G1 X112.215 Y159.522 E97.3808
G1 F2400 E92.3808
G1 F300 Z0.500
G0 F3900 X112.149 Y159.598
G0 X114.245 Y161.937
G0 X116.627 Y163.667
G0 X119.628 Y165.034
G0 X122.173 Y159.975
G0 X122.180 Y159.876
G1 F300 Z0.300
G1 F1500 E97.3808
G1 F2400 X124.127 Y160.200 E97.4842
G1 X125.872 Y160.200 E97.5756
G1 X127.822 Y159.876 E97.6791
G1 X126.357 Y155.529 E97.9194
G1 X124.583 Y155.645 E98.0126
G1 X123.598 Y155.511 E98.0647
G1 X122.180 Y159.876 E98.3051
G1 F2400 E93.3051
G1 F300 Z0.500
G0 F3900 X122.173 Y159.975
G0 X121.779 Y160.620
G0 X120.445 Y164.787
G0 X120.459 Y165.248
G0 X120.467 Y165.149
G1 F300 Z0.300
G1 F1500 E98.3051
G1 F2400 X123.545 Y165.711 E98.4690
G1 X126.454 Y165.711 E98.6214
G1 X129.532 Y165.149 E98.7853
G1 X128.117 Y160.791 E99.0253
G1 X127.723 Y160.859 E99.0462
G1 X125.981 Y161.158 E99.1388
G1 X124.018 Y161.158 E99.2417
G1 X121.882 Y160.791 E99.3552
G1 X120.467 Y165.149 E99.5952
G1 F2400 E94.5952
G1 F300 Z0.500
G0 F3900 X120.459 Y165.248
G0 X120.296 Y165.251
G0 X121.779 Y160.620
G0 X124.695 Y160.784
G0 X128.789 Y159.663
G0 X128.737 Y159.578
G1 F300 Z0.300
G1 F1500 E99.5952
G1 F2400 X130.501 Y158.696 E99.6985
G1 X131.915 Y157.670 E99.7901
G1 X133.300 Y156.262 E99.8935
G1 X129.560 Y153.605 E100.1338
G1 X128.198 Y154.740 E100.2267
G1 X127.318 Y155.213 E100.2790
G1 X128.737 Y159.578 E100.5195
G1 F2400 E95.5195
G1 F300 Z0.500
G0 F3900 X128.789 Y159.663
G0 X130.212 Y164.496
G0 X130.501 Y164.937
G0 X130.449 Y164.851
G1 F300 Z0.300
G1 F1500 E100.5195
G1 F2400 X133.270 Y163.496 E100.6834
G1 X135.497 Y161.878 E100.8276
G1 X137.786 Y159.524 E100.9996
G1 X134.076 Y156.829 E101.2398
G1 X133.799 Y157.114 E101.2607
G1 X132.565 Y158.380 E101.3533
G1 X130.976 Y159.536 E101.4562
G1 X129.034 Y160.493 E101.5696
G1 X130.449 Y164.851 E101.8096
G1 F2400 E96.8096
G1 F300 Z0.500
G0 F3900 X130.673 Y165.320
G0 X133.588 Y164.029
G0 X135.903 Y162.348
G0 X138.611 Y159.562
G0 X140.407 Y156.232
G0 X141.341 Y153.360
G0 X141.782 Y149.569
G0 X135.608 Y149.600
G0 X135.608 Y150.120
G1 F300 Z0.300
G1 F1500 E101.8096
G1 F2400 X131.029 Y150.120 E102.0495
G1 X130.584 Y151.890 E102.1451
G1 X130.152 Y152.785 E102.1972
G1 X133.866 Y155.483 E102.4377
G1 X134.775 Y153.732 E102.5410
G1 X135.314 Y152.071 E102.6325
G1 X135.608 Y150.120 E102.7358
G1 F2400 E97.7358
G1 F300 Z0.500
G0 F3900 X135.608 Y149.600
G0 X141.782 Y149.569
G0 X141.666 Y150.191
G0 X141.152 Y150.120
G1 F300 Z0.300
G1 F1500 E102.7358
G1 F2400 X136.570 Y150.120 E102.9759
G1 X136.259 Y152.262 E103.0893
G1 X135.651 Y154.132 E103.1923
G1 X134.644 Y156.048 E103.3056
G1 X138.351 Y158.742 E103.5457
G1 X139.836 Y155.988 E103.7096
G1 X140.735 Y153.222 E103.8620
G1 X141.152 Y150.120 E104.0259
G1 F2400 E99.0259
G1 F300 Z0.500
G0 F3900 X141.666 Y150.191
G0 X141.731 Y149.839
G0 X100.107 Y75.488
G0 X100.007 Y75.478
;TYPE:WALL-INNER
;WIDTH:0.420
G1 F300 Z0.300
G1 F1500 E104.0259
G1 F2400 X149.992 Y75.478 E106.6444
G1 X149.992 Y149.611 E110.5278
G1 X149.564 Y154.230 E110.7708
G1 X148.303 Y158.664 E111.0123
G1 X146.247 Y162.791 E111.2538
G1 X143.463 Y166.478 E111.4958
G1 X140.064 Y169.576 E111.7368
G1 X136.136 Y172.008 E111.9788
G1 X131.835 Y173.674 E112.2204
G1 X127.307 Y174.521 E112.4617
G1 X122.692 Y174.521 E112.7035
G1 X118.164 Y173.674 E112.9448
G1 X113.862 Y172.008 E113.1864
G1 X109.934 Y169.576 E113.4285
G1 X106.536 Y166.478 E113.6693
G1 X103.752 Y162.791 E113.9114
G1 X101.696 Y158.664 E114.1529
G1 X100.435 Y154.230 E114.3944
G1 X100.007 Y149.611 E114.6374
G1 X100.007 Y75.478 E118.5208
G1 F2400 E113.5208
G1 F300 Z0.500
G0 F3900 X100.107 Y75.488
G0 X108.269 Y149.722
G0 X108.367 Y149.700
G1 F300 Z0.300
G1 F1500 E118.5208
G1 F2400 X108.853 Y153.316 E118.7119
G1 X109.775 Y156.154 E118.8683
G1 X111.535 Y159.418 E119.0625
G1 X114.098 Y162.104 E119.2570
G1 X116.513 Y163.858 E119.4133
G1 X119.858 Y165.465 E119.6077
G1 X123.507 Y166.131 E119.8021
G1 X126.492 Y166.131 E119.9584
G1 X130.141 Y165.465 E120.1527
G1 X133.486 Y163.858 E120.3471
G1 X135.773 Y162.197 E120.4952
G1 X138.450 Y159.444 E120.6964
G1 X140.224 Y156.154 E120.8922
G1 X141.146 Y153.316 E121.0485
G1 X141.632 Y149.700 E121.2396
G1 X108.367 Y149.700 E122.9822
G1 F2400 E117.9822
G1 F300 Z0.500
G0 F3900 X113.559 Y149.969
G0 X115.040 Y153.809
G0 X116.087 Y155.677
G0 X120.909 Y153.239
G1 F300 Z0.300
G1 F1500 E122.9822
G1 F2400 X120.802 Y153.357 E122.9905
G1 X120.373 Y152.999 E123.0198
G1 X120.118 Y152.366 E123.0555
G1 X120.256 Y152.298 E123.0636
G1 X120.676 Y153.009 E123.1069
G1 X120.909 Y153.239 E123.1240
G0 F3900 X122.913 Y154.861
G1 F2400 X122.968 Y154.724 E123.1317
G1 X123.898 Y154.971 E123.1822
G1 X123.867 Y155.124 E123.1903
G1 X122.913 Y154.861 E123.2422
G0 F3900 X126.810 Y155.009
G1 F2400 X127.106 Y155.919 E123.2923
G1 X126.949 Y155.971 E123.3010
G1 X126.652 Y155.089 E123.3497
G1 X126.106 Y155.124 E123.3784
G1 X126.082 Y154.976 E123.3862
G1 X127.031 Y154.724 E123.4377
G1 X127.086 Y154.861 E123.4454
G1 X126.810 Y155.009 E123.4618
G0 F3900 X129.621 Y152.919
G1 F2400 X130.383 Y153.472 E123.5111
G1 X130.287 Y153.606 E123.5198
G1 X129.540 Y153.075 E123.5678
G1 X129.174 Y153.380 E123.5927
G1 X129.067 Y153.262 E123.6011
G1 X129.751 Y152.283 E123.6636
G1 X129.892 Y152.358 E123.6720
G1 X129.621 Y152.919 E123.7046
G0 F3900 X128.956 Y153.467
;TYPE:GAP-FILL
;WIDTH:0.536
G1 F2400 X127.255 Y154.691 E123.8447
G0 F3900 X129.923 Y152.125
;WIDTH:0.548
G1 F2400 X130.605 Y149.920 E124.0025
G0 F3900 X130.513 Y153.666
;WIDTH:0.585
G1 F2400 X133.824 Y156.046 E124.3000
;WIDTH:0.672
G1 X133.911 Y156.110 E124.3091
;WIDTH:0.761
G1 X133.858 Y156.364 E124.3337
;WIDTH:0.533
G1 X133.457 Y156.782 E124.3722
;WIDTH:0.585
G1 X132.209 Y158.047 E124.5019
G1 X130.722 Y159.124 E124.6358
G1 X128.614 Y160.156 E124.8071
;WIDTH:0.672
G1 X128.527 Y160.184 E124.8147
;WIDTH:0.758
G1 X128.519 Y160.469 E124.8417
;WIDTH:0.543
G1 X129.988 Y164.993 E125.1638
G1 F2400 E120.1638
G1 F300 Z0.500
G0 F3900 X127.096 Y156.154
;WIDTH:0.584
G1 F300 Z0.300
G1 F1500 E125.1638
G1 F2400 X128.372 Y160.009 E125.4596
;WIDTH:0.672
G1 X128.404 Y160.112 E125.4687
;WIDTH:0.759
G1 X128.215 Y160.287 E125.4930
;WIDTH:0.533
G1 X127.641 Y160.389 E125.5318
;WIDTH:0.585
G1 X125.889 Y160.679 E125.6614
G1 X124.060 Y160.676 E125.7948
G1 X121.739 Y160.271 E125.9667
;WIDTH:0.674
G1 X121.650 Y160.242 E125.9746
;WIDTH:0.763
G1 X121.645 Y159.959 E126.0015
;WIDTH:0.547
G1 X123.201 Y155.168 E126.3452
G0 F3900 X119.969 Y153.292
;WIDTH:0.589
G1 F2400 X116.175 Y156.047 E126.6897
;WIDTH:0.676
G1 X116.088 Y156.110 E126.6987
;WIDTH:0.764
G1 X116.141 Y156.363 E126.7233
;WIDTH:0.585
G1 X117.789 Y158.047 E126.8953
G1 X119.276 Y159.124 E127.0292
G1 X121.384 Y160.156 E127.2005
;WIDTH:0.674
G1 X121.473 Y160.184 E127.2083
;WIDTH:0.763
G1 X121.479 Y160.468 E127.2354
;WIDTH:0.544
G1 X120.011 Y164.993 E127.5581
G1 F2400 E122.5581
G1 F300 Z0.500
G0 F3900 X119.754 Y165.525
G0 X116.411 Y164.029
G0 X113.967 Y162.254
G0 X111.374 Y159.535
G0 X109.592 Y156.232
G0 X108.658 Y153.360
G0 X108.217 Y149.569
G0 X113.880 Y149.600
G0 X113.880 Y149.920
;WIDTH:0.586
G1 F300 Z0.300
G1 F1500 E127.5581
G1 F2400 X114.223 Y152.202 E127.7268
G1 X114.793 Y153.944 E127.8608
G1 X115.891 Y156.022 E128.0325
;WIDTH:0.675
G1 X115.946 Y156.097 E128.0404
;WIDTH:0.763
G1 X115.786 Y156.331 E128.0673
;WIDTH:0.546
G1 X111.938 Y159.127 E128.3913
G1 X111.628 Y159.127 E128.4124
G1 F2400 E123.4124
G1 F300 Z0.500
G0 F3900 X111.346 Y159.278
G0 X109.592 Y156.232
G0 X108.658 Y153.360
G0 X108.217 Y149.569
G0 X136.118 Y149.600
G0 X136.118 Y149.920
;WIDTH:0.544
G1 F300 Z0.300
G1 F1500 E128.4124
G1 F2400 X135.788 Y152.151 E128.5654
G1 X135.224 Y153.895 E128.6898
G1 X134.134 Y155.985 E128.8497
;WIDTH:0.760
G1 X134.084 Y156.237 E128.8741
;WIDTH:0.674
G1 X134.169 Y156.299 E128.8829
;WIDTH:0.588
G1 X138.060 Y159.127 E129.2357
G1 X138.136 Y159.450 E129.2600
G1 F2400 E124.2600
G1 F300 Z0.500
G0 F3900 X134.059 Y156.630
G0 X130.604 Y158.866
G0 X128.660 Y159.762
G0 X127.832 Y157.263
G0 X125.838 Y154.844
;WIDTH:0.378
G1 F300 Z0.300
G1 F1500 E129.2600
G1 F2400 X125.681 Y155.053 E129.2723
;WIDTH:0.500
G1 X125.628 Y155.115 E129.2774
;WIDTH:0.568
