;Sliced by ideaMaker 5.2.4.8581, 2025-08-31 11:30:22 UTC+0200
;Slicer Version: 5.2.3.8580
;Dimension: 250.000 250.000 250.000 0.400
;Plate Shape: 0
;Origin Center: 0
;Extruder Offset #1: 25.000 0.000
;Filament Diameter #1: 1.750
;Filament Diameter #2: 1.750
;Filament Compensation #1: 94.000
;Filament Compensation #2: 90.000
;Filament Density #1: 1240.000
;Filament Density #2: 1240.000
;Filament Type #1: PLA
;Filament Type #2: PLA
;Filament Name #1: [Raise3D] Premium PLA 1.75mm
;Filament Name #2: [Raise3D] Premium PLA 1.75mm
;Filament #1: PLA 1.75mm
;Filament #2: PLA 1.75mm
;Printer Type: floppy
;Firmware: Klipper
;Bounding Box: 57.110 192.886 72.116 177.890 0.000 49.950
;Model Gap: 0.000
M221 T0 S94.00
M140 S45.00
M104 T0 S195.00
M109 T0 S195.00
T0
M190 S45.00
G21 ;metric values
G90 ;absolute positioning
M82 ;set extruder to absolute mode
M107 ;start with the fan off
G28 X0 Y0 ;move X/Y to min endstops
G28 Z0 ;move Z to min endstops
G1 Z15.0 F9000 ;move the platform down 15mm
G92 E0 ;zero the extruded length
G0 X43 Y27 F2000  ;go to the edge of the bed
G92 X0 Y0 E0 ;set zero to edge of the bed
G0 F9000 Z1 ;Z up with 1mm
G1 F200 Z0 ;Z home slowly
G1 Z15.0 F9000 ;move the platform down 15mm
G1 F9000 ;speed setting
G92 E-3 ;retraction
M117 Printing...
M1001
;TOTAL_NUM: 1
;PRINTING_TIME: 0
;REMAINING_TIME: 9670
;LAYER:0
;Z:0.150
;HEIGHT:0.150
M106 S153
;PRINTING: NON-OBJECT
;PRINTING_ID: -1
G1 F2400 E-5.0000
SET_VELOCITY_LIMIT ACCEL=500.00
SET_VELOCITY_LIMIT SQUARE_CORNER_VELOCITY=5.00
G0 F3900 X61.529 Y75.295
G0 F300 Z0.150
;TYPE:SKIRT
;WIDTH:0.420
G1 F1500 E0.0000
G1 F900 X63.006 Y74.180 E0.0485
G1 X64.459 Y73.368 E0.0921
G1 X66.156 Y72.704 E0.1398
G1 X67.946 Y72.281 E0.1880
G1 X69.791 Y72.117 E0.2365
G1 X180.152 Y72.116 E3.1271
G1 X181.805 Y72.242 E3.1705
G1 X183.607 Y72.632 E3.2188
G1 X185.163 Y73.194 E3.2621
G1 X186.781 Y74.046 E3.3100
G1 X188.407 Y75.239 E3.3629
G1 X189.726 Y76.552 E3.4116
G1 X190.719 Y77.852 E3.4545
G1 X191.626 Y79.447 E3.5025
G1 X192.295 Y81.155 E3.5506
G1 X192.745 Y83.120 E3.6034
G1 X192.886 Y84.892 E3.6499
G1 X192.886 Y165.095 E5.7506
G1 X192.757 Y166.807 E5.7956
G1 X192.419 Y168.426 E5.8389
G1 X191.737 Y170.310 E5.8914
G1 X190.949 Y171.789 E5.9353
G1 X189.889 Y173.256 E5.9827
G1 X188.458 Y174.716 E6.0362
G1 X186.993 Y175.820 E6.0843
G1 X185.540 Y176.632 E6.1279
G1 X183.843 Y177.295 E6.1756
G1 X181.879 Y177.745 E6.2284
G1 X180.107 Y177.886 E6.2749
G1 X70.014 Y177.890 E9.1585
G1 X68.372 Y177.781 E9.2016
G1 X66.585 Y177.421 E9.2494
G1 X64.691 Y176.737 E9.3021
G1 X63.210 Y175.949 E9.3461
G1 X61.743 Y174.889 E9.3935
G1 X60.283 Y173.458 E9.4470
G1 X59.179 Y171.993 E9.4951
G1 X58.367 Y170.540 E9.5387
G1 X57.704 Y168.843 E9.5864
G1 X57.281 Y167.053 E9.6346
G1 X57.117 Y165.208 E9.6831
G1 X57.110 Y84.985 E11.7843
G1 X57.242 Y83.197 E11.8313
G1 X57.632 Y81.394 E11.8796
G1 X58.190 Y79.847 E11.9227
G1 X60.003 Y76.901 E12.0133
G1 X61.529 Y75.295 E12.0713
G0 F3900 X61.832 Y75.586
G1 F900 X63.258 Y74.516 E12.1180
G1 X64.663 Y73.735 E12.1601
G1 X66.308 Y73.095 E12.2063
G1 X68.042 Y72.690 E12.2530
G1 X69.827 Y72.535 E12.2999
G1 X180.120 Y72.535 E15.1887
G1 X181.773 Y72.661 E15.2321
G1 X183.517 Y73.042 E15.2789
G1 X185.019 Y73.589 E15.3208
G1 X186.585 Y74.417 E15.3672
G1 X188.158 Y75.577 E15.4184
G1 X189.429 Y76.849 E15.4655
G1 X190.385 Y78.106 E15.5068
G1 X191.260 Y79.654 E15.5534
G1 X191.904 Y81.307 E15.5999
G1 X192.335 Y83.213 E15.6510
G1 X192.467 Y84.924 E15.6960
G1 X192.466 Y165.095 E17.7959
G1 X192.338 Y166.775 E17.8400
G1 X192.008 Y168.339 E17.8819
G1 X191.342 Y170.166 E17.9328
G1 X190.579 Y171.591 E17.9751
G1 X189.549 Y173.009 E18.0210
G1 X188.159 Y174.421 E18.0729
G1 X186.741 Y175.484 E18.1194
G1 X185.336 Y176.265 E18.1615
G1 X183.691 Y176.904 E18.2077
G1 X181.786 Y177.335 E18.2588
G1 X180.075 Y177.467 E18.3038
G1 X70.014 Y177.470 E21.1865
G1 X68.400 Y177.362 E21.2289
G1 X66.669 Y177.009 E21.2752
G1 X64.834 Y176.342 E21.3263
G1 X63.408 Y175.579 E21.3687
G1 X61.990 Y174.549 E21.4146
G1 X60.578 Y173.159 E21.4665
G1 X59.515 Y171.741 E21.5129
G1 X58.734 Y170.336 E21.5550
G1 X58.095 Y168.691 E21.6012
G1 X57.690 Y166.957 E21.6479
G1 X57.535 Y165.172 E21.6948
G1 X57.530 Y84.985 E23.7951
G1 X57.661 Y83.228 E23.8412
G1 X58.042 Y81.484 E23.8880
G1 X58.585 Y79.991 E23.9296
G1 X60.360 Y77.122 E24.0180
G1 X61.832 Y75.586 E24.0737
G0 F3900 X62.134 Y75.878
G1 F900 X63.509 Y74.853 E24.1186
G1 X64.866 Y74.102 E24.1592
G1 X66.459 Y73.487 E24.2040
G1 X68.137 Y73.099 E24.2491
G1 X69.862 Y72.954 E24.2944
G1 X180.088 Y72.954 E27.1815
G1 X181.741 Y73.080 E27.2249
G1 X183.426 Y73.452 E27.2701
G1 X184.874 Y73.983 E27.3105
G1 X186.388 Y74.788 E27.3554
G1 X187.908 Y75.914 E27.4050
G1 X189.131 Y77.145 E27.4504
G1 X190.050 Y78.359 E27.4903
G1 X190.894 Y79.860 E27.5354
G1 X191.512 Y81.458 E27.5803
G1 X191.925 Y83.305 E27.6298
G1 X192.048 Y84.955 E27.6732
G1 X192.046 Y165.095 E29.7722
G1 X191.919 Y166.743 E29.8155
G1 X191.597 Y168.251 E29.8559
G1 X190.948 Y170.021 E29.9053
G1 X190.209 Y171.392 E29.9461
G1 X189.210 Y172.762 E29.9905
G1 X187.860 Y174.126 E30.0408
G1 X186.490 Y175.147 E30.0855
G1 X185.133 Y175.897 E30.1261
G1 X183.540 Y176.512 E30.1709
G1 X181.694 Y176.925 E30.2204
G1 X180.044 Y177.048 E30.2637
G1 X70.014 Y177.050 E33.1457
G1 X68.428 Y176.943 E33.1873
G1 X66.754 Y176.598 E33.2321
G1 X64.978 Y175.948 E33.2816
G1 X63.607 Y175.209 E33.3224
G1 X62.237 Y174.210 E33.3668
G1 X60.873 Y172.860 E33.4171
G1 X59.852 Y171.490 E33.4618
G1 X59.102 Y170.133 E33.5025
G1 X58.487 Y168.540 E33.5472
G1 X58.099 Y166.862 E33.5923
G1 X57.954 Y165.137 E33.6376
G1 X57.950 Y84.985 E35.7370
G1 X58.080 Y83.260 E35.7823
G1 X58.452 Y81.574 E35.8275
G1 X58.979 Y80.135 E35.8677
G1 X60.717 Y77.344 E35.9538
G1 X62.134 Y75.878 E36.0072
G0 F3900 X62.435 Y76.171
G1 F900 X63.759 Y75.190 E36.0504
G1 X65.068 Y74.470 E36.0895
G1 X66.609 Y73.879 E36.1327
G1 X68.231 Y73.508 E36.1763
G1 X69.896 Y73.373 E36.2201
G1 X180.056 Y73.373 E39.1054
G1 X181.709 Y73.499 E39.1488
G1 X183.334 Y73.862 E39.1924
G1 X184.728 Y74.377 E39.2314
G1 X186.190 Y75.158 E39.2748
G1 X187.657 Y76.251 E39.3227
G1 X188.832 Y77.440 E39.3665
G1 X189.714 Y78.612 E39.4049
G1 X190.527 Y80.065 E39.4485
G1 X191.120 Y81.609 E39.4918
G1 X191.515 Y83.396 E39.5398
G1 X191.629 Y84.985 E39.5815
G1 X191.626 Y165.095 E41.6798
G1 X191.500 Y166.710 E41.7222
G1 X191.186 Y168.162 E41.7611
G1 X190.554 Y169.876 E41.8089
G1 X189.840 Y171.192 E41.8482
G1 X188.871 Y172.514 E41.8911
G1 X187.562 Y173.830 E41.9397
G1 X186.240 Y174.809 E41.9828
G1 X184.931 Y175.529 E42.0219
G1 X183.390 Y176.120 E42.0652
G1 X181.603 Y176.515 E42.1131
G1 X180.014 Y176.629 E42.1548
G1 X70.014 Y176.630 E45.0360
G1 X68.457 Y176.524 E45.0769
G1 X66.840 Y176.187 E45.1201
G1 X65.123 Y175.554 E45.1680
G1 X63.807 Y174.840 E45.2073
G1 X62.485 Y173.871 E45.2502
G1 X61.169 Y172.562 E45.2988
G1 X60.190 Y171.240 E45.3419
G1 X59.470 Y169.931 E45.3810
G1 X58.879 Y168.390 E45.4243
G1 X58.508 Y166.768 E45.4678
G1 X58.373 Y165.103 E45.5116
G1 X58.370 Y84.985 E47.6101
G1 X58.499 Y83.292 E47.6545
G1 X58.862 Y81.665 E47.6982
G1 X59.373 Y80.280 E47.7369
G1 X61.073 Y77.567 E47.8207
G1 X62.435 Y76.171 E47.8718
G0 F3900 X62.734 Y76.466
G1 F900 X64.008 Y75.528 E47.9133
G1 X65.269 Y74.839 E47.9509
G1 X66.758 Y74.272 E47.9926
G1 X68.324 Y73.918 E48.0347
G1 X69.929 Y73.792 E48.0768
G1 X180.024 Y73.792 E50.9605
G1 X181.677 Y73.918 E51.0039
G1 X183.241 Y74.272 E51.0459
G1 X184.581 Y74.771 E51.0834
G1 X185.991 Y75.528 E51.1253
G1 X187.405 Y76.587 E51.1716
G1 X188.533 Y77.734 E51.2137
G1 X189.378 Y78.864 E51.2506
G1 X190.160 Y80.269 E51.2928
G1 X190.727 Y81.758 E51.3345
G1 X191.105 Y83.486 E51.3808
G1 X191.210 Y85.014 E51.4209
G1 X191.206 Y165.095 E53.5185
G1 X191.081 Y166.677 E53.5600
G1 X190.776 Y168.072 E53.5974
G1 X190.160 Y169.730 E53.6437
G1 X189.471 Y170.991 E53.6814
G1 X188.533 Y172.265 E53.7228
G1 X187.265 Y173.533 E53.7698
G1 X185.991 Y174.471 E53.8112
G1 X184.730 Y175.160 E53.8489
G1 X183.241 Y175.727 E53.8906
G1 X181.513 Y176.105 E53.9369
G1 X179.985 Y176.210 E53.9770
G1 X70.014 Y176.210 E56.8574
G1 X68.486 Y176.105 E56.8976
G1 X66.927 Y175.776 E56.9393
G1 X65.269 Y175.160 E56.9856
G1 X64.008 Y174.471 E57.0233
G1 X62.734 Y173.533 E57.0647
G1 X61.466 Y172.265 E57.1117
G1 X60.528 Y170.991 E57.1531
G1 X59.839 Y169.730 E57.1907
G1 X59.272 Y168.241 E57.2325
G1 X58.918 Y166.675 E57.2745
G1 X58.792 Y165.070 E57.3167
G1 X58.790 Y84.985 E59.4143
G1 X58.918 Y83.324 E59.4579
G1 X59.272 Y81.758 E59.5000
G1 X59.767 Y80.426 E59.5372
G1 X61.428 Y77.791 E59.6188
G1 X62.734 Y76.466 E59.6675
;PRINTING: Abtropfplatte_Kueche.stl
;PRINTING_ID: 0
G1 F2400 E54.6675
G1 F300 Z0.350
G0 F3900 X63.585 Y77.604
;TYPE:WALL-OUTER
;WIDTH:0.420
G1 F300 Z0.150
G1 F1500 E59.6675
G1 F2400 X65.931 Y76.095 E59.7406
G1 X68.608 Y75.309 E59.8137
G1 X70.000 Y75.210 E59.8502
G1 X180.038 Y75.212 E62.7324
G1 X182.756 Y75.607 E62.8043
G1 X184.068 Y76.095 E62.8410
G1 X186.414 Y77.604 E62.9140
G1 X187.395 Y78.585 E62.9504
G1 X188.904 Y80.931 E63.0234
G1 X189.690 Y83.608 E63.0965
G1 X189.790 Y84.999 E63.1330
G1 X189.790 Y165.000 E65.2285
G1 X189.392 Y167.756 E65.3014
G1 X188.904 Y169.068 E65.3381
G1 X187.395 Y171.414 E65.4111
G1 X186.414 Y172.395 E65.4475
G1 X184.068 Y173.904 E65.5205
G1 X181.391 Y174.690 E65.5936
G1 X179.999 Y174.790 E65.6301
G1 X70.000 Y174.790 E68.5113
G1 X67.243 Y174.392 E68.5842
G1 X65.931 Y173.904 E68.6209
G1 X63.585 Y172.395 E68.6940
G1 X62.604 Y171.414 E68.7303
G1 X61.095 Y169.068 E68.8034
G1 X60.309 Y166.391 E68.8764
G1 X60.210 Y165.000 E68.9130
G1 X60.210 Y84.999 E71.0084
G1 X60.309 Y83.608 E71.0449
G1 X61.091 Y80.942 E71.1177
G1 X62.610 Y78.579 E71.1913
G1 X63.585 Y77.604 E71.2274
G0 F3900 X63.850 Y77.933
;TYPE:WALL-INNER
;WIDTH:0.420
G1 F2400 X66.107 Y76.481 E71.2977
G1 X68.683 Y75.725 E71.3680
G1 X70.015 Y75.630 E71.4030
G1 X180.008 Y75.632 E74.2839
G1 X182.651 Y76.016 E74.3539
G1 X183.879 Y76.473 E74.3882
G1 X186.149 Y77.933 E74.4589
G1 X187.066 Y78.850 E74.4929
G1 X188.518 Y81.107 E74.5632
G1 X189.274 Y83.683 E74.6335
G1 X189.370 Y85.014 E74.6684
G1 X189.370 Y164.970 E76.7627
G1 X188.983 Y167.652 E76.8336
G1 X188.526 Y168.879 E76.8679
G1 X187.066 Y171.149 E76.9386
G1 X186.149 Y172.066 E76.9726
G1 X183.892 Y173.518 E77.0429
G1 X181.316 Y174.274 E77.1132
G1 X179.984 Y174.370 E77.1482
G1 X70.030 Y174.370 E80.0281
G1 X67.347 Y173.983 E80.0991
G1 X66.120 Y173.526 E80.1334
G1 X63.850 Y172.066 E80.2041
G1 X62.933 Y171.149 E80.2381
G1 X61.481 Y168.892 E80.3084
G1 X60.725 Y166.316 E80.3787
G1 X60.630 Y164.985 E80.4137
G1 X60.630 Y85.014 E82.5083
G1 X60.725 Y83.683 E82.5432
G1 X61.477 Y81.118 E82.6132
G1 X62.939 Y78.844 E82.6841
G1 X63.850 Y77.933 E82.7178
G1 F2400 E77.7178
G1 F300 Z0.350
G0 F3900 X63.912 Y78.012
G0 X62.825 Y170.630
;TYPE:SOLID-FILL
;WIDTH:0.420
G1 F300 Z0.150
G1 F1500 E82.7178
G1 F2400 X64.366 Y172.172 E82.7749
G0 F3900 X66.031 Y173.242
G1 F2400 X61.751 Y168.963 E82.9334
G0 F2400 X61.429 Y168.047
G1 F2400 X67.052 Y173.669 E83.1417
G0 F2400 X67.836 Y173.860
G1 F2400 X61.183 Y167.206 E83.3881
G0 F2400 X60.936 Y166.365
G1 F2400 X68.531 Y173.960 E83.6695
G0 F2400 X69.225 Y174.061
G1 F2400 X60.870 Y165.706 E83.9790
G0 F2400 X60.824 Y165.066
G1 F2400 X69.920 Y174.161 E84.3159
G0 F2400 X70.532 Y174.180
G1 F2400 X60.818 Y164.466 E84.6757
G0 F2400 X60.818 Y163.872
G1 F2400 X71.126 Y174.180 E85.0575
G0 F2400 X71.720 Y174.180
G1 F2400 X60.818 Y163.278 E85.4613
G0 F2400 X60.818 Y162.684
G1 F2400 X72.314 Y174.180 E85.8872
G0 F2400 X72.908 Y174.180
G1 F2400 X60.818 Y162.090 E86.3350
G0 F2400 X60.818 Y161.496
G1 F2400 X73.502 Y174.180 E86.8048
G0 F2400 X74.096 Y174.180
G1 F2400 X60.818 Y160.902 E87.2967
G0 F2400 X60.818 Y160.308
G1 F2400 X74.690 Y174.180 E87.8105
G0 F2400 X75.284 Y174.180
G1 F2400 X60.818 Y159.714 E88.3464
G0 F2400 X60.818 Y159.120
G1 F2400 X75.878 Y174.180 E88.9042
G0 F2400 X76.472 Y174.180
G1 F2400 X60.818 Y158.526 E89.4841
G0 F2400 X60.818 Y157.933
G1 F2400 X77.066 Y174.180 E90.0859
G0 F2400 X77.660 Y174.180
G1 F2400 X60.818 Y157.339 E90.7097
G0 F2400 X60.818 Y156.745
G1 F2400 X78.254 Y174.180 E91.3556
G0 F2400 X78.848 Y174.180
G1 F2400 X60.818 Y156.151 E92.0234
G0 F2400 X60.818 Y155.557
G1 F2400 X79.442 Y174.180 E92.7132
G0 F2400 X80.036 Y174.180
G1 F2400 X60.818 Y154.963 E93.4251
G0 F2400 X60.818 Y154.369
G1 F2400 X80.629 Y174.180 E94.1589
G0 F2400 X81.223 Y174.180
G1 F2400 X60.818 Y153.775 E94.9148
G0 F2400 X60.818 Y153.181
G1 F2400 X81.817 Y174.180 E95.6926
G0 F2400 X82.411 Y174.180
G1 F2400 X60.818 Y152.587 E96.4924
G0 F2400 X60.818 Y151.993
G1 F2400 X83.005 Y174.180 E97.3143
G0 F2400 X83.599 Y174.180
G1 F2400 X60.818 Y151.399 E98.1581
G0 F2400 X60.818 Y150.805
G1 F2400 X84.193 Y174.180 E99.0240
G0 F2400 X84.787 Y174.180
G1 F2400 X60.818 Y150.211 E99.9118
G0 F2400 X60.818 Y149.617
G1 F2400 X85.381 Y174.180 E100.8217
G0 F2400 X85.975 Y174.180
G1 F2400 X60.818 Y149.023 E101.7535
G0 F2400 X60.818 Y148.429
G1 F2400 X86.569 Y174.180 E102.7074
G0 F2400 X87.163 Y174.180
G1 F2400 X60.818 Y147.835 E103.6832
G0 F2400 X60.818 Y147.241
G1 F2400 X87.757 Y174.180 E104.6811
G0 F2400 X88.351 Y174.180
G1 F2400 X60.818 Y146.647 E105.7010
G0 F2400 X60.818 Y146.053
G1 F2400 X88.945 Y174.180 E106.7428
G0 F2400 X89.539 Y174.180
G1 F2400 X60.818 Y145.459 E107.8067
G0 F2400 X60.818 Y144.865
G1 F2400 X90.133 Y174.180 E108.8926
G0 F2400 X90.727 Y174.180
G1 F2400 X60.818 Y144.271 E110.0005
G0 F2400 X60.818 Y143.677
G1 F2400 X91.321 Y174.180 E111.1303
G0 F2400 X91.915 Y174.180
G1 F2400 X60.818 Y143.083 E112.2822
G0 F2400 X60.818 Y142.489
G1 F2400 X92.509 Y174.180 E113.4561
G0 F2400 X93.103 Y174.180
G1 F2400 X60.818 Y141.895 E114.6520
G0 F2400 X60.818 Y141.301
G1 F2400 X93.697 Y174.180 E115.8699
G0 F2400 X94.291 Y174.180
G1 F2400 X60.818 Y140.707 E117.1098
G0 F2400 X60.818 Y140.113
G1 F2400 X94.885 Y174.180 E118.3717
G0 F2400 X95.479 Y174.180
G1 F2400 X60.818 Y139.519 E119.6556
G0 F2400 X60.818 Y138.925
G1 F2400 X96.073 Y174.180 E120.9615
G0 F2400 X96.667 Y174.180
G1 F2400 X60.818 Y138.332 E122.2894
G0 F2400 X60.818 Y137.738
G1 F2400 X97.261 Y174.180 E123.6393
G0 F2400 X97.855 Y174.180
G1 F2400 X60.818 Y137.144 E125.0111
G0 F2400 X60.818 Y136.550
G1 F2400 X98.449 Y174.180 E126.4050
G0 F2400 X99.043 Y174.180
G1 F2400 X60.818 Y135.956 E127.8209
G0 F2400 X60.818 Y135.362
G1 F2400 X99.637 Y174.180 E129.2588
G0 F2400 X100.230 Y174.180
G1 F2400 X60.818 Y134.768 E130.7187
G0 F2400 X60.818 Y134.174
G1 F2400 X100.824 Y174.180 E132.2006
G0 F2400 X101.418 Y174.180
G1 F2400 X60.818 Y133.580 E133.7045
G0 F2400 X60.818 Y132.986
G1 F2400 X102.012 Y174.180 E135.2304
G0 F2400 X102.606 Y174.180
G1 F2400 X60.818 Y132.392 E136.7783
G0 F2400 X60.818 Y131.798
G1 F2400 X103.200 Y174.180 E138.3482
G0 F2400 X103.794 Y174.180
G1 F2400 X60.818 Y131.204 E139.9401
G0 F2400 X60.818 Y130.610
G1 F2400 X104.388 Y174.180 E141.5540
G0 F2400 X104.982 Y174.180
G1 F2400 X60.818 Y130.016 E143.1899
G0 F2400 X60.818 Y129.422
G1 F2400 X105.576 Y174.180 E144.8478
G0 F2400 X106.170 Y174.180
G1 F2400 X60.818 Y128.828 E146.5277
G0 F2400 X60.818 Y128.234
G1 F2400 X106.764 Y174.180 E148.2296
G0 F2400 X107.358 Y174.180
G1 F2400 X60.818 Y127.640 E149.9535
G0 F2400 X60.818 Y127.046
G1 F2400 X107.952 Y174.180 E151.6994
G0 F2400 X108.546 Y174.180
G1 F2400 X60.818 Y126.452 E153.4674
G0 F2400 X60.818 Y125.858
G1 F2400 X109.140 Y174.180 E155.2573
G0 F2400 X109.734 Y174.180
G1 F2400 X60.818 Y125.264 E157.0692
G0 F2400 X60.818 Y124.670
G1 F2400 X110.328 Y174.180 E158.9031
G0 F2400 X110.922 Y174.180
G1 F2400 X60.818 Y124.076 E160.7591
G0 F2400 X60.818 Y123.482
G1 F2400 X111.516 Y174.180 E162.6370
G0 F2400 X112.110 Y174.180
G1 F2400 X60.818 Y122.888 E164.5369
G0 F2400 X60.818 Y122.294
G1 F2400 X112.704 Y174.180 E166.4589
G0 F2400 X113.298 Y174.180
G1 F2400 X60.818 Y121.700 E168.4028
G0 F2400 X60.818 Y121.106
G1 F2400 X113.892 Y174.180 E170.3688
G0 F2400 X114.486 Y174.180
G1 F2400 X60.818 Y120.512 E172.3567
G0 F2400 X60.818 Y119.918
G1 F2400 X115.080 Y174.180 E174.3667
G0 F2400 X115.674 Y174.180
G1 F2400 X60.818 Y119.324 E176.3986
G0 F2400 X60.818 Y118.731
G1 F2400 X116.268 Y174.180 E178.4526
G0 F2400 X116.862 Y174.180
