;Sliced by ideaMaker 5.2.4.8581, 2025-10-17 06:37:22 UTC+0200
;Slicer Version: 5.2.3.8580
;Dimension: 250.000 250.000 250.000 0.400
;Plate Shape: 0
;Origin Center: 0
;Extruder Offset #1: 25.000 0.000
;Filament Diameter #1: 1.750
;Filament Diameter #2: 1.750
;Filament Compensation #1: 94.000
;Filament Compensation #2: 90.000
;Filament Density #1: 1240.000
;Filament Density #2: 1240.000
;Filament Type #1: PLA
;Filament Type #2: PLA
;Filament Name #1: [Raise3D] Premium PLA 1.75mm
;Filament Name #2: [Raise3D] Premium PLA 1.75mm
;Filament #1: PLA 1.75mm
;Filament #2: PLA 1.75mm
;Printer Type: floppy
;Firmware: Klipper
;Bounding Box: 94.137 155.990 74.176 175.847 0.000 36.150
;Model Gap: 0.000
M221 T0 S94.00
M140 S45.00
M104 T0 S195.00
M109 T0 S195.00
T0
M190 S45.00
G21 ;metric values
G90 ;absolute positioning
M82 ;set extruder to absolute mode
M107 ;start with the fan off
G28 X0 Y0 ;move X/Y to min endstops
G28 Z0 ;move Z to min endstops
G1 Z15.0 F9000 ;move the platform down 15mm
G92 E0 ;zero the extruded length
G0 X43 Y27 F2000  ;go to the edge of the bed
G92 X0 Y0 E0 ;set zero to edge of the bed
G0 F9000 Z1 ;Z up with 1mm
G1 F200 Z0 ;Z home slowly
G1 Z15.0 F9000 ;move the platform down 15mm
G1 F9000 ;speed setting
G92 E-3 ;retraction
M117 Printing...
M1001
;TOTAL_NUM: 1
;PRINTING_TIME: 0
;REMAINING_TIME: 6810
;LAYER:0
;Z:0.150
;HEIGHT:0.150
M106 S153
;PRINTING: NON-OBJECT
;PRINTING_ID: -1
G1 F2400 E-5.0000
SET_VELOCITY_LIMIT ACCEL=500.00
SET_VELOCITY_LIMIT SQUARE_CORNER_VELOCITY=5.00
G0 F3900 X113.416 Y84.670
G0 F300 Z0.150
;TYPE:SKIRT
;WIDTH:0.420
G1 F1500 E0.0000
G1 F900 X115.129 Y83.760 E0.0508
G1 X119.378 Y83.589 E0.1622
G1 X119.196 Y81.495 E0.2172
G1 X120.269 Y78.024 E0.3124
G1 X122.044 Y75.940 E0.3841
G1 X124.271 Y74.646 E0.4516
G1 X128.008 Y74.187 E0.5502
G1 X130.669 Y74.986 E0.6230
G1 X132.717 Y76.502 E0.6897
G1 X134.648 Y79.820 E0.7902
G1 X134.976 Y82.502 E0.8610
G1 X134.767 Y83.501 E0.8877
G1 X136.092 Y83.503 E0.9225
G1 X135.926 Y81.505 E0.9750
G1 X136.845 Y78.324 E1.0617
G1 X139.238 Y75.594 E1.1568
G1 X141.878 Y74.373 E1.2330
G1 X144.683 Y74.176 E1.3066
G1 X147.140 Y74.861 E1.3734
G1 X149.561 Y76.620 E1.4518
G1 X151.263 Y79.474 E1.5388
G1 X151.706 Y82.487 E1.6186
G1 X151.471 Y83.598 E1.6483
G1 X152.825 Y83.714 E1.6839
G1 X154.404 Y84.533 E1.7305
G1 X155.676 Y86.216 E1.7858
G1 X155.990 Y97.451 E2.0802
G1 X154.737 Y100.359 E2.1631
G1 X152.530 Y101.353 E2.2265
G1 X142.981 Y101.465 E2.4766
G1 X142.671 Y164.060 E4.1162
G1 X139.215 Y166.391 E4.2254
G1 X131.268 Y166.465 E4.4335
G1 X130.008 Y168.170 E4.4890
G1 X127.284 Y170.335 E4.5802
G1 X123.453 Y171.462 E4.6848
G1 X120.495 Y171.041 E4.7630
G1 X118.182 Y169.766 E4.8322
G1 X116.882 Y168.389 E4.8818
G1 X115.496 Y167.426 E4.9260
G1 X114.785 Y166.421 E4.9583
G1 X112.926 Y166.440 E5.0070
G1 X113.106 Y168.575 E5.0631
G1 X112.353 Y171.344 E5.1382
G1 X110.322 Y173.970 E5.2252
G1 X107.417 Y175.546 E5.3118
G1 X104.588 Y175.847 E5.3863
G1 X101.832 Y175.099 E5.4611
G1 X99.236 Y173.094 E5.5470
G1 X97.690 Y170.316 E5.6303
G1 X97.340 Y167.424 E5.7066
G1 X97.574 Y166.334 E5.7358
G1 X96.958 Y166.225 E5.7521
G1 X95.532 Y165.420 E5.7950
G1 X94.210 Y163.318 E5.8601
G1 X94.137 Y146.860 E6.2911
G1 X95.233 Y144.807 E6.3521
G1 X96.450 Y143.940 E6.3912
G1 X97.569 Y143.733 E6.4210
G1 X97.337 Y141.327 E6.4844
G1 X98.094 Y138.599 E6.5585
G1 X99.774 Y136.308 E6.6329
G1 X102.407 Y134.663 E6.7142
G1 X105.370 Y134.145 E6.7930
G1 X108.684 Y134.953 E6.8824
G1 X111.168 Y136.845 E6.9642
G1 X112.753 Y139.668 E7.0490
G1 X113.118 Y142.330 E7.1193
G1 X112.891 Y143.504 E7.1507
G1 X113.949 Y143.506 E7.1784
G1 X114.713 Y142.378 E7.2140
G1 X117.239 Y140.186 E7.3016
G1 X120.589 Y138.904 E7.3956
G1 X123.996 Y139.113 E7.4850
G1 X124.866 Y139.482 E7.5098
G1 X125.003 Y101.481 E8.5051
G1 X115.880 Y101.459 E8.7440
G1 X113.216 Y100.352 E8.8196
G1 X112.109 Y97.669 E8.8956
G1 X112.270 Y86.439 E9.1898
G1 X113.416 Y84.670 E9.2450
G0 F3900 X113.613 Y85.041
G1 F900 X115.326 Y84.131 E9.2958
G1 X119.843 Y83.996 E9.4142
G1 X119.597 Y81.619 E9.4768
G1 X120.670 Y78.148 E9.5719
G1 X122.360 Y76.217 E9.6391
G1 X124.479 Y75.011 E9.7030
G1 X127.891 Y74.590 E9.7930
G1 X130.419 Y75.324 E9.8620
G1 X132.467 Y76.840 E9.9287
G1 X134.231 Y79.871 E10.0206
G1 X134.559 Y82.553 E10.0914
G1 X134.236 Y83.921 E10.1282
G1 X136.555 Y83.923 E10.1889
G1 X136.329 Y81.622 E10.2495
G1 X137.248 Y78.441 E10.3362
G1 X139.551 Y75.875 E10.4265
G1 X142.050 Y74.756 E10.4982
G1 X144.574 Y74.582 E10.5645
G1 X146.897 Y75.204 E10.6275
G1 X149.202 Y76.839 E10.7015
G1 X150.847 Y79.535 E10.7842
G1 X151.290 Y82.548 E10.8640
G1 X150.946 Y83.988 E10.9028
G1 X152.632 Y84.087 E10.9470
G1 X154.211 Y84.906 E10.9936
G1 X155.336 Y86.462 E11.0439
G1 X155.570 Y97.460 E11.3320
G1 X154.444 Y100.058 E11.4062
G1 X152.362 Y100.968 E11.4657
G1 X142.563 Y101.048 E11.7224
G1 X142.283 Y163.898 E13.3686
G1 X139.211 Y165.971 E13.4656
G1 X131.053 Y166.047 E13.6793
G1 X129.747 Y167.841 E13.7374
G1 X127.023 Y170.006 E13.8286
G1 X123.338 Y171.058 E13.9290
G1 X120.695 Y170.671 E13.9989
G1 X118.487 Y169.478 E14.0647
G1 X117.155 Y168.067 E14.1155
G1 X115.736 Y167.081 E14.1607
G1 X115.007 Y165.999 E14.1949
G1 X112.464 Y166.025 E14.2615
G1 X112.701 Y168.465 E14.3257
G1 X111.948 Y171.234 E14.4009
G1 X110.118 Y173.603 E14.4793
G1 X107.373 Y175.128 E14.5615
G1 X104.544 Y175.429 E14.6361
G1 X101.946 Y174.695 E14.7068
G1 X99.603 Y172.890 E14.7842
G1 X98.057 Y170.112 E14.8675
G1 X97.757 Y167.378 E14.9396
G1 X98.091 Y165.976 E14.9773
G1 X97.164 Y165.859 E15.0018
G1 X95.738 Y165.054 E15.0447
G1 X94.630 Y163.316 E15.0987
G1 X94.557 Y146.858 E15.5297
G1 X95.477 Y145.149 E15.5806
G1 X96.694 Y144.282 E15.6197
G1 X98.031 Y144.091 E15.6551
G1 X97.743 Y141.435 E15.7251
G1 X98.435 Y138.844 E15.7953
G1 X99.997 Y136.664 E15.8655
G1 X102.630 Y135.019 E15.9469
G1 X105.438 Y134.559 E16.0214
G1 X108.580 Y135.360 E16.1063
G1 X110.804 Y137.054 E16.1795
G1 X112.337 Y139.725 E16.2602
G1 X112.702 Y142.387 E16.3306
G1 X112.371 Y143.923 E16.3717
G1 X114.174 Y143.927 E16.4190
G1 X114.991 Y142.693 E16.4577
G1 X117.389 Y140.578 E16.5415
G1 X120.739 Y139.296 E16.6354
G1 X123.965 Y139.532 E16.7201
G1 X125.284 Y140.135 E16.7581
G1 X125.425 Y101.062 E17.7816
G1 X115.881 Y101.039 E18.0315
G1 X113.513 Y100.055 E18.0987
G1 X112.529 Y97.673 E18.1662
G1 X112.629 Y86.657 E18.4547
G1 X113.613 Y85.041 E18.5043
G0 F3900 X113.810 Y85.412
G1 F900 X115.523 Y84.502 E18.5551
G1 X120.478 Y84.404 E18.6849
G1 X120.227 Y83.826 E18.7014
G1 X120.000 Y81.739 E18.7564
G1 X120.986 Y78.425 E18.8470
G1 X122.676 Y76.494 E18.9142
G1 X124.683 Y75.378 E18.9743
G1 X127.778 Y74.994 E19.0560
G1 X130.174 Y75.665 E19.1212
G1 X132.106 Y77.055 E19.1835
G1 X133.814 Y79.922 E19.2709
G1 X134.142 Y82.604 E19.3417
G1 X133.693 Y84.340 E19.3887
G1 X137.181 Y84.344 E19.4800
G1 X136.959 Y83.826 E19.4948
G1 X136.732 Y81.739 E19.5498
G1 X137.651 Y78.558 E19.6365
G1 X139.726 Y76.257 E19.7177
G1 X142.079 Y75.175 E19.7855
G1 X144.603 Y75.001 E19.8518
G1 X146.784 Y75.609 E19.9111
G1 X148.843 Y77.058 E19.9770
G1 X150.488 Y79.754 E20.0597
G1 X150.874 Y82.604 E20.1351
G1 X150.410 Y84.377 E20.1831
G1 X152.607 Y84.506 E20.2407
G1 X154.009 Y85.274 E20.2826
G1 X154.927 Y86.558 E20.3239
G1 X155.150 Y97.469 E20.6098
G1 X154.152 Y99.756 E20.6751
G1 X152.359 Y100.548 E20.7265
G1 X142.145 Y100.631 E20.9940
G1 X141.895 Y163.736 E22.6469
G1 X139.207 Y165.551 E22.7318
G1 X130.836 Y165.629 E22.9511
G1 X129.486 Y167.512 E23.0118
G1 X126.762 Y169.677 E23.1029
G1 X123.399 Y170.642 E23.1946
G1 X120.756 Y170.255 E23.2645
G1 X118.690 Y169.111 E23.3264
G1 X117.433 Y167.748 E23.3750
G1 X115.976 Y166.736 E23.4214
G1 X115.235 Y165.577 E23.4574
G1 X111.838 Y165.611 E23.5464
G1 X112.071 Y166.166 E23.5622
G1 X112.296 Y168.355 E23.6198
G1 X111.543 Y171.124 E23.6950
G1 X109.789 Y173.342 E23.7691
G1 X107.324 Y174.711 E23.8429
G1 X104.654 Y175.024 E23.9133
G1 X102.198 Y174.359 E23.9800
G1 X99.968 Y172.682 E24.0530
G1 X98.474 Y170.066 E24.1320
G1 X98.174 Y167.332 E24.2040
G1 X98.623 Y165.601 E24.2508
G1 X97.370 Y165.493 E24.2838
G1 X95.944 Y164.688 E24.3267
G1 X94.990 Y163.100 E24.3752
G1 X94.977 Y146.858 E24.8006
G1 X95.721 Y145.491 E24.8414
G1 X96.938 Y144.624 E24.8805
G1 X98.640 Y144.451 E24.9253
G1 X98.350 Y143.765 E24.9448
G1 X98.162 Y141.402 E25.0069
G1 X98.779 Y139.085 E25.0697
G1 X100.223 Y137.018 E25.1358
G1 X102.703 Y135.433 E25.2128
G1 X105.334 Y134.966 E25.2828
G1 X108.476 Y135.767 E25.3678
G1 X110.545 Y137.385 E25.4366
G1 X111.921 Y139.782 E25.5090
G1 X112.286 Y142.444 E25.5793
G1 X111.841 Y144.342 E25.6304
G1 X114.402 Y144.348 E25.6975
G1 X115.269 Y143.008 E25.7393
G1 X117.667 Y140.893 E25.8230
G1 X120.886 Y139.689 E25.9130
G1 X123.929 Y139.950 E25.9930
G1 X125.702 Y140.802 E26.0446
G1 X125.847 Y100.643 E27.0964
G1 X115.882 Y100.619 E27.3574
G1 X113.810 Y99.758 E27.4162
G1 X112.949 Y97.677 E27.4752
G1 X113.049 Y86.661 E27.7637
G1 X113.810 Y85.412 E27.8020
G0 F3900 X114.158 Y85.648
G1 F900 X115.710 Y84.878 E27.8474
G1 X121.142 Y84.817 E27.9897
G1 X120.645 Y83.781 E28.0198
G1 X120.418 Y81.694 E28.0748
G1 X121.305 Y78.698 E28.1566
G1 X122.880 Y76.861 E28.2200
G1 X124.887 Y75.745 E28.2802
G1 X127.669 Y75.400 E28.3536
G1 X129.934 Y76.010 E28.4150
G1 X131.748 Y77.274 E28.4729
G1 X133.397 Y79.973 E28.5558
G1 X133.725 Y82.655 E28.6265
G1 X133.141 Y84.759 E28.6837
G1 X137.847 Y84.765 E28.8070
G1 X137.377 Y83.781 E28.8356
G1 X137.150 Y81.694 E28.8905
G1 X138.053 Y78.679 E28.9730
G1 X139.906 Y76.637 E29.0452
G1 X142.112 Y75.594 E29.1091
G1 X144.490 Y75.406 E29.1716
G1 X146.671 Y76.014 E29.2309
G1 X148.484 Y77.277 E29.2888
G1 X150.129 Y79.973 E29.3715
G1 X150.457 Y82.655 E29.4423
G1 X149.862 Y84.777 E29.5000
G1 X152.405 Y84.874 E29.5666
G1 X153.807 Y85.642 E29.6085
G1 X154.517 Y86.651 E29.6408
G1 X154.730 Y97.477 E29.9244
G1 X153.861 Y99.453 E29.9810
G1 X152.356 Y100.128 E30.0242
G1 X141.726 Y100.214 E30.3026
G1 X141.507 Y163.575 E31.9622
G1 X139.203 Y165.131 E32.0350
G1 X130.556 Y165.212 E32.2615
G1 X130.324 Y165.765 E32.2772
G1 X129.225 Y167.183 E32.3242
G1 X126.501 Y169.348 E32.4154
G1 X123.287 Y170.237 E32.5027
G1 X120.823 Y169.840 E32.5681
G1 X118.898 Y168.746 E32.6261
G1 X117.711 Y167.430 E32.6725
G1 X116.216 Y166.391 E32.7202
G1 X115.471 Y165.155 E32.7580
G1 X111.181 Y165.197 E32.8703
G1 X111.653 Y166.209 E32.8996
G1 X111.878 Y168.398 E32.9572
G1 X111.210 Y170.868 E33.0242
G1 X109.585 Y172.975 E33.0939
G1 X107.120 Y174.344 E33.1678
G1 X104.759 Y174.617 E33.2300
G1 X102.446 Y174.020 E33.2926
G1 X100.330 Y172.469 E33.3613
G1 X98.891 Y170.020 E33.4357
G1 X98.591 Y167.286 E33.5078
G1 X99.169 Y165.209 E33.5642
G1 X97.576 Y165.127 E33.6060
G1 X96.150 Y164.322 E33.6489
G1 X95.357 Y162.896 E33.6916
G1 X95.397 Y146.859 E34.1117
G1 X96.082 Y145.706 E34.1468
G1 X97.172 Y144.973 E34.1812
G1 X99.278 Y144.828 E34.2365
G1 X98.769 Y143.732 E34.2682
G1 X98.581 Y141.369 E34.3303
G1 X99.184 Y139.197 E34.3893
G1 X100.453 Y137.369 E34.4476
G1 X102.783 Y135.845 E34.5205
G1 X105.230 Y135.373 E34.5858
G1 X108.372 Y136.174 E34.6707
G1 X110.282 Y137.712 E34.7349
G1 X111.505 Y139.839 E34.7992
G1 X111.870 Y142.501 E34.8696
G1 X111.303 Y144.761 E34.9306
G1 X114.633 Y144.768 E35.0178
G1 X115.547 Y143.323 E35.0626
G1 X117.945 Y141.208 E35.1464
G1 X121.030 Y140.084 E35.2324
G1 X123.887 Y140.368 E35.3076
G1 X125.515 Y141.178 E35.3552
G1 X126.203 Y141.715 E35.3780
G1 X126.268 Y100.224 E36.4648
G1 X115.883 Y100.199 E36.7368
G1 X114.107 Y99.461 E36.7872
G1 X113.369 Y97.681 E36.8376
G1 X113.469 Y86.665 E37.1262
G1 X114.158 Y85.648 E37.1584
G0 F3900 X114.355 Y86.019
G1 F900 X115.715 Y85.298 E37.1987
G1 X121.822 Y85.229 E37.3587
G1 X121.063 Y83.736 E37.4025
G1 X120.836 Y81.649 E37.4575
G1 X121.627 Y78.968 E37.5307
G1 X123.084 Y77.228 E37.5902
G1 X125.091 Y76.112 E37.6503
G1 X127.716 Y75.817 E37.7195
G1 X129.819 Y76.414 E37.7768
G1 X131.504 Y77.616 E37.8310
G1 X133.036 Y80.188 E37.9094
G1 X133.307 Y82.700 E37.9756
G1 X132.878 Y84.393 E38.0213
G1 X132.369 Y85.178 E38.0458
G1 X138.532 Y85.186 E38.2072
G1 X137.795 Y83.736 E38.2498
G1 X137.568 Y81.649 E38.3048
G1 X138.367 Y78.958 E38.3784
G1 X140.090 Y77.015 E38.4464
G1 X142.150 Y76.012 E38.5064
G1 X144.377 Y75.811 E38.5649
G1 X146.558 Y76.419 E38.6243
G1 X148.240 Y77.619 E38.6784
G1 X149.768 Y80.188 E38.7567
G1 X150.039 Y82.700 E38.8228
G1 X149.610 Y84.393 E38.8686
G1 X149.098 Y85.182 E38.8932
G1 X152.203 Y85.242 E38.9746
G1 X153.605 Y86.010 E39.0164
G1 X154.164 Y86.878 E39.0435
G1 X154.310 Y97.483 E39.3213
G1 X153.571 Y99.149 E39.3690
G1 X152.353 Y99.708 E39.4041
G1 X141.307 Y99.797 E39.6934
G1 X141.119 Y163.414 E41.3597
G1 X139.199 Y164.711 E41.4204
G1 X130.267 Y164.795 E41.6544
G1 X129.990 Y165.510 E41.6745
G1 X128.964 Y166.854 E41.7187
G1 X126.240 Y169.019 E41.8099
G1 X123.179 Y169.831 E41.8928
G1 X120.896 Y169.426 E41.9536
G1 X119.110 Y168.383 E42.0077
G1 X117.992 Y167.114 E42.0520
G1 X116.456 Y166.046 E42.1010
G1 X115.715 Y164.733 E42.1405
G1 X110.508 Y164.783 E42.2769
G1 X111.236 Y166.257 E42.3200
G1 X111.471 Y168.294 E42.3737
G1 X110.877 Y170.612 E42.4364
G1 X109.252 Y172.719 E42.5060
G1 X107.072 Y173.927 E42.5713
G1 X104.711 Y174.200 E42.6336
G1 X102.556 Y173.615 E42.6921
G1 X100.582 Y172.133 E42.7567
G1 X99.256 Y169.812 E42.8267
G1 X99.009 Y167.246 E42.8943
G1 X99.605 Y165.213 E42.9497
G1 X99.854 Y164.824 E42.9618
G1 X97.598 Y164.708 E43.0210
G1 X96.368 Y163.963 E43.0587
G1 X95.777 Y162.897 E43.0906
G1 X95.817 Y146.860 E43.5107
G1 X96.431 Y145.939 E43.5396
G1 X97.397 Y145.328 E43.5696
G1 X99.941 Y145.221 E43.6363
G1 X99.187 Y143.694 E43.6809
G1 X98.986 Y141.481 E43.7391
G1 X99.589 Y139.309 E43.7981
G1 X100.795 Y137.612 E43.8527
G1 X103.009 Y136.199 E43.9214
G1 X105.304 Y135.786 E43.9825
G1 X108.109 Y136.501 E44.0583
G1 X110.019 Y138.039 E44.1226
G1 X111.138 Y140.044 E44.1827
G1 X111.453 Y142.553 E44.2489
G1 X110.939 Y144.559 E44.3032
G1 X110.534 Y145.180 E44.3226
G1 X114.867 Y145.188 E44.4361
G1 X115.825 Y143.638 E44.4838
G1 X118.223 Y141.523 E44.5676
G1 X121.170 Y140.480 E44.6495
G1 X123.700 Y140.744 E44.7161
G1 X125.328 Y141.554 E44.7637
G1 X126.622 Y142.586 E44.8071
G1 X126.689 Y99.805 E45.9276
G1 X115.884 Y99.779 E46.2106
G1 X114.404 Y99.164 E46.2526
G1 X113.789 Y97.682 E46.2946
G1 X113.827 Y86.884 E46.5774
G1 X114.355 Y86.019 E46.6040
G0 F3900 X114.564 Y86.383
G1 F900 X115.720 Y85.718 E46.6389
G1 X122.517 Y85.641 E46.8169
G1 X121.481 Y83.691 E46.8748
G1 X121.254 Y81.604 E46.9298
G1 X121.949 Y79.238 E46.9944
G1 X123.406 Y77.498 E47.0538
G1 X125.290 Y76.482 E47.1099
G1 X127.606 Y76.222 E47.1709
G1 X129.575 Y76.756 E47.2243
G1 X131.260 Y77.958 E47.2786
G1 X132.673 Y80.398 E47.3524
G1 X132.900 Y82.597 E47.4103
G1 X132.471 Y84.290 E47.4561
G1 X131.571 Y85.597 E47.4976
G1 X139.231 Y85.607 E47.6983
G1 X138.213 Y83.691 E47.7551
G1 X137.986 Y81.604 E47.8101
G1 X138.685 Y79.233 E47.8748
G1 X140.274 Y77.393 E47.9385
G1 X142.334 Y76.390 E47.9985
G1 X144.409 Y76.230 E48.0530
G1 X146.440 Y76.822 E48.1084
G1 X147.992 Y77.958 E48.1588
G1 X149.405 Y80.398 E48.2327
G1 X149.632 Y82.597 E48.2906
G1 X149.203 Y84.290 E48.3363
G1 X148.300 Y85.600 E48.3780
G1 X152.001 Y85.610 E48.4749
G1 X153.403 Y86.378 E48.5168
G1 X153.744 Y86.884 E48.5328
G1 X153.890 Y97.489 E48.8106
G1 X153.282 Y98.844 E48.8495
G1 X152.350 Y99.288 E48.8765
G1 X140.888 Y99.380 E49.1767
G1 X140.731 Y163.253 E50.8497
G1 X139.195 Y164.291 E50.8983
G1 X129.971 Y164.378 E51.1399
G1 X129.656 Y165.255 E51.1643
G1 X128.630 Y166.599 E51.2086
G1 X125.980 Y168.689 E51.2970
G1 X123.076 Y169.424 E51.3754
G1 X120.976 Y169.014 E51.4315
G1 X119.326 Y168.023 E51.4819
G1 X118.273 Y166.796 E51.5242
G1 X116.822 Y165.840 E51.5698
G1 X115.959 Y164.311 E51.6157
G1 X109.823 Y164.369 E51.7765
G1 X110.819 Y166.305 E51.8335
G1 X111.054 Y168.342 E51.8872
G1 X110.541 Y170.360 E51.9417
G1 X109.048 Y172.352 E52.0069
G1 X106.868 Y173.560 E52.0722
G1 X104.815 Y173.793 E52.1263
G1 X102.808 Y173.279 E52.1806
G1 X100.834 Y171.797 E52.2453
G1 X99.623 Y169.609 E52.3108
G1 X99.412 Y167.364 E52.3698
G1 X100.008 Y165.331 E52.4253
G1 X100.652 Y164.428 E52.4544
G1 X97.799 Y164.339 E52.5291
G1 X96.735 Y163.759 E52.5609
G1 X96.144 Y162.693 E52.5928
