;Sliced by ideaMaker 5.2.4.8581, 2025-10-19 09:36:39 UTC+0200
;Slicer Version: 5.2.3.8580
;Dimension: 250.000 250.000 250.000 0.400
;Plate Shape: 0
;Origin Center: 0
;Extruder Offset #1: 25.000 0.000
;Filament Diameter #1: 1.750
;Filament Diameter #2: 1.750
;Filament Compensation #1: 94.000
;Filament Compensation #2: 90.000
;Filament Density #1: 1240.000
;Filament Density #2: 1240.000
;Filament Type #1: PLA
;Filament Type #2: PLA
;Filament Name #1: [Raise3D] Premium PLA 1.75mm
;Filament Name #2: [Raise3D] Premium PLA 1.75mm
;Filament #1: PLA 1.75mm
;Filament #2: PLA 1.75mm
;Printer Type: floppy
;Firmware: Klipper
;Bounding Box: 101.310 148.303 90.723 167.354 0.000 36.150
;Model Gap: 0.000
M221 T0 S94.00
M140 S45.00
M104 T0 S195.00
M109 T0 S195.00
T0
M190 S45.00
G21 ;metric values
G90 ;absolute positioning
M82 ;set extruder to absolute mode
M107 ;start with the fan off
G28 X0 Y0 ;move X/Y to min endstops
G28 Z0 ;move Z to min endstops
G1 Z15.0 F9000 ;move the platform down 15mm
G92 E0 ;zero the extruded length
G0 X43 Y27 F2000  ;go to the edge of the bed
G92 X0 Y0 E0 ;set zero to edge of the bed
G0 F9000 Z1 ;Z up with 1mm
G1 F200 Z0 ;Z home slowly
G1 Z15.0 F9000 ;move the platform down 15mm
G1 F9000 ;speed setting
G92 E-3 ;retraction
M117 Printing...
M1001
;TOTAL_NUM: 1
;PRINTING_TIME: 0
;REMAINING_TIME: 5148
;LAYER:0
;Z:0.150
;HEIGHT:0.150
M106 S153
;PRINTING: NON-OBJECT
;PRINTING_ID: -1
G1 F2400 E-5.0000
SET_VELOCITY_LIMIT ACCEL=500.00
SET_VELOCITY_LIMIT SQUARE_CORNER_VELOCITY=5.00
G0 F3900 X112.992 Y93.395
G0 F300 Z0.150
;TYPE:SKIRT
;WIDTH:0.420
G1 F1500 E0.0000
G1 F900 X114.461 Y91.685 E0.0590
G1 X117.284 Y90.789 E0.1366
G1 X119.021 Y91.129 E0.1830
G1 X120.423 Y90.742 E0.2211
G1 X121.833 Y90.832 E0.2581
G1 X122.627 Y91.077 E0.2798
G1 X123.861 Y90.723 E0.3135
G1 X125.196 Y90.768 E0.3485
G1 X126.256 Y91.073 E0.3773
G1 X126.930 Y90.921 E0.3954
G1 X128.037 Y91.029 E0.4246
G1 X130.095 Y90.737 E0.4790
G1 X131.762 Y91.140 E0.5239
G1 X133.302 Y90.953 E0.5646
G1 X135.335 Y91.543 E0.6200
G1 X137.185 Y93.410 E0.6889
G1 X137.893 Y95.465 E0.7458
G1 X137.621 Y97.487 E0.7992
G1 X138.909 Y97.426 E0.8330
G1 X141.442 Y98.159 E0.9021
G1 X143.350 Y99.446 E0.9624
G1 X144.831 Y101.306 E1.0246
G1 X145.732 Y103.786 E1.0937
G1 X145.586 Y107.300 E1.1859
G1 X144.067 Y110.300 E1.2739
G1 X142.486 Y111.781 E1.3307
G1 X138.852 Y113.887 E1.4407
G1 X136.560 Y114.382 E1.5021
G1 X136.533 Y114.748 E1.5117
G1 X138.759 Y114.602 E1.5701
G1 X141.497 Y115.396 E1.6448
G1 X144.230 Y117.638 E1.7374
G1 X145.391 Y119.745 E1.8004
G1 X145.875 Y122.145 E1.8645
G1 X145.293 Y125.403 E1.9512
G1 X143.273 Y128.278 E2.0433
G1 X140.337 Y129.973 E2.1321
G1 X137.328 Y130.349 E2.2115
G1 X136.498 Y130.170 E2.2337
G1 X136.495 Y132.915 E2.3056
G1 X138.929 Y132.710 E2.3696
G1 X141.910 Y133.668 E2.4516
G1 X143.481 Y134.821 E2.5027
G1 X144.788 Y136.534 E2.5591
G1 X145.817 Y139.702 E2.6463
G1 X145.727 Y141.620 E2.6966
G1 X147.307 Y143.219 E2.7555
G1 X148.303 Y145.889 E2.8301
G1 X147.810 Y147.847 E2.8830
G1 X148.262 Y149.473 E2.9272
G1 X147.868 Y151.222 E2.9742
G1 X148.096 Y152.287 E3.0027
G1 X147.938 Y153.604 E3.0375
G1 X148.017 Y155.430 E3.0853
G1 X145.890 Y158.609 E3.1855
G1 X143.375 Y159.464 E3.2551
G1 X142.362 Y159.308 E3.2819
G1 X142.412 Y160.449 E3.3119
G1 X141.529 Y163.197 E3.3875
G1 X139.543 Y165.584 E3.4688
G1 X136.950 Y166.994 E3.5461
G1 X133.985 Y167.354 E3.6243
G1 X131.673 Y166.823 E3.6865
G1 X129.789 Y165.592 E3.7454
G1 X127.469 Y166.912 E3.8153
G1 X123.892 Y167.306 E3.9096
G1 X121.431 Y166.568 E3.9769
G1 X119.960 Y165.470 E4.0249
G1 X119.447 Y165.965 E4.0436
G1 X117.401 Y166.979 E4.1034
G1 X114.159 Y167.332 E4.1888
G1 X111.393 Y166.508 E4.2644
G1 X108.942 Y164.558 E4.3465
G1 X107.356 Y161.613 E4.4341
G1 X107.096 Y159.453 E4.4911
G1 X106.546 Y159.442 E4.5055
G1 X103.899 Y158.445 E4.5796
G1 X101.929 Y155.300 E4.6768
G1 X102.088 Y153.585 E4.7219
G1 X101.527 Y151.855 E4.7695
G1 X101.685 Y150.354 E4.8090
G1 X101.343 Y149.101 E4.8431
G1 X101.467 Y147.979 E4.8726
G1 X101.310 Y147.030 E4.8978
G1 X101.373 Y146.096 E4.9223
G1 X102.851 Y142.733 E5.0186
G1 X104.284 Y141.442 E5.0691
G1 X104.194 Y139.689 E5.1151
G1 X105.080 Y136.817 E5.1938
G1 X107.070 Y134.402 E5.2757
G1 X109.636 Y133.010 E5.3522
G1 X112.562 Y132.654 E5.4294
G1 X113.444 Y132.852 E5.4531
G1 X113.469 Y131.035 E5.5007
G1 X111.571 Y131.204 E5.5506
G1 X108.463 Y130.344 E5.6351
G1 X105.896 Y128.267 E5.7215
G1 X104.558 Y125.880 E5.7932
G1 X104.124 Y123.286 E5.8621
G1 X104.819 Y120.114 E5.9472
G1 X106.633 Y117.560 E6.0292
G1 X109.824 Y115.749 E6.1253
G1 X108.515 Y115.366 E6.1610
G1 X105.881 Y113.155 E6.2511
G1 X104.546 Y110.422 E6.3308
G1 X104.359 Y107.515 E6.4071
G1 X105.148 Y104.977 E6.4767
G1 X107.055 Y102.599 E6.5565
G1 X110.111 Y101.015 E6.6467
G1 X112.705 Y100.784 E6.7149
G1 X113.467 Y100.940 E6.7353
G1 X113.501 Y99.411 E6.7753
G1 X112.584 Y97.960 E6.8203
G1 X112.353 Y95.562 E6.8834
G1 X112.992 Y93.395 E6.9426
G0 F3900 X113.311 Y93.669
G1 F900 X114.780 Y91.959 E7.0016
G1 X117.402 Y91.192 E7.0732
G1 X119.034 Y91.563 E7.1170
G1 X120.396 Y91.161 E7.1542
G1 X121.806 Y91.251 E7.1912
G1 X122.624 Y91.517 E7.2137
G1 X123.847 Y91.143 E7.2472
G1 X125.182 Y91.188 E7.2822
G1 X126.250 Y91.510 E7.3114
G1 X126.889 Y91.339 E7.3288
G1 X128.081 Y91.455 E7.3601
G1 X128.741 Y91.249 E7.3782
G1 X130.123 Y91.156 E7.4145
G1 X131.740 Y91.568 E7.4582
G1 X133.195 Y91.359 E7.4967
G1 X135.041 Y91.843 E7.5467
G1 X136.791 Y93.556 E7.6109
G1 X137.477 Y95.409 E7.6626
G1 X137.136 Y97.940 E7.7295
G1 X138.792 Y97.829 E7.7730
G1 X141.325 Y98.562 E7.8420
G1 X143.112 Y99.792 E7.8989
G1 X144.500 Y101.565 E7.9578
G1 X145.336 Y103.926 E8.0234
G1 X145.167 Y107.279 E8.1114
G1 X143.780 Y109.993 E8.1912
G1 X142.199 Y111.474 E8.2479
G1 X138.642 Y113.523 E8.3555
G1 X136.583 Y113.963 E8.4106
G1 X136.121 Y113.938 E8.4227
G1 X136.109 Y115.203 E8.4559
G1 X138.642 Y115.005 E8.5224
G1 X141.380 Y115.799 E8.5971
G1 X143.862 Y117.841 E8.6813
G1 X145.023 Y119.948 E8.7443
G1 X145.463 Y122.225 E8.8050
G1 X144.880 Y125.325 E8.8876
G1 X143.063 Y127.914 E8.9705
G1 X140.127 Y129.609 E9.0593
G1 X137.281 Y129.932 E9.1343
G1 X136.079 Y129.633 E9.1667
G1 X136.075 Y133.378 E9.2648
G1 X138.800 Y133.110 E9.3366
G1 X141.781 Y134.068 E9.4186
G1 X143.150 Y135.080 E9.4632
G1 X144.389 Y136.664 E9.5158
G1 X145.418 Y139.832 E9.6031
G1 X145.291 Y141.866 E9.6565
G1 X145.660 Y142.059 E9.6674
G1 X146.915 Y143.370 E9.7149
G1 X147.883 Y145.879 E9.7853
G1 X147.373 Y147.858 E9.8389
G1 X147.852 Y149.381 E9.8807
G1 X147.438 Y151.220 E9.9301
G1 X147.685 Y152.375 E9.9610
G1 X147.516 Y153.586 E9.9930
G1 X147.597 Y155.448 E10.0418
G1 X145.661 Y158.257 E10.1312
G1 X143.242 Y159.066 E10.1980
G1 X141.904 Y158.780 E10.2338
G1 X142.011 Y160.325 E10.2744
G1 X141.203 Y162.932 E10.3459
G1 X139.342 Y165.215 E10.4230
G1 X136.749 Y166.625 E10.5003
G1 X134.079 Y166.945 E10.5708
G1 X131.767 Y166.414 E10.6329
G1 X129.804 Y165.096 E10.6948
G1 X127.423 Y166.495 E10.7672
G1 X123.846 Y166.889 E10.8614
G1 X121.557 Y166.167 E10.9243
G1 X119.919 Y164.909 E10.9784
G1 X119.260 Y165.589 E11.0032
G1 X117.214 Y166.603 E11.0630
G1 X114.274 Y166.928 E11.1405
G1 X111.654 Y166.179 E11.2119
G1 X109.203 Y164.229 E11.2939
G1 X107.728 Y161.418 E11.3770
G1 X107.473 Y159.020 E11.4402
G1 X106.690 Y159.047 E11.4607
G1 X104.182 Y158.135 E11.5306
G1 X102.343 Y155.228 E11.6207
G1 X102.515 Y153.539 E11.6652
G1 X101.927 Y151.725 E11.7151
G1 X102.112 Y150.324 E11.7521
G1 X101.748 Y148.990 E11.7884
G1 X101.892 Y147.973 E11.8153
G1 X101.729 Y147.058 E11.8396
G1 X101.792 Y146.124 E11.8641
G1 X103.234 Y142.905 E11.9565
G1 X104.717 Y141.623 E12.0079
G1 X104.595 Y139.813 E12.0554
G1 X105.481 Y136.941 E12.1341
G1 X107.391 Y134.672 E12.2118
G1 X109.832 Y133.381 E12.2841
G1 X112.609 Y133.071 E12.3573
G1 X113.857 Y133.393 E12.3911
G1 X113.896 Y130.568 E12.4651
G1 X111.678 Y130.798 E12.5235
G1 X108.727 Y130.017 E12.6034
G1 X106.160 Y127.940 E12.6899
G1 X104.927 Y125.679 E12.7574
G1 X104.535 Y123.372 E12.8187
G1 X105.165 Y120.353 E12.8994
G1 X106.843 Y117.924 E12.9768
G1 X109.923 Y116.148 E13.0699
G1 X112.930 Y115.876 E13.1490
G1 X113.899 Y116.153 E13.1754
G1 X113.903 Y115.474 E13.1931
G1 X111.712 Y115.812 E13.2512
G1 X108.782 Y115.041 E13.3306
G1 X106.256 Y112.967 E13.4162
G1 X104.965 Y110.391 E13.4916
G1 X104.761 Y107.635 E13.5640
G1 X105.479 Y105.236 E13.6296
G1 X107.252 Y102.970 E13.7050
G1 X110.148 Y101.433 E13.7908
G1 X112.742 Y101.202 E13.8591
G1 X113.875 Y101.467 E13.8895
G1 X113.924 Y99.287 E13.9467
G1 X113.002 Y97.915 E13.9899
G1 X112.758 Y95.674 E14.0490
G1 X113.311 Y93.669 E14.1035
G0 F3900 X113.716 Y93.781
G1 F900 X115.093 Y92.239 E14.1576
G1 X117.510 Y91.598 E14.2231
G1 X119.045 Y92.000 E14.2647
G1 X120.369 Y91.580 E14.3011
G1 X121.779 Y91.670 E14.3381
G1 X122.620 Y91.960 E14.3614
G1 X123.833 Y91.563 E14.3948
G1 X125.168 Y91.608 E14.4298
G1 X126.242 Y91.948 E14.4593
G1 X126.998 Y91.745 E14.4798
G1 X128.123 Y91.884 E14.5095
G1 X128.769 Y91.668 E14.5273
G1 X130.151 Y91.575 E14.5636
G1 X131.716 Y91.997 E14.6061
G1 X133.102 Y91.769 E14.6428
G1 X134.747 Y92.143 E14.6870
G1 X136.497 Y93.856 E14.7512
G1 X137.080 Y95.546 E14.7980
G1 X136.717 Y97.903 E14.8605
G1 X136.389 Y98.425 E14.8766
G1 X138.675 Y98.232 E14.9367
G1 X141.208 Y98.965 E15.0058
G1 X142.870 Y100.135 E15.0590
G1 X144.104 Y101.705 E15.1113
G1 X144.940 Y104.066 E15.1769
G1 X144.791 Y107.091 E15.2562
G1 X143.493 Y109.686 E15.3322
G1 X141.912 Y111.167 E15.3890
G1 X138.433 Y113.158 E15.4940
G1 X136.499 Y113.551 E15.5457
G1 X135.705 Y113.479 E15.5665
G1 X135.683 Y115.820 E15.6279
G1 X136.205 Y115.607 E15.6426
G1 X138.525 Y115.408 E15.7036
G1 X141.263 Y116.202 E15.7783
G1 X143.496 Y118.047 E15.8542
G1 X144.611 Y120.028 E15.9137
G1 X145.051 Y122.305 E15.9744
G1 X144.468 Y125.243 E16.0529
G1 X142.853 Y127.550 E16.1266
G1 X139.917 Y129.245 E16.2154
G1 X137.239 Y129.514 E16.2859
G1 X135.659 Y129.083 E16.3288
G1 X135.655 Y133.847 E16.4536
G1 X138.671 Y133.510 E16.5331
G1 X141.652 Y134.468 E16.6151
G1 X142.823 Y135.343 E16.6534
G1 X143.990 Y136.794 E16.7022
G1 X145.019 Y139.962 E16.7894
G1 X144.849 Y142.131 E16.8464
G1 X145.362 Y142.355 E16.8611
G1 X146.525 Y143.526 E16.9043
G1 X147.463 Y145.874 E16.9705
G1 X146.934 Y147.877 E17.0248
G1 X147.442 Y149.289 E17.0641
G1 X147.007 Y151.222 E17.1160
G1 X147.269 Y152.317 E17.1455
G1 X147.094 Y153.568 E17.1786
G1 X147.200 Y155.312 E17.2243
G1 X145.430 Y157.906 E17.3066
G1 X143.111 Y158.667 E17.3705
G1 X141.434 Y158.219 E17.4160
G1 X141.608 Y160.205 E17.4682
G1 X140.875 Y162.670 E17.5355
G1 X139.141 Y164.846 E17.6084
G1 X136.548 Y166.256 E17.6857
G1 X134.173 Y166.536 E17.7484
G1 X131.861 Y166.005 E17.8105
G1 X129.751 Y164.548 E17.8777
G1 X129.394 Y164.915 E17.8911
G1 X127.373 Y166.078 E17.9521
G1 X123.972 Y166.488 E18.0419
G1 X121.683 Y165.766 E18.1047
G1 X119.873 Y164.337 E18.1651
G1 X119.073 Y165.213 E18.1962
G1 X117.027 Y166.227 E18.2560
G1 X114.384 Y166.523 E18.3257
G1 X111.915 Y165.850 E18.3927
G1 X109.464 Y163.900 E18.4747
G1 X108.102 Y161.227 E18.5533
G1 X107.891 Y158.981 E18.6124
G1 X108.008 Y158.419 E18.6274
G1 X106.829 Y158.651 E18.6589
G1 X104.461 Y157.821 E18.7246
G1 X102.756 Y155.154 E18.8076
G1 X102.943 Y153.491 E18.8514
G1 X102.343 Y151.780 E18.8989
G1 X102.540 Y150.288 E18.9383
G1 X102.164 Y149.049 E18.9722
G1 X102.318 Y147.964 E19.0009
G1 X102.148 Y147.086 E19.0243
G1 X102.211 Y146.152 E19.0489
G1 X103.616 Y143.080 E19.1373
G1 X105.154 Y141.807 E19.1896
G1 X104.996 Y139.937 E19.2388
G1 X105.882 Y137.065 E19.3175
G1 X107.709 Y134.946 E19.3908
G1 X110.024 Y133.754 E19.4590
G1 X112.651 Y133.489 E19.5281
G1 X114.270 Y133.945 E19.5722
G1 X114.324 Y129.948 E19.6769
G1 X113.844 Y130.152 E19.6906
G1 X111.781 Y130.391 E19.7450
G1 X108.988 Y129.688 E19.8204
G1 X106.529 Y127.739 E19.9026
G1 X105.296 Y125.478 E19.9700
G1 X104.950 Y123.306 E20.0276
G1 X105.514 Y120.587 E20.1004
G1 X107.053 Y118.288 E20.1728
G1 X110.133 Y116.512 E20.2660
G1 X112.962 Y116.295 E20.3403
G1 X114.315 Y116.727 E20.3775
G1 X114.326 Y114.975 E20.4234
G1 X111.819 Y115.406 E20.4900
G1 X108.889 Y114.635 E20.5693
G1 X106.526 Y112.646 E20.6502
G1 X105.343 Y110.208 E20.7212
G1 X105.165 Y107.751 E20.7858
G1 X105.813 Y105.491 E20.8473
G1 X107.453 Y103.339 E20.9182
G1 X110.185 Y101.851 E20.9997
G1 X112.779 Y101.620 E21.0679
G1 X114.283 Y102.005 E21.1086
G1 X114.347 Y99.156 E21.1832
G1 X113.419 Y97.864 E21.2249
G1 X113.163 Y95.786 E21.2797
G1 X113.716 Y93.781 E21.3342
G0 F3900 X114.121 Y93.893
G1 F900 X115.400 Y92.526 E21.3832
G1 X117.606 Y92.007 E21.4426
G1 X119.049 Y92.439 E21.4820
G1 X120.496 Y91.980 E21.5218
G1 X121.743 Y92.088 E21.5546
G1 X122.616 Y92.406 E21.5789
G1 X123.819 Y91.983 E21.6123
G1 X125.154 Y92.028 E21.6473
G1 X126.241 Y92.390 E21.6773
G1 X126.947 Y92.162 E21.6967
G1 X128.171 Y92.313 E21.7290
G1 X128.797 Y92.087 E21.7465
G1 X130.179 Y91.994 E21.7827
G1 X131.697 Y92.429 E21.8241
G1 X133.009 Y92.179 E21.8591
G1 X134.654 Y92.553 E21.9033
G1 X136.195 Y94.148 E21.9614
G1 X136.680 Y95.673 E22.0033
G1 X136.303 Y97.831 E22.0607
G1 X135.325 Y99.171 E22.1041
G1 X136.093 Y98.876 E22.1257
G1 X138.562 Y98.636 E22.1906
G1 X140.966 Y99.308 E22.2560
G1 X142.628 Y100.478 E22.3092
G1 X143.771 Y101.961 E22.3583
G1 X144.543 Y104.203 E22.4204
G1 X144.372 Y107.066 E22.4955
G1 X143.206 Y109.379 E22.5634
G1 X141.625 Y110.860 E22.6201
G1 X138.225 Y112.793 E22.7225
G1 X136.420 Y113.139 E22.7707
G1 X135.289 Y113.009 E22.8005
G1 X135.257 Y116.474 E22.8913
G1 X136.246 Y116.025 E22.9197
G1 X138.408 Y115.811 E22.9766
G1 X141.146 Y116.605 E23.0513
G1 X143.224 Y118.367 E23.1226
G1 X144.242 Y120.229 E23.1782
G1 X144.638 Y122.381 E23.2355
G1 X144.120 Y125.007 E23.3056
G1 X142.639 Y127.189 E23.3747
G1 X139.875 Y128.827 E23.4589
G1 X137.197 Y129.096 E23.5294
G1 X135.240 Y128.522 E23.5828
G1 X135.234 Y134.471 E23.7386
G1 X135.931 Y134.188 E23.7583
G1 X138.710 Y133.928 E23.8314
G1 X141.519 Y134.866 E23.9090
G1 X142.566 Y135.675 E23.9436
G1 X143.591 Y136.924 E23.9860
G1 X144.620 Y140.092 E24.0732
G1 X144.504 Y141.851 E24.1194
G1 X144.309 Y142.386 E24.1343
G1 X145.064 Y142.651 E24.1553
G1 X146.227 Y143.822 E24.1985
G1 X147.043 Y145.869 E24.2562
G1 X146.493 Y147.900 E24.3113
G1 X147.022 Y149.279 E24.3500
G1 X146.574 Y151.231 E24.4025
G1 X146.853 Y152.259 E24.4304
G1 X146.672 Y153.557 E24.4647
G1 X146.800 Y155.183 E24.5074
G1 X145.294 Y157.509 E24.5800
G1 X143.137 Y158.248 E24.6397
G1 X140.954 Y157.653 E24.6990
G1 X141.204 Y160.090 E24.7631
G1 X140.543 Y162.412 E24.8264
G1 X138.937 Y164.479 E24.8949
G1 X136.494 Y165.839 E24.9682
G1 X134.267 Y166.127 E25.0270
G1 X131.955 Y165.596 E25.0891
G1 X129.690 Y163.990 E25.1618
G1 X129.179 Y164.554 E25.1818
G1 X127.318 Y165.662 E25.2385
G1 X124.098 Y166.087 E25.3236
G1 X121.809 Y165.365 E25.3864
G1 X119.822 Y163.756 E25.4534
G1 X118.882 Y164.839 E25.4910
G1 X116.980 Y165.810 E25.5469
G1 X114.337 Y166.106 E25.6166
G1 X112.031 Y165.446 E25.6794
G1 X109.836 Y163.705 E25.7528
G1 X108.520 Y161.188 E25.8272
G1 X108.309 Y158.942 E25.8862
G1 X108.586 Y157.837 E25.9161
G1 X106.963 Y158.253 E25.9600
G1 X104.737 Y157.504 E26.0215
G1 X103.169 Y155.078 E26.0971
G1 X103.372 Y153.446 E26.1402
G1 X102.739 Y151.641 E26.1903
G1 X102.972 Y150.253 E26.2272
G1 X102.580 Y149.108 E26.2589
G1 X102.744 Y147.950 E26.2895
G1 X102.567 Y147.114 E26.3119
G1 X102.630 Y146.180 E26.3364
G1 X103.996 Y143.258 E26.4209
G1 X105.175 Y142.246 E26.4616
G1 X105.606 Y142.090 E26.4736
G1 X105.397 Y140.061 E26.5270
G1 X106.283 Y137.189 E26.6057
G1 X108.023 Y135.225 E26.6745
G1 X110.212 Y134.130 E26.7386
G1 X112.689 Y133.907 E26.8037
G1 X114.682 Y134.508 E26.8582
G1 X114.753 Y129.278 E26.9952
G1 X113.796 Y129.735 E27.0230
G1 X111.733 Y129.974 E27.0774
G1 X109.095 Y129.282 E27.1489
G1 X106.794 Y127.413 E27.2265
G1 X105.710 Y125.406 E27.2862
G1 X105.361 Y123.391 E27.3398
G1 X105.925 Y120.672 E27.4125
G1 X107.399 Y118.526 E27.4807
G1 X110.165 Y116.931 E27.5644
G1 X112.994 Y116.714 E27.6387
G1 X114.731 Y117.315 E27.6868
G1 X114.751 Y114.296 E27.7659
G1 X113.924 Y114.706 E27.7901
G1 X111.764 Y114.990 E27.8471
G1 X109.000 Y114.230 E27.9222
G1 X106.902 Y112.458 E27.9941
G1 X105.762 Y110.173 E28.0610
