;Sliced by ideaMaker 5.2.4.8581, 2025-07-21 13:29:11 UTC+0200
;Slicer Version: 5.2.3.8580
;Dimension: 250.000 250.000 250.000 0.400
;Plate Shape: 0
;Origin Center: 0
;Extruder Offset #1: 25.000 0.000
;Filament Diameter #1: 1.750
;Filament Diameter #2: 1.750
;Filament Compensation #1: 94.000
;Filament Compensation #2: 90.000
;Filament Density #1: 1240.000
;Filament Density #2: 1240.000
;Filament Type #1: PLA
;Filament Type #2: PLA
;Filament Name #1: [Raise3D] Premium PLA 1.75mm
;Filament Name #2: [Raise3D] Premium PLA 1.75mm
;Filament #1: PLA 1.75mm
;Filament #2: PLA 1.75mm
;Printer Type: floppy
;Firmware: Klipper
;Bounding Box: 111.041 138.959 111.109 138.959 0.000 129.900
;Model Gap: 0.000
M221 T0 S94.00
M140 S50.00
M104 T0 S190.00
M109 T0 S190.00
T0
M190 S50.00
G21 ;metric values
G90 ;absolute positioning
M82 ;set extruder to absolute mode
M107 ;start with the fan off
G28 X0 Y0 ;move X/Y to min endstops
G28 Z0 ;move Z to min endstops
G1 Z15.0 F9000 ;move the platform down 15mm
G92 E0 ;zero the extruded length
G0 X43 Y27 F2000  ;go to the edge of the bed
G92 X0 Y0 E0 ;set zero to edge of the bed
G0 F9000 Z1 ;Z up with 1mm
G1 F200 Z0 ;Z home slowly
G1 Z15.0 F9000 ;move the platform down 15mm
G1 F9000 ;speed setting
G92 E-3 ;retraction
M117 Printing...
M1001
;TOTAL_NUM: 1
;PRINTING_TIME: 0
;REMAINING_TIME: 7366
;LAYER:0
;Z:0.300
;HEIGHT:0.300
;PRINTING: NON-OBJECT
;PRINTING_ID: -1
G1 F2400 E-5.0000
G0 F3900 X112.130 Y112.234
G0 F300 Z0.300
;TYPE:SKIRT
;WIDTH:0.420
G1 F1500 E0.0000
G1 F900 X114.825 Y111.109 E0.1530
G1 X135.595 Y111.135 E1.2410
G1 X137.721 Y112.316 E1.3684
G1 X138.863 Y114.542 E1.4995
G1 X138.959 Y135.095 E2.5761
G1 X137.870 Y137.766 E2.7273
G1 X135.188 Y138.891 E2.8796
G1 X114.898 Y138.959 E3.9425
G1 X112.234 Y137.870 E4.0933
G1 X111.109 Y135.188 E4.2456
G1 X111.041 Y114.898 E5.3085
G1 X112.130 Y112.234 E5.4593
G0 F3900 X112.429 Y112.529
G1 F900 X114.824 Y111.529 E5.5952
G1 X135.594 Y111.555 E6.6833
G1 X137.351 Y112.515 E6.7881
G1 X138.443 Y114.544 E6.9088
G1 X138.539 Y135.097 E7.9855
G1 X137.571 Y137.471 E8.1198
G1 X135.187 Y138.471 E8.2553
G1 X114.897 Y138.539 E9.3181
G1 X112.529 Y137.571 E9.4522
G1 X111.529 Y135.187 E9.5876
G1 X111.461 Y114.897 E10.6505
G1 X112.429 Y112.529 E10.7845
G0 F3900 X112.728 Y112.824
G1 F900 X114.823 Y111.949 E10.9034
G1 X135.593 Y111.975 E11.9914
G1 X136.986 Y112.723 E12.0743
G1 X138.023 Y114.546 E12.1841
G1 X138.119 Y135.099 E13.2608
G1 X137.272 Y137.176 E13.3783
G1 X135.186 Y138.051 E13.4968
G1 X114.896 Y138.119 E14.5597
G1 X112.824 Y137.272 E14.6770
G1 X111.949 Y135.186 E14.7955
G1 X111.881 Y114.896 E15.8584
G1 X112.728 Y112.824 E15.9756
G0 F3900 X113.027 Y113.119
G1 F900 X114.822 Y112.369 E16.0775
G1 X135.592 Y112.395 E17.1656
G1 X136.627 Y112.941 E17.2269
G1 X137.603 Y114.548 E17.3254
G1 X137.699 Y135.101 E18.4020
G1 X136.973 Y136.881 E18.5027
G1 X135.185 Y137.631 E18.6043
G1 X114.895 Y137.699 E19.6672
G1 X113.119 Y136.973 E19.7677
G1 X112.369 Y135.185 E19.8693
G1 X112.301 Y114.895 E20.9322
G1 X113.027 Y113.119 E21.0327
G0 F3900 X113.326 Y113.414
G1 F900 X114.821 Y112.789 E21.1176
G1 X135.591 Y112.815 E22.2056
G1 X136.276 Y113.172 E22.2460
G1 X137.183 Y114.550 E22.3325
G1 X137.279 Y135.103 E23.4091
G1 X136.674 Y136.586 E23.4930
G1 X135.184 Y137.211 E23.5777
G1 X114.894 Y137.279 E24.6406
G1 X113.414 Y136.674 E24.7243
G1 X112.789 Y135.184 E24.8090
G1 X112.721 Y114.894 E25.8719
G1 X113.326 Y113.414 E25.9556
G0 F3900 X113.141 Y114.893
G1 F900 X113.625 Y113.709 E26.0226
G1 X114.820 Y113.209 E26.0905
G1 X135.590 Y113.235 E27.1785
G1 X135.930 Y113.410 E27.1986
G1 X136.772 Y114.638 E27.2766
G1 X136.859 Y135.105 E28.3487
G1 X136.375 Y136.291 E28.4158
G1 X135.183 Y136.791 E28.4835
G1 X114.893 Y136.859 E29.5464
G1 X113.709 Y136.375 E29.6134
G1 X113.209 Y135.183 E29.6811
G1 X113.141 Y114.893 E30.7440
G0 F3900 X113.561 Y114.892
G1 F900 X113.924 Y114.004 E30.7943
G1 X114.819 Y113.629 E30.8451
G1 X135.589 Y113.655 E31.9332
G1 X136.363 Y114.734 E32.0027
G1 X136.439 Y135.107 E33.0700
G1 X136.076 Y135.996 E33.1203
G1 X135.182 Y136.371 E33.1710
G1 X114.892 Y136.439 E34.2339
G1 X114.004 Y136.076 E34.2842
G1 X113.629 Y135.182 E34.3350
G1 X113.561 Y114.892 E35.3979
G0 F3900 X113.981 Y114.891
G1 F900 X114.223 Y114.299 E35.4314
G1 X114.819 Y114.049 E35.4652
G1 X135.429 Y114.043 E36.5449
G1 X135.943 Y114.736 E36.5901
G1 X136.019 Y135.109 E37.6573
G1 X135.777 Y135.701 E37.6908
G1 X135.181 Y135.951 E37.7247
G1 X114.891 Y136.019 E38.7876
G1 X114.299 Y135.777 E38.8211
G1 X114.049 Y135.181 E38.8549
G1 X113.981 Y114.891 E39.9178
G0 F3900 X114.401 Y114.890
G1 F900 X114.522 Y114.594 E39.9346
G1 X114.820 Y114.469 E39.9515
G1 X135.270 Y114.432 E41.0228
G1 X135.531 Y114.820 E41.0473
G1 X135.599 Y135.110 E42.1102
G1 X135.478 Y135.406 E42.1269
G1 X135.180 Y135.531 E42.1438
G1 X114.890 Y135.599 E43.2067
G1 X114.594 Y135.478 E43.2235
G1 X114.469 Y135.180 E43.2404
G1 X114.401 Y114.890 E44.3033
G0 F3900 X114.821 Y114.889
G1 F900 X135.111 Y114.821 E45.3662
G1 X135.179 Y135.111 E46.4291
G1 X114.889 Y135.179 E47.4920
G1 X114.821 Y114.889 E48.5549
;PRINTING: xyzCalibration_cube.stl
;PRINTING_ID: 0
G1 F2400 E43.5549
G1 F300 Z0.500
G0 F3900 X115.210 Y115.210
;TYPE:WALL-OUTER
;WIDTH:0.420
G1 F300 Z0.300
G1 F1500 E48.5549
G1 F2400 X134.790 Y115.210 E49.5806
G1 X134.790 Y134.790 E50.6063
G1 X115.210 Y134.790 E51.6319
G1 X115.210 Y115.210 E52.6576
G0 F3900 X115.630 Y115.630
;TYPE:WALL-INNER
;WIDTH:0.420
G1 F2400 X134.370 Y115.630 E53.6393
G1 X134.370 Y134.370 E54.6210
G1 X115.630 Y134.370 E55.6027
G1 X115.630 Y115.630 E56.5844
G1 F2400 E51.5844
G1 F300 Z0.500
G0 F3900 X115.730 Y115.640
G0 X115.818 Y133.934
;TYPE:SOLID-FILL
;WIDTH:0.420
G1 F300 Z0.300
G1 F1500 E56.5844
G1 F2400 X116.063 Y134.179 E56.6025
G0 F2400 X116.657 Y134.179
G1 F2400 X115.818 Y133.340 E56.6647
G0 F2400 X115.818 Y132.746
G1 F2400 X117.251 Y134.179 E56.7709
G0 F2400 X117.845 Y134.179
G1 F2400 X115.818 Y132.152 E56.9210
G0 F2400 X115.818 Y131.558
G1 F2400 X118.439 Y134.179 E57.1152
G0 F2400 X119.033 Y134.179
G1 F2400 X115.818 Y130.964 E57.3534
G0 F2400 X115.818 Y130.370
G1 F2400 X119.627 Y134.179 E57.6356
G0 F2400 X120.221 Y134.179
G1 F2400 X115.818 Y129.776 E57.9617
G0 F2400 X115.818 Y129.182
G1 F2400 X120.815 Y134.179 E58.3319
G0 F2400 X121.409 Y134.179
G1 F2400 X115.818 Y128.588 E58.7461
G0 F2400 X115.818 Y127.994
G1 F2400 X122.003 Y134.179 E59.2043
G0 F2400 X122.597 Y134.179
G1 F2400 X115.818 Y127.400 E59.7066
G0 F2400 X115.818 Y126.806
G1 F2400 X123.191 Y134.179 E60.2528
G0 F2400 X123.785 Y134.179
G1 F2400 X115.818 Y126.212 E60.8430
G0 F2400 X115.818 Y125.618
G1 F2400 X124.379 Y134.179 E61.4772
G0 F2400 X124.973 Y134.179
G1 F2400 X115.818 Y125.024 E62.1554
G0 F2400 X115.818 Y124.430
G1 F2400 X125.567 Y134.179 E62.8777
G0 F2400 X126.161 Y134.179
G1 F2400 X115.818 Y123.837 E63.6439
G0 F2400 X115.818 Y123.243
G1 F2400 X126.755 Y134.179 E64.4541
G0 F2400 X127.349 Y134.179
G1 F2400 X115.818 Y122.649 E65.3083
G0 F2400 X115.818 Y122.055
G1 F2400 X127.943 Y134.179 E66.2065
G0 F2400 X128.537 Y134.179
G1 F2400 X115.818 Y121.461 E67.1488
G0 F2400 X115.818 Y120.867
G1 F2400 X129.131 Y134.179 E68.1350
G0 F2400 X129.725 Y134.179
G1 F2400 X115.818 Y120.273 E69.1652
G0 F2400 X115.818 Y119.679
G1 F2400 X130.319 Y134.179 E70.2395
G0 F2400 X130.913 Y134.179
G1 F2400 X115.818 Y119.085 E71.3577
G0 F2400 X115.818 Y118.491
G1 F2400 X131.507 Y134.179 E72.5200
G0 F2400 X132.100 Y134.179
G1 F2400 X115.818 Y117.897 E73.7262
G0 F2400 X115.818 Y117.303
G1 F2400 X132.694 Y134.179 E74.9764
G0 F2400 X133.288 Y134.179
G1 F2400 X115.818 Y116.709 E76.2707
G0 F2400 X115.818 Y116.115
G1 F2400 X133.882 Y134.179 E77.6089
G0 F2400 X134.180 Y133.883
G1 F2400 X116.116 Y115.819 E78.9471
G0 F2400 X116.710 Y115.819
G1 F2400 X134.180 Y133.289 E80.2414
G0 F2400 X134.180 Y132.695
G1 F2400 X117.304 Y115.819 E81.4916
G0 F2400 X117.898 Y115.819
G1 F2400 X134.180 Y132.101 E82.6978
G0 F2400 X134.180 Y131.507
G1 F2400 X118.492 Y115.819 E83.8600
G0 F2400 X119.085 Y115.819
G1 F2400 X134.180 Y130.913 E84.9783
G0 F2400 X134.180 Y130.319
G1 F2400 X119.679 Y115.819 E86.0525
G0 F2400 X120.273 Y115.819
G1 F2400 X134.180 Y129.725 E87.0828
G0 F2400 X134.180 Y129.131
G1 F2400 X120.867 Y115.819 E88.0690
G0 F2400 X121.461 Y115.819
G1 F2400 X134.180 Y128.537 E89.0112
G0 F2400 X134.180 Y127.943
G1 F2400 X122.055 Y115.819 E89.9095
G0 F2400 X122.649 Y115.819
G1 F2400 X134.180 Y127.349 E90.7637
G0 F2400 X134.180 Y126.755
G1 F2400 X123.243 Y115.819 E91.5739
G0 F2400 X123.837 Y115.819
G1 F2400 X134.180 Y126.161 E92.3401
G0 F2400 X134.180 Y125.568
G1 F2400 X124.431 Y115.819 E93.0623
G0 F2400 X125.025 Y115.819
G1 F2400 X134.180 Y124.974 E93.7406
G0 F2400 X134.180 Y124.380
G1 F2400 X125.619 Y115.819 E94.3748
G0 F2400 X126.213 Y115.819
G1 F2400 X134.180 Y123.786 E94.9650
G0 F2400 X134.180 Y123.192
G1 F2400 X126.807 Y115.819 E95.5112
G0 F2400 X127.401 Y115.819
G1 F2400 X134.180 Y122.598 E96.0134
G0 F2400 X134.180 Y122.004
G1 F2400 X127.995 Y115.819 E96.4716
G0 F2400 X128.589 Y115.819
G1 F2400 X134.180 Y121.410 E96.8858
G0 F2400 X134.180 Y120.816
G1 F2400 X129.183 Y115.819 E97.2560
G0 F2400 X129.777 Y115.819
G1 F2400 X134.180 Y120.222 E97.5822
G0 F2400 X134.180 Y119.628
G1 F2400 X130.371 Y115.819 E97.8644
G0 F2400 X130.965 Y115.819
G1 F2400 X134.180 Y119.034 E98.1026
G0 F2400 X134.180 Y118.440
G1 F2400 X131.559 Y115.819 E98.2967
G0 F2400 X132.153 Y115.819
G1 F2400 X134.180 Y117.846 E98.4469
G0 F2400 X134.180 Y117.252
G1 F2400 X132.747 Y115.819 E98.5531
G0 F2400 X133.341 Y115.819
G1 F2400 X134.180 Y116.658 E98.6152
G0 F2400 X134.180 Y116.064
G1 F2400 X133.935 Y115.819 E98.6334
;PRINTING_TIME: 95
;REMAINING_TIME: 7271
;LAYER:1
;Z:0.600
;HEIGHT:0.300
M106 S64
;PRINTING: xyzCalibration_cube.stl
;PRINTING_ID: 0
G1 F2400 E93.6334
G1 F300 Z0.800
G0 F3900 X115.730 Y115.640
G0 F300 Z0.600
G0 F3900 X115.210 Y115.210
;TYPE:WALL-OUTER
;WIDTH:0.420
G1 F300 Z0.600
G1 F1500 E98.6334
G1 F2100 X134.790 Y115.210 E99.6591
G1 X134.790 Y134.790 E100.6848
G1 X115.210 Y134.790 E101.7105
G1 X115.210 Y115.210 E102.7361
G0 F3900 X115.630 Y115.630
;TYPE:WALL-INNER
;WIDTH:0.420
;FLOW:90.0
G1 F2400 X134.370 Y115.630 E103.6197
G1 X134.370 Y134.370 E104.5032
G1 X115.630 Y134.370 E105.3867
G1 X115.630 Y115.630 E106.2702
G0 F3900 X116.126 Y115.818
;TYPE:SOLID-FILL
;WIDTH:0.420
;FLOW:95.0
G1 F2700 X115.819 Y116.126 E106.2919
G0 F2700 X115.819 Y116.719
G1 F2700 X116.720 Y115.818 E106.3553
G0 F2700 X117.314 Y115.818
G1 F2700 X115.819 Y117.313 E106.4605
G0 F2700 X115.819 Y117.907
G1 F2700 X117.908 Y115.818 E106.6075
G0 F2700 X118.502 Y115.818
G1 F2700 X115.819 Y118.501 E106.7963
G0 F2700 X115.819 Y119.095
G1 F2700 X119.096 Y115.818 E107.0270
G0 F2700 X119.690 Y115.818
G1 F2700 X115.819 Y119.689 E107.2994
G0 F2700 X115.819 Y120.283
G1 F2700 X120.284 Y115.818 E107.6137
G0 F2700 X120.878 Y115.818
G1 F2700 X115.819 Y120.877 E107.9697
G0 F2700 X115.819 Y121.471
G1 F2700 X121.472 Y115.818 E108.3676
G0 F2700 X122.066 Y115.818
G1 F2700 X115.819 Y122.065 E108.8072
G0 F2700 X115.819 Y122.659
G1 F2700 X122.660 Y115.818 E109.2887
G0 F2700 X123.254 Y115.818
G1 F2700 X115.819 Y123.253 E109.8119
G0 F2700 X115.819 Y123.847
G1 F2700 X123.848 Y115.818 E110.3770
G0 F2700 X124.442 Y115.818
G1 F2700 X115.819 Y124.441 E110.9839
G0 F2700 X115.819 Y125.035
G1 F2700 X125.036 Y115.818 E111.6326
G0 F2700 X125.630 Y115.818
G1 F2700 X115.819 Y125.629 E112.3231
G0 F2700 X115.819 Y126.223
G1 F2700 X126.224 Y115.818 E113.0554
G0 F2700 X126.818 Y115.818
G1 F2700 X115.819 Y126.817 E113.8295
G0 F2700 X115.819 Y127.411
G1 F2700 X127.412 Y115.818 E114.6454
G0 F2700 X128.006 Y115.818
G1 F2700 X115.819 Y128.005 E115.5031
G0 F2700 X115.819 Y128.599
G1 F2700 X128.600 Y115.818 E116.4026
G0 F2700 X129.194 Y115.818
G1 F2700 X115.819 Y129.193 E117.3439
G0 F2700 X115.819 Y129.787
G1 F2700 X129.788 Y115.818 E118.3270
G0 F2700 X130.382 Y115.818
G1 F2700 X115.819 Y130.381 E119.3520
G0 F2700 X115.819 Y130.975
G1 F2700 X130.975 Y115.818 E120.4187
G0 F2700 X131.569 Y115.818
G1 F2700 X115.819 Y131.569 E121.5272
G0 F2700 X115.819 Y132.163
G1 F2700 X132.163 Y115.818 E122.6775
G0 F2700 X132.757 Y115.818
G1 F2700 X115.819 Y132.757 E123.8696
G0 F2700 X115.819 Y133.351
G1 F2700 X133.351 Y115.818 E125.1035
G0 F2700 X133.945 Y115.818
G1 F2700 X115.819 Y133.945 E126.3792
G0 F2700 X116.177 Y134.180
G1 F2700 X134.179 Y116.178 E127.6462
G0 F2700 X134.179 Y116.772
G1 F2700 X116.771 Y134.180 E128.8714
G0 F2700 X117.365 Y134.180
G1 F2700 X134.179 Y117.366 E130.0547
G0 F2700 X134.179 Y117.960
G1 F2700 X117.959 Y134.180 E131.1963
G0 F2700 X118.553 Y134.180
G1 F2700 X134.179 Y118.554 E132.2960
G0 F2700 X134.179 Y119.148
G1 F2700 X119.147 Y134.180 E133.3539
G0 F2700 X119.741 Y134.180
G1 F2700 X134.179 Y119.742 E134.3701
G0 F2700 X134.179 Y120.336
G1 F2700 X120.335 Y134.180 E135.3444
G0 F2700 X120.929 Y134.180
G1 F2700 X134.179 Y120.930 E136.2769
G0 F2700 X134.179 Y121.524
G1 F2700 X121.523 Y134.180 E137.1676
G0 F2700 X122.117 Y134.180
G1 F2700 X134.179 Y122.118 E138.0165
G0 F2700 X134.179 Y122.712
G1 F2700 X122.711 Y134.180 E138.8237
G0 F2700 X123.305 Y134.180
G1 F2700 X134.179 Y123.305 E139.5890
G0 F2700 X134.179 Y123.899
G1 F2700 X123.899 Y134.180 E140.3125
G0 F2700 X124.493 Y134.180
G1 F2700 X134.179 Y124.493 E140.9942
G0 F2700 X134.179 Y125.087
G1 F2700 X125.087 Y134.180 E141.6342
G0 F2700 X125.681 Y134.180
G1 F2700 X134.179 Y125.681 E142.2323
G0 F2700 X134.179 Y126.275
G1 F2700 X126.275 Y134.180 E142.7886
G0 F2700 X126.869 Y134.180
G1 F2700 X134.179 Y126.869 E143.3031
G0 F2700 X134.179 Y127.463
G1 F2700 X127.463 Y134.180 E143.7758
G0 F2700 X128.057 Y134.180
G1 F2700 X134.179 Y128.057 E144.2067
G0 F2700 X134.179 Y128.651
G1 F2700 X128.651 Y134.180 E144.5958
G0 F2700 X129.244 Y134.180
G1 F2700 X134.179 Y129.245 E144.9431
G0 F2700 X134.179 Y129.839
G1 F2700 X129.838 Y134.180 E145.2486
G0 F2700 X130.432 Y134.180
G1 F2700 X134.179 Y130.433 E145.5123
G0 F2700 X134.179 Y131.027
G1 F2700 X131.026 Y134.180 E145.7342
G0 F2700 X131.620 Y134.180
G1 F2700 X134.179 Y131.621 E145.9143
G0 F2700 X134.179 Y132.215
G1 F2700 X132.214 Y134.180 E146.0526
G0 F2700 X132.808 Y134.180
G1 F2700 X134.179 Y132.809 E146.1491
G0 F2700 X134.179 Y133.403
G1 F2700 X133.402 Y134.180 E146.2038
G0 F2700 X133.996 Y134.180
G1 F2700 X134.179 Y133.997 E146.2167
;PRINTING_TIME: 123
;REMAINING_TIME: 7243
;LAYER:2
;Z:0.900
;HEIGHT:0.300
;FLOW:100.0
;PRINTING: xyzCalibration_cube.stl
;PRINTING_ID: 0
G1 F2400 E141.2167
G1 F300 Z1.100
G0 F3900 X115.730 Y115.640
G0 F300 Z0.900
G0 F3900 X115.210 Y115.210
;TYPE:WALL-OUTER
;WIDTH:0.420
G1 F300 Z0.900
G1 F1500 E146.2167
G1 F2100 X134.790 Y115.210 E147.2424
G1 X134.790 Y134.790 E148.2681
G1 X115.210 Y134.790 E149.2938
G1 X115.210 Y115.210 E150.3195
G0 F3900 X115.630 Y115.630
;TYPE:WALL-INNER
;WIDTH:0.420
;FLOW:90.0
G1 F2400 X134.370 Y115.630 E151.2030
G1 X134.370 Y134.370 E152.0865
G1 X115.630 Y134.370 E152.9700
G1 X115.630 Y115.630 E153.8535
G1 F2400 E148.8535
G1 F300 Z1.100
G0 F3900 X115.730 Y115.640
G0 X115.818 Y133.934
;TYPE:SOLID-FILL
;WIDTH:0.420
;FLOW:95.0
G1 F300 Z0.900
G1 F1500 E153.8535
G1 F3000 X116.063 Y134.179 E153.8708
G0 F3000 X116.657 Y134.179
G1 F3000 X115.818 Y133.340 E153.9298
G0 F3000 X115.818 Y132.746
G1 F3000 X117.251 Y134.179 E154.0307
G0 F3000 X117.845 Y134.179
G1 F3000 X115.818 Y132.152 E154.1733
G0 F3000 X115.818 Y131.558
G1 F3000 X118.439 Y134.179 E154.3578
G0 F3000 X119.033 Y134.179
G1 F3000 X115.818 Y130.964 E154.5841
G0 F3000 X115.818 Y130.370
G1 F3000 X119.627 Y134.179 E154.8521
G0 F3000 X120.221 Y134.179
G1 F3000 X115.818 Y129.776 E155.1620
G0 F3000 X115.818 Y129.182
G1 F3000 X120.815 Y134.179 E155.5137
G0 F3000 X121.409 Y134.179
G1 F3000 X115.818 Y128.588 E155.9072
G0 F3000 X115.818 Y127.994
G1 F3000 X122.003 Y134.179 E156.3425
G0 F3000 X122.597 Y134.179
G1 F3000 X115.818 Y127.400 E156.8196
G0 F3000 X115.818 Y126.806
G1 F3000 X123.191 Y134.179 E157.3385
G0 F3000 X123.785 Y134.179
G1 F3000 X115.818 Y126.212 E157.8992
G0 F3000 X115.818 Y125.618
G1 F3000 X124.379 Y134.179 E158.5017
G0 F3000 X124.973 Y134.179
G1 F3000 X115.818 Y125.024 E159.1460
G0 F3000 X115.818 Y124.430
