;Sliced by ideaMaker 5.2.4.8581, 2025-07-21 11:02:04 UTC+0200
;Slicer Version: 5.2.3.8580
;Dimension: 250.000 250.000 250.000 0.400
;Plate Shape: 0
;Origin Center: 0
;Extruder Offset #1: 25.000 0.000
;Filament Diameter #1: 1.750
;Filament Diameter #2: 1.750
;Filament Compensation #1: 94.000
;Filament Compensation #2: 90.000
;Filament Density #1: 1240.000
;Filament Density #2: 1240.000
;Filament Type #1: PLA
;Filament Type #2: PLA
;Filament Name #1: [Raise3D] Premium PLA 1.75mm
;Filament Name #2: [Raise3D] Premium PLA 1.75mm
;Filament #1: PLA 1.75mm
;Filament #2: PLA 1.75mm
;Printer Type: floppy
;Firmware: Klipper
;Bounding Box: 114.933 135.066 114.933 135.066 0.000 129.900
;Model Gap: 0.000
M221 T0 S94.00
M140 S50.00
M104 T0 S190.00
M109 T0 S190.00
T0
M190 S50.00
G21 ;metric values
G90 ;absolute positioning
M82 ;set extruder to absolute mode
M107 ;start with the fan off
G28 X0 Y0 ;move X/Y to min endstops
G28 Z0 ;move Z to min endstops
G1 Z15.0 F9000 ;move the platform down 15mm
G92 E0 ;zero the extruded length
G0 X43 Y27 F2000  ;go to the edge of the bed
G92 X0 Y0 E0 ;set zero to edge of the bed
G0 F9000 Z1 ;Z up with 1mm
G1 F200 Z0 ;Z home slowly
G1 Z15.0 F9000 ;move the platform down 15mm
G1 F9000 ;speed setting
G92 E-3 ;retraction
M117 Printing...
M1001
;TOTAL_NUM: 1
;PRINTING_TIME: 0
;REMAINING_TIME: 8396
;LAYER:0
;Z:0.300
;HEIGHT:0.300
;PRINTING: NON-OBJECT
;PRINTING_ID: -1
G1 F2400 E-5.0000
G0 F3900 X115.561 Y115.532
G0 F300 Z0.300
G0 F3900 X116.142 Y115.129
;TYPE:SKIRT
;WIDTH:0.420
G1 F1500 E0.0000
G1 F900 X116.909 Y114.933 E0.0415
G1 X133.031 Y114.950 E0.8860
G1 X134.467 Y115.561 E0.9678
G1 X134.870 Y116.142 E1.0048
G1 X135.066 Y116.909 E1.0463
G1 X135.050 Y133.031 E1.8908
G1 X134.441 Y134.465 E1.9724
G1 X133.857 Y134.870 E2.0097
G1 X133.091 Y135.066 E2.0511
G1 X116.968 Y135.050 E2.8957
G1 X115.534 Y134.441 E2.9773
G1 X115.129 Y133.857 E3.0145
G1 X114.933 Y133.091 E3.0559
G1 X114.950 Y116.968 E3.9005
G1 X115.561 Y115.532 E3.9823
G1 X116.142 Y115.129 E4.0193
G0 F3900 X116.909 Y115.353
G1 F900 X133.031 Y115.370 E4.8639
G1 X134.132 Y115.815 E4.9261
G1 X134.465 Y116.254 E4.9550
G1 X134.646 Y116.909 E4.9906
G1 X134.630 Y133.031 E5.8351
G1 X134.187 Y134.130 E5.8972
G1 X133.745 Y134.465 E5.9262
G1 X133.091 Y134.646 E5.9618
G1 X116.968 Y134.630 E6.8064
G1 X115.869 Y134.187 E6.8684
G1 X115.534 Y133.745 E6.8975
G1 X115.353 Y133.091 E6.9330
G1 X115.370 Y116.968 E7.7776
G1 X115.815 Y115.867 E7.8399
G1 X116.254 Y115.534 E7.8687
G1 X116.909 Y115.353 E7.9043
G0 F3900 X116.997 Y115.764
G1 F900 X133.030 Y115.790 E8.7442
G1 X133.797 Y116.069 E8.7870
G1 X134.130 Y116.508 E8.8158
G1 X134.235 Y116.997 E8.8420
G1 X134.210 Y133.030 E9.6819
G1 X133.933 Y133.795 E9.7245
G1 X133.491 Y134.130 E9.7536
G1 X133.003 Y134.235 E9.7797
G1 X116.969 Y134.210 E10.6197
G1 X116.204 Y133.933 E10.6623
G1 X115.869 Y133.491 E10.6913
G1 X115.764 Y133.003 E10.7175
G1 X115.790 Y116.969 E11.5574
G1 X116.069 Y116.202 E11.6002
G1 X116.508 Y115.869 E11.6290
G1 X116.997 Y115.764 E11.6552
;PRINTING: Pz_xyz_calibration_cube_v1.stl
;PRINTING_ID: 0
G1 F2400 E6.6552
G0 F3900 X117.210 Y117.184
;TYPE:WALL-OUTER
;WIDTH:0.420
G1 F1500 E11.6552
G1 F2400 X132.815 Y117.210 E12.4727
G1 X132.790 Y132.815 E13.2902
G1 X117.184 Y132.790 E14.1077
G1 X117.210 Y117.184 E14.9252
G0 F3900 X117.629 Y117.605
;TYPE:WALL-INNER
;WIDTH:0.420
G1 F2400 X132.394 Y117.629 E15.6987
G1 X132.371 Y132.394 E16.4721
G1 X117.605 Y132.371 E17.2456
G1 X117.629 Y117.605 E18.0192
G1 F2400 E13.0192
G0 F3900 X117.639 Y117.705
G0 X131.775 Y117.817
;TYPE:SOLID-FILL
;WIDTH:0.420
G1 F1500 E18.0192
G1 F2400 X132.204 Y118.245 E18.0509
G0 F2400 X132.202 Y118.838
G1 F2400 X131.180 Y117.816 E18.1266
G0 F2400 X130.585 Y117.815
G1 F2400 X132.202 Y119.431 E18.2464
G0 F2400 X132.201 Y120.025
G1 F2400 X129.990 Y117.813 E18.4102
G0 F2400 X129.395 Y117.813
G1 F2400 X132.199 Y120.617 E18.6179
G0 F2400 X132.199 Y121.210
G1 F2400 X128.800 Y117.812 E18.8697
G0 F2400 X128.205 Y117.811
G1 F2400 X132.198 Y121.804 E19.1655
G0 F2400 X132.197 Y122.396
G1 F2400 X127.610 Y117.810 E19.5053
G0 F2400 X127.016 Y117.809
G1 F2400 X132.196 Y122.989 E19.8891
G0 F2400 X132.195 Y123.583
G1 F2400 X126.420 Y117.808 E20.3169
G0 F2400 X125.826 Y117.807
G1 F2400 X132.194 Y124.175 E20.7886
G0 F2400 X132.193 Y124.768
G1 F2400 X125.231 Y117.806 E21.3044
G0 F2400 X124.636 Y117.805
G1 F2400 X132.192 Y125.362 E21.8642
G0 F2400 X132.191 Y125.954
G1 F2400 X124.041 Y117.804 E22.4680
G0 F2400 X123.445 Y117.803
G1 F2400 X132.190 Y126.548 E23.1159
G0 F2400 X132.190 Y127.141
G1 F2400 X122.851 Y117.802 E23.8077
G0 F2400 X122.256 Y117.801
G1 F2400 X132.188 Y127.733 E24.5435
G0 F2400 X132.187 Y128.327
G1 F2400 X121.661 Y117.800 E25.3234
G0 F2400 X121.066 Y117.799
G1 F2400 X132.187 Y128.920 E26.1472
G0 F2400 X132.185 Y129.512
G1 F2400 X120.471 Y117.799 E27.0150
G0 F2400 X119.876 Y117.797
G1 F2400 X132.185 Y130.106 E27.9269
G0 F2400 X132.184 Y130.699
G1 F2400 X119.281 Y117.796 E28.8828
G0 F2400 X118.686 Y117.795
G1 F2400 X132.183 Y131.292 E29.8827
G0 F2400 X132.182 Y131.885
G1 F2400 X118.091 Y117.794 E30.9266
G0 F2400 X117.816 Y118.112
G1 F2400 X131.906 Y132.203 E31.9705
G0 F2400 X131.311 Y132.202
G1 F2400 X117.814 Y118.705 E32.9704
G0 F2400 X117.813 Y119.298
G1 F2400 X130.716 Y132.201 E33.9263
G0 F2400 X130.121 Y132.200
G1 F2400 X117.813 Y119.892 E34.8381
G0 F2400 X117.812 Y120.485
G1 F2400 X129.526 Y132.199 E35.7059
G0 F2400 X128.931 Y132.198
G1 F2400 X117.811 Y121.077 E36.5297
G0 F2400 X117.810 Y121.671
G1 F2400 X128.337 Y132.197 E37.3096
G0 F2400 X127.741 Y132.196
G1 F2400 X117.809 Y122.264 E38.0454
G0 F2400 X117.808 Y122.856
G1 F2400 X127.146 Y132.195 E38.7372
G0 F2400 X126.552 Y132.195
G1 F2400 X117.807 Y123.450 E39.3850
G0 F2400 X117.806 Y124.043
G1 F2400 X125.956 Y132.193 E39.9888
G0 F2400 X125.362 Y132.192
G1 F2400 X117.805 Y124.636 E40.5486
G0 F2400 X117.804 Y125.229
G1 F2400 X124.766 Y132.191 E41.0644
G0 F2400 X124.172 Y132.190
G1 F2400 X117.803 Y125.822 E41.5362
G0 F2400 X117.802 Y126.415
G1 F2400 X123.577 Y132.190 E41.9640
G0 F2400 X122.982 Y132.188
G1 F2400 X117.801 Y127.008 E42.3478
G0 F2400 X117.801 Y127.601
G1 F2400 X122.387 Y132.187 E42.6876
G0 F2400 X121.792 Y132.187
G1 F2400 X117.799 Y128.194 E42.9834
G0 F2400 X117.799 Y128.787
G1 F2400 X121.197 Y132.185 E43.2351
G0 F2400 X120.602 Y132.185
G1 F2400 X117.798 Y129.380 E43.4429
G0 F2400 X117.796 Y129.973
G1 F2400 X120.008 Y132.184 E43.6067
G0 F2400 X119.412 Y132.183
G1 F2400 X117.796 Y130.566 E43.7265
G0 F2400 X117.795 Y131.159
G1 F2400 X118.817 Y132.182 E43.8022
G0 F2400 X118.222 Y132.180
G1 F2400 X117.794 Y131.752 E43.8339
;PRINTING_TIME: 38
;REMAINING_TIME: 8358
;LAYER:1
;Z:0.570
;HEIGHT:0.270
M106 S64
;PRINTING: Pz_xyz_calibration_cube_v1.stl
;PRINTING_ID: 0
G1 F2400 E38.8339
G0 F300 Z0.570
G0 F3900 X117.794 Y131.752
G0 X117.726 Y117.576
G0 X117.209 Y117.144
;TYPE:WALL-OUTER
;WIDTH:0.420
G1 F1500 E43.8339
G1 F2094 X132.855 Y117.209 E44.5716
G1 X132.791 Y132.855 E45.3092
G1 X117.144 Y132.791 E46.0469
G1 X117.209 Y117.144 E46.7846
G0 F3900 X117.627 Y117.566
;TYPE:WALL-INNER
;WIDTH:0.420
;FLOW:90.0
G1 F2393 X132.433 Y117.627 E47.4129
G1 X132.373 Y132.433 E48.0411
G1 X117.566 Y132.373 E48.6694
G1 X117.627 Y117.566 E49.2977
G0 F3900 X118.344 Y117.758
;TYPE:SOLID-FILL
;WIDTH:0.420
;FLOW:95.0
G1 F2692 X117.811 Y118.291 E49.3315
G0 F2692 X117.809 Y118.887
G1 F2692 X118.936 Y117.760 E49.4029
G0 F2692 X119.528 Y117.762
G1 F2692 X117.807 Y119.483 E49.5119
G0 F2692 X117.804 Y120.080
G1 F2692 X120.119 Y117.765 E49.6585
G0 F2692 X120.711 Y117.767
G1 F2692 X117.802 Y120.676 E49.8428
G0 F2692 X117.800 Y121.272
G1 F2692 X121.302 Y117.770 E50.0646
G0 F2692 X121.894 Y117.772
G1 F2692 X117.797 Y121.869 E50.3241
G0 F2692 X117.795 Y122.465
G1 F2692 X122.486 Y117.774 E50.6212
G0 F2692 X123.077 Y117.777
G1 F2692 X117.792 Y123.062 E50.9560
G0 F2692 X117.790 Y123.658
G1 F2692 X123.669 Y117.779 E51.3284
G0 F2692 X124.260 Y117.782
G1 F2692 X117.788 Y124.254 E51.7383
G0 F2692 X117.785 Y124.851
G1 F2692 X124.852 Y117.784 E52.1859
G0 F2692 X125.444 Y117.786
G1 F2692 X117.783 Y125.447 E52.6712
G0 F2692 X117.780 Y126.043
G1 F2692 X126.035 Y117.789 E53.1940
G0 F2692 X126.627 Y117.791
G1 F2692 X117.778 Y126.639 E53.7545
G0 F2692 X117.776 Y127.236
G1 F2692 X127.218 Y117.794 E54.3526
G0 F2692 X127.810 Y117.796
G1 F2692 X117.773 Y127.832 E54.9883
G0 F2692 X117.771 Y128.428
G1 F2692 X128.402 Y117.798 E55.6617
G0 F2692 X128.993 Y117.801
G1 F2692 X117.768 Y129.025 E56.3726
G0 F2692 X117.766 Y129.621
G1 F2692 X129.585 Y117.803 E57.1212
G0 F2692 X130.176 Y117.806
G1 F2692 X117.764 Y130.217 E57.9074
G0 F2692 X117.761 Y130.814
G1 F2692 X130.768 Y117.808 E58.7312
G0 F2692 X131.359 Y117.810
G1 F2692 X117.759 Y131.410 E59.5927
G0 F2692 X117.757 Y132.006
G1 F2692 X131.951 Y117.813 E60.4917
G0 F2692 X132.240 Y118.117
G1 F2692 X118.172 Y132.185 E61.3828
G0 F2692 X118.764 Y132.187
G1 F2692 X132.238 Y118.714 E62.2362
G0 F2692 X132.236 Y119.310
G1 F2692 X119.355 Y132.190 E63.0521
G0 F2692 X119.947 Y132.192
G1 F2692 X132.233 Y119.906 E63.8303
G0 F2692 X132.231 Y120.503
G1 F2692 X120.538 Y132.195 E64.5709
G0 F2692 X121.130 Y132.197
G1 F2692 X132.228 Y121.099 E65.2739
G0 F2692 X132.226 Y121.695
G1 F2692 X121.722 Y132.199 E65.9392
G0 F2692 X122.313 Y132.202
G1 F2692 X132.224 Y122.291 E66.5670
G0 F2692 X132.221 Y122.888
G1 F2692 X122.905 Y132.204 E67.1571
G0 F2692 X123.496 Y132.207
G1 F2692 X132.219 Y123.484 E67.7096
G0 F2692 X132.216 Y124.080
G1 F2692 X124.088 Y132.209 E68.2245
G0 F2692 X124.679 Y132.211
G1 F2692 X132.214 Y124.677 E68.7017
G0 F2692 X132.211 Y125.273
G1 F2692 X125.271 Y132.214 E69.1413
G0 F2692 X125.862 Y132.216
G1 F2692 X132.209 Y125.869 E69.5433
G0 F2692 X132.207 Y126.466
G1 F2692 X126.454 Y132.219 E69.9077
G0 F2692 X127.045 Y132.221
G1 F2692 X132.204 Y127.062 E70.2345
G0 F2692 X132.202 Y127.658
G1 F2692 X127.637 Y132.224 E70.5237
G0 F2692 X128.228 Y132.226
G1 F2692 X132.199 Y128.255 E70.7752
G0 F2692 X132.197 Y128.851
G1 F2692 X128.820 Y132.228 E70.9891
G0 F2692 X129.411 Y132.231
G1 F2692 X132.195 Y129.448 E71.1654
G0 F2692 X132.192 Y130.044
G1 F2692 X130.003 Y132.233 E71.3041
G0 F2692 X130.595 Y132.236
G1 F2692 X132.190 Y130.640 E71.4052
G0 F2692 X132.187 Y131.237
G1 F2692 X131.186 Y132.238 E71.4686
G0 F2692 X131.778 Y132.240
G1 F2692 X132.185 Y131.833 E71.4943
;PRINTING_TIME: 57
;REMAINING_TIME: 8338
;LAYER:2
;Z:0.840
;HEIGHT:0.270
;FLOW:100.0
M106 S71
;PRINTING: Pz_xyz_calibration_cube_v1.stl
;PRINTING_ID: 0
G1 F2400 E66.4943
G0 F300 Z0.840
G0 F3900 X132.185 Y131.833
G0 X117.621 Y117.531
G0 X117.101 Y117.101
;TYPE:WALL-OUTER
;WIDTH:0.420
G1 F1500 E71.4943
G1 F2010 X132.898 Y117.101 E72.2391
G1 X132.898 Y132.898 E72.9839
G1 X117.101 Y132.898 E73.7286
G1 X117.101 Y117.101 E74.4734
G0 F3900 X117.521 Y117.521
;TYPE:WALL-INNER
;WIDTH:0.420
;FLOW:90.0
G1 F2297 X132.478 Y117.521 E75.1081
G1 X132.478 Y132.478 E75.7427
G1 X117.521 Y132.478 E76.3774
G1 X117.521 Y117.521 E77.0120
G1 F2400 E72.0120
G0 F3900 X117.621 Y117.531
G0 X117.709 Y131.668
;TYPE:SOLID-FILL
;WIDTH:0.420
;FLOW:95.0
G1 F1500 E77.0120
G1 F2871 X118.329 Y132.287 E77.0513
G0 F2871 X118.923 Y132.287
G1 F2871 X117.709 Y131.074 E77.1281
G0 F2871 X117.709 Y130.480
G1 F2871 X119.517 Y132.287 E77.2426
G0 F2871 X120.111 Y132.287
G1 F2871 X117.709 Y129.886 E77.3947
G0 F2871 X117.709 Y129.292
G1 F2871 X120.705 Y132.287 E77.5845
G0 F2871 X121.299 Y132.287
G1 F2871 X117.709 Y128.698 E77.8118
G0 F2871 X117.709 Y128.104
G1 F2871 X121.893 Y132.287 E78.0768
G0 F2871 X122.487 Y132.287
G1 F2871 X117.709 Y127.510 E78.3794
G0 F2871 X117.709 Y126.916
G1 F2871 X123.081 Y132.287 E78.7197
G0 F2871 X123.675 Y132.287
G1 F2871 X117.709 Y126.322 E79.0975
G0 F2871 X117.709 Y125.728
G1 F2871 X124.269 Y132.287 E79.5130
G0 F2871 X124.863 Y132.287
G1 F2871 X117.709 Y125.134 E79.9661
G0 F2871 X117.709 Y124.540
G1 F2871 X125.457 Y132.287 E80.4569
G0 F2871 X126.050 Y132.287
G1 F2871 X117.709 Y123.946 E80.9852
G0 F2871 X117.709 Y123.352
G1 F2871 X126.644 Y132.287 E81.5511
G0 F2871 X127.238 Y132.287
G1 F2871 X117.709 Y122.758 E82.1547
G0 F2871 X117.709 Y122.164
G1 F2871 X127.832 Y132.287 E82.7959
G0 F2871 X128.426 Y132.287
G1 F2871 X117.709 Y121.570 E83.4747
G0 F2871 X117.709 Y120.976
G1 F2871 X129.020 Y132.287 E84.1912
G0 F2871 X129.614 Y132.287
G1 F2871 X117.709 Y120.382 E84.9453
G0 F2871 X117.709 Y119.788
G1 F2871 X130.208 Y132.287 E85.7370
G0 F2871 X130.802 Y132.287
G1 F2871 X117.709 Y119.194 E86.5663
G0 F2871 X117.709 Y118.600
G1 F2871 X131.396 Y132.287 E87.4332
G0 F2871 X131.990 Y132.287
G1 F2871 X117.709 Y118.006 E88.3378
G0 F2871 X118.006 Y117.709
G1 F2871 X132.288 Y131.991 E89.2425
G0 F2871 X132.288 Y131.397
G1 F2871 X118.600 Y117.709 E90.1095
G0 F2871 X119.194 Y117.709
G1 F2871 X132.288 Y130.803 E90.9389
G0 F2871 X132.288 Y130.209
G1 F2871 X119.788 Y117.709 E91.7306
G0 F2871 X120.382 Y117.709
G1 F2871 X132.288 Y129.615 E92.4848
G0 F2871 X132.288 Y129.021
G1 F2871 X120.976 Y117.709 E93.2013
G0 F2871 X121.570 Y117.709
G1 F2871 X132.288 Y128.427 E93.8802
G0 F2871 X132.288 Y127.833
G1 F2871 X122.164 Y117.709 E94.5214
G0 F2871 X122.758 Y117.709
G1 F2871 X132.288 Y127.239 E95.1251
G0 F2871 X132.288 Y126.645
G1 F2871 X123.352 Y117.709 E95.6911
G0 F2871 X123.946 Y117.709
G1 F2871 X132.288 Y126.051 E96.2195
G0 F2871 X132.288 Y125.457
G1 F2871 X124.540 Y117.709 E96.7102
G0 F2871 X125.134 Y117.709
G1 F2871 X132.288 Y124.863 E97.1634
G0 F2871 X132.288 Y124.269
G1 F2871 X125.728 Y117.709 E97.5789
G0 F2871 X126.322 Y117.709
G1 F2871 X132.288 Y123.675 E97.9568
G0 F2871 X132.288 Y123.081
G1 F2871 X126.916 Y117.709 E98.2971
G0 F2871 X127.510 Y117.709
G1 F2871 X132.288 Y122.487 E98.5997
G0 F2871 X132.288 Y121.893
G1 F2871 X128.104 Y117.709 E98.8647
G0 F2871 X128.698 Y117.709
G1 F2871 X132.288 Y121.299 E99.0921
G0 F2871 X132.288 Y120.705
G1 F2871 X129.292 Y117.709 E99.2819
G0 F2871 X129.886 Y117.709
G1 F2871 X132.288 Y120.111 E99.4340
G0 F2871 X132.288 Y119.518
G1 F2871 X130.480 Y117.709 E99.5486
G0 F2871 X131.074 Y117.709
G1 F2871 X132.288 Y118.924 E99.6255
G0 F2871 X132.288 Y118.330
G1 F2871 X131.668 Y117.709 E99.6648
;PRINTING_TIME: 77
;REMAINING_TIME: 8319
;LAYER:3
;Z:1.110
;HEIGHT:0.270
;FLOW:100.0
M106 S153
;PRINTING: Pz_xyz_calibration_cube_v1.stl
;PRINTING_ID: 0
G1 F2400 E94.6648
G0 F300 Z1.110
G0 F3900 X131.668 Y117.709
G0 X117.491 Y117.606
G0 X117.060 Y117.086
;TYPE:WALL-OUTER
;WIDTH:0.420
G1 F1500 E99.6648
G1 F1845 X132.940 Y117.086 E100.4135
G1 X132.940 Y132.914 E101.1597
G1 X117.086 Y132.940 E101.9072
G1 X117.060 Y117.086 E102.6547
G0 F3900 X117.481 Y117.506
;TYPE:WALL-INNER
;WIDTH:0.420
;FLOW:90.0
G1 F2109 X132.520 Y117.506 E103.2928
G1 X132.520 Y132.495 E103.9288
G1 X117.505 Y132.519 E104.5659
G1 X117.481 Y117.506 E105.2029
G0 F3900 X117.671 Y117.837
;TYPE:SOLID-FILL
;WIDTH:0.420
;FLOW:95.0
G1 F2900 X117.814 Y117.694 E105.2120
G0 F2900 X118.408 Y117.694
G1 F2900 X117.671 Y118.431 E105.2587
G0 F2900 X117.672 Y119.024
G1 F2900 X119.002 Y117.694 E105.3429
G0 F2900 X119.596 Y117.694
G1 F2900 X117.673 Y119.617 E105.4647
G0 F2900 X117.674 Y120.210
G1 F2900 X120.190 Y117.694 E105.6241
G0 F2900 X120.784 Y117.694
G1 F2900 X117.676 Y120.802 E105.8209
G0 F2900 X117.676 Y121.396
G1 F2900 X121.378 Y117.694 E106.0554
G0 F2900 X121.972 Y117.694
G1 F2900 X117.677 Y121.989 E106.3275
G0 F2900 X117.678 Y122.581
G1 F2900 X122.566 Y117.694 E106.6371
G0 F2900 X123.160 Y117.694
G1 F2900 X117.679 Y123.175 E106.9842
G0 F2900 X117.680 Y123.768
G1 F2900 X123.754 Y117.694 E107.3690
G0 F2900 X124.348 Y117.694
G1 F2900 X117.681 Y124.360 E107.7912
G0 F2900 X117.682 Y124.954
G1 F2900 X124.942 Y117.694 E108.2511
G0 F2900 X125.536 Y117.694
G1 F2900 X117.683 Y125.547 E108.7485
G0 F2900 X117.684 Y126.140
G1 F2900 X126.130 Y117.694 E109.2835
G0 F2900 X126.724 Y117.694
G1 F2900 X117.685 Y126.733 E109.8560
G0 F2900 X117.685 Y127.326
G1 F2900 X127.318 Y117.694 E110.4662
G0 F2900 X127.912 Y117.694
G1 F2900 X117.687 Y127.919 E111.1138
G0 F2900 X117.688 Y128.512
G1 F2900 X128.506 Y117.694 E111.7990
G0 F2900 X129.100 Y117.694
G1 F2900 X117.688 Y129.105 E112.5219
G0 F2900 X117.690 Y129.698
