;Sliced by ideaMaker 5.2.4.8581, 2025-07-22 08:24:29 UTC+0200
;Slicer Version: 5.2.3.8580
;Dimension: 250.000 250.000 250.000 0.400
;Plate Shape: 0
;Origin Center: 0
;Extruder Offset #1: 25.000 0.000
;Filament Diameter #1: 1.750
;Filament Diameter #2: 1.750
;Filament Compensation #1: 94.000
;Filament Compensation #2: 90.000
;Filament Density #1: 1240.000
;Filament Density #2: 1240.000
;Filament Type #1: PLA
;Filament Type #2: PLA
;Filament Name #1: [Raise3D] Premium PLA 1.75mm
;Filament Name #2: [Raise3D] Premium PLA 1.75mm
;Filament #1: PLA 1.75mm
;Filament #2: PLA 1.75mm
;Printer Type: floppy
;Firmware: Klipper
;Bounding Box: 102.996 145.382 105.012 148.900 0.000 129.000
;Model Gap: 0.000
M221 T0 S94.00
M140 S50.00
M104 T0 S190.00
M109 T0 S190.00
T0
M190 S50.00
G21 ;metric values
G90 ;absolute positioning
M82 ;set extruder to absolute mode
M107 ;start with the fan off
G28 X0 Y0 ;move X/Y to min endstops
G28 Z0 ;move Z to min endstops
G1 Z15.0 F9000 ;move the platform down 15mm
G92 E0 ;zero the extruded length
G0 X43 Y27 F2000  ;go to the edge of the bed
G92 X0 Y0 E0 ;set zero to edge of the bed
G0 F9000 Z1 ;Z up with 1mm
G1 F200 Z0 ;Z home slowly
G1 Z15.0 F9000 ;move the platform down 15mm
G1 F9000 ;speed setting
G92 E-3 ;retraction
M117 Printing...
M1001
;TOTAL_NUM: 1
;PRINTING_TIME: 0
;REMAINING_TIME: 9148
;LAYER:0
;Z:0.300
;HEIGHT:0.300
;PRINTING: NON-OBJECT
;PRINTING_ID: -1
G1 F2400 E-5.0000
G0 F3900 X105.482 Y114.339
G0 F300 Z0.300
;TYPE:SKIRT
;WIDTH:0.420
G1 F1500 E0.0000
G1 F900 X107.383 Y112.658 E0.1329
G1 X119.558 Y110.230 E0.7833
G1 X124.244 Y110.004 E1.0290
G1 X138.318 Y110.726 E1.7673
G1 X142.463 Y112.668 E2.0071
G1 X143.864 Y118.587 E2.3257
G1 X143.275 Y121.153 E2.4636
G1 X145.382 Y137.953 E3.3506
G1 X144.552 Y140.886 E3.5102
G1 X135.457 Y147.605 E4.1026
G1 X133.552 Y148.516 E4.2132
G1 X131.605 Y148.900 E4.3172
G1 X108.947 Y146.486 E5.5108
G1 X107.149 Y146.123 E5.6069
G1 X105.203 Y145.307 E5.7174
G1 X102.996 Y141.930 E5.9288
G1 X104.179 Y120.066 E7.0758
G1 X104.489 Y117.436 E7.2145
G1 X105.482 Y114.339 E7.3849
G0 F3900 X105.882 Y114.468
G1 F900 X107.465 Y113.070 E7.4955
G1 X119.640 Y110.642 E8.1459
G1 X124.222 Y110.423 E8.3862
G1 X138.296 Y111.145 E9.1244
G1 X142.153 Y112.952 E9.3475
G1 X143.454 Y118.680 E9.6552
G1 X142.848 Y121.128 E9.7873
G1 X144.965 Y138.005 E10.6783
G1 X144.222 Y140.626 E10.8211
G1 X135.208 Y147.267 E11.4076
G1 X133.372 Y148.136 E11.5140
G1 X131.527 Y148.487 E11.6124
G1 X108.992 Y146.068 E12.7996
G1 X107.232 Y145.711 E12.8937
G1 X105.367 Y144.920 E12.9998
G1 X103.415 Y141.953 E13.1859
G1 X104.598 Y120.089 E14.3329
G1 X104.906 Y117.485 E14.4702
G1 X105.882 Y114.468 E14.6364
G0 F3900 X106.281 Y114.598
G1 F900 X107.547 Y113.482 E14.7248
G1 X119.722 Y111.054 E15.3751
G1 X124.200 Y110.842 E15.6099
G1 X138.274 Y111.564 E16.3482
G1 X141.843 Y113.236 E16.5546
G1 X143.044 Y118.769 E16.8512
G1 X142.421 Y121.099 E16.9776
G1 X144.548 Y138.057 E17.8729
G1 X143.892 Y140.366 E17.9986
G1 X134.959 Y146.929 E18.5793
G1 X133.294 Y147.723 E18.6759
G1 X131.449 Y148.074 E18.7743
G1 X109.037 Y145.650 E19.9552
G1 X107.316 Y145.299 E20.0472
G1 X105.533 Y144.534 E20.1488
G1 X103.834 Y141.976 E20.3097
G1 X105.017 Y120.112 E21.4567
G1 X105.323 Y117.535 E21.5927
G1 X106.281 Y114.598 E21.7545
G0 F3900 X106.680 Y114.729
G1 F900 X107.629 Y113.894 E21.8207
G1 X119.804 Y111.466 E22.4711
G1 X124.178 Y111.261 E22.7004
G1 X138.252 Y111.983 E23.4387
G1 X141.533 Y113.520 E23.6285
G1 X142.633 Y118.854 E23.9138
G1 X141.993 Y121.067 E24.0345
G1 X144.131 Y138.109 E24.9342
G1 X143.562 Y140.106 E25.0430
G1 X134.711 Y146.590 E25.6177
G1 X133.115 Y147.343 E25.7102
G1 X131.374 Y147.661 E25.8029
G1 X109.082 Y145.232 E26.9776
G1 X107.400 Y144.888 E27.0675
G1 X105.701 Y144.149 E27.1645
G1 X104.247 Y141.900 E27.3048
G1 X105.436 Y120.135 E28.4467
G1 X105.740 Y117.585 E28.5812
G1 X106.680 Y114.729 E28.7387
G0 F3900 X107.079 Y114.861
G1 F900 X107.711 Y114.306 E28.7828
G1 X119.886 Y111.878 E29.4331
G1 X124.156 Y111.680 E29.6570
G1 X138.230 Y112.402 E30.3953
G1 X141.223 Y113.804 E30.5684
G1 X142.221 Y118.934 E30.8422
G1 X141.565 Y121.028 E30.9571
G1 X143.714 Y138.161 E31.8617
G1 X143.233 Y139.845 E31.9534
G1 X134.463 Y146.251 E32.5223
G1 X132.938 Y146.962 E32.6105
G1 X131.302 Y147.247 E32.6975
G1 X109.128 Y144.815 E33.8660
G1 X107.485 Y144.477 E33.9539
G1 X105.870 Y143.765 E34.0464
G1 X104.666 Y141.923 E34.1616
G1 X105.855 Y120.158 E35.3035
G1 X106.157 Y117.635 E35.4366
G1 X107.079 Y114.861 E35.5897
G0 F3900 X107.477 Y114.995
G1 F900 X107.793 Y114.718 E35.6117
G1 X119.968 Y112.290 E36.2621
G1 X124.134 Y112.099 E36.4805
G1 X138.208 Y112.821 E37.2188
G1 X140.913 Y114.088 E37.3752
G1 X141.808 Y119.009 E37.6373
G1 X141.136 Y120.984 E37.7465
G1 X143.297 Y138.213 E38.6562
G1 X142.904 Y139.584 E38.7309
G1 X134.216 Y145.912 E39.2939
G1 X132.763 Y146.580 E39.3777
G1 X131.233 Y146.833 E39.4589
G1 X109.174 Y144.398 E40.6215
G1 X107.570 Y144.066 E40.7073
G1 X106.042 Y143.382 E40.7950
G1 X105.085 Y141.946 E40.8854
G1 X106.274 Y120.181 E42.0273
G1 X106.574 Y117.685 E42.1589
G1 X107.477 Y114.995 E42.3076
G0 F3900 X107.875 Y115.130
G1 F900 X120.050 Y112.702 E42.9579
G1 X124.112 Y112.518 E43.1709
G1 X138.186 Y113.240 E43.9092
G1 X140.603 Y114.372 E44.0490
G1 X141.394 Y119.079 E44.2990
G1 X140.706 Y120.934 E44.4027
G1 X142.880 Y138.265 E45.3176
G1 X142.575 Y139.323 E45.3753
G1 X133.969 Y145.572 E45.9325
G1 X132.589 Y146.198 E46.0118
G1 X131.169 Y146.418 E46.0871
G1 X109.220 Y143.981 E47.2440
G1 X107.656 Y143.655 E47.3277
G1 X106.216 Y143.000 E47.4105
G1 X105.499 Y141.873 E47.4805
G1 X106.693 Y120.204 E48.6174
G1 X106.991 Y117.735 E48.7476
G1 X107.875 Y115.130 E48.8917
G0 F3900 X108.194 Y115.404
G1 F900 X120.129 Y113.114 E49.5284
G1 X124.090 Y112.937 E49.7361
G1 X138.164 Y113.659 E50.4743
G1 X140.293 Y114.656 E50.5974
G1 X140.979 Y119.142 E50.8352
G1 X140.276 Y120.878 E50.9333
G1 X142.463 Y138.317 E51.8540
G1 X142.247 Y139.061 E51.8946
G1 X141.483 Y139.479 E51.9402
G1 X133.719 Y145.235 E52.4465
G1 X132.418 Y145.814 E52.5211
G1 X131.109 Y146.002 E52.5903
G1 X109.267 Y143.564 E53.7416
G1 X107.742 Y143.244 E53.8233
G1 X106.393 Y142.619 E53.9011
G1 X105.918 Y141.896 E53.9465
G1 X107.112 Y120.227 E55.0833
G1 X107.408 Y117.786 E55.2121
G1 X108.194 Y115.404 E55.3435
G0 F3900 X108.515 Y115.675
G1 F900 X120.205 Y113.527 E55.9661
G1 X124.068 Y113.356 E56.1687
G1 X138.142 Y114.078 E56.9069
G1 X139.983 Y114.940 E57.0134
G1 X140.563 Y119.199 E57.2386
G1 X139.844 Y120.814 E57.3312
G1 X142.046 Y138.369 E58.2580
G1 X141.920 Y138.798 E58.2814
G1 X141.266 Y139.118 E58.3196
G1 X133.469 Y144.898 E58.8280
G1 X132.358 Y145.398 E58.8918
G1 X131.049 Y145.586 E58.9611
G1 X109.314 Y143.147 E60.1068
G1 X107.829 Y142.833 E60.1864
G1 X106.573 Y142.239 E60.2591
G1 X106.334 Y141.836 E60.2837
G1 X107.531 Y120.250 E61.4162
G1 X107.825 Y117.837 E61.5435
G1 X108.515 Y115.675 E61.6624
G0 F3900 X108.242 Y117.888
G1 F900 X108.839 Y115.942 E61.7690
G1 X120.277 Y113.941 E62.3773
G1 X124.046 Y113.775 E62.5750
G1 X138.120 Y114.497 E63.3132
G1 X139.673 Y115.224 E63.4030
G1 X140.146 Y119.248 E63.6153
G1 X139.411 Y120.741 E63.7024
G1 X141.629 Y138.421 E64.6359
G1 X141.537 Y138.625 E64.6476
G1 X141.087 Y138.728 E64.6718
G1 X133.219 Y144.561 E65.1848
G1 X132.189 Y145.014 E65.2438
G1 X130.995 Y145.170 E65.3069
G1 X109.361 Y142.730 E66.4473
G1 X108.009 Y142.453 E66.5196
G1 X106.753 Y141.859 E66.5924
G1 X107.950 Y120.273 E67.7249
G1 X108.242 Y117.888 E67.8508
;PRINTING: p2_Low_Poly_Venus_De_Milo.stl
;PRINTING_ID: 0
G1 F2400 E62.8508
G1 F300 Z0.500
G0 F3900 X107.146 Y141.609
;TYPE:WALL-OUTER
;WIDTH:0.420
G1 F300 Z0.300
G1 F1500 E67.8508
G1 F2400 X108.370 Y120.299 E68.9690
G1 X108.654 Y117.966 E69.0921
G1 X109.145 Y116.283 E69.1839
G1 X120.341 Y114.355 E69.7790
G1 X124.049 Y114.195 E69.9735
G1 X138.059 Y114.915 E70.7083
G1 X139.302 Y115.480 E70.7799
G1 X139.720 Y119.233 E70.9777
G1 X138.979 Y120.662 E71.0620
G1 X141.179 Y138.205 E71.9882
G1 X132.989 Y144.207 E72.5201
G1 X132.044 Y144.617 E72.5741
G1 X130.976 Y144.751 E72.6304
G1 X109.424 Y142.314 E73.7666
G1 X108.118 Y142.046 E73.8365
G1 X107.146 Y141.609 E73.8923
G0 F3900 X107.582 Y141.344
;TYPE:WALL-INNER
;WIDTH:0.420
G1 F2400 X108.789 Y120.336 E74.9946
G1 X109.067 Y118.051 E75.1152
G1 X109.475 Y116.652 E75.1915
G1 X120.386 Y114.773 E75.7715
G1 X124.047 Y114.615 E75.9635
G1 X137.958 Y115.330 E76.6932
G1 X138.911 Y115.764 E76.7480
G1 X139.288 Y119.153 E76.9266
G1 X138.546 Y120.585 E77.0111
G1 X140.732 Y138.012 E77.9312
G1 X132.779 Y143.840 E78.4477
G1 X131.932 Y144.208 E78.4961
G1 X130.973 Y144.328 E78.5467
G1 X109.490 Y141.899 E79.6792
G1 X108.248 Y141.644 E79.7457
G1 X107.582 Y141.344 E79.7839
G0 F3900 X107.804 Y140.769
;TYPE:SOLID-FILL
;WIDTH:0.420
G1 F2400 X108.447 Y141.412 E79.8316
G0 F2400 X109.270 Y141.641
G1 F2400 X107.835 Y140.207 E79.9378
G0 F2400 X107.868 Y139.645
G1 F2400 X109.986 Y141.763 E80.0947
G0 F2400 X110.655 Y141.839
G1 F2400 X107.900 Y139.083 E80.2989
G0 F2400 X107.932 Y138.522
G1 F2400 X111.325 Y141.914 E80.5502
G0 F2400 X111.995 Y141.991
G1 F2400 X107.965 Y137.960 E80.8488
G0 F2400 X107.997 Y137.398
G1 F2400 X112.665 Y142.066 E81.1946
G0 F2400 X113.335 Y142.142
G1 F2400 X108.029 Y136.837 E81.5877
G0 F2400 X108.062 Y136.275
G1 F2400 X114.004 Y142.218 E82.0279
G0 F2400 X114.674 Y142.293
G1 F2400 X108.093 Y135.713 E82.5154
G0 F2400 X108.126 Y135.152
G1 F2400 X115.343 Y142.369 E83.0501
G0 F2400 X116.013 Y142.445
G1 F2400 X108.158 Y134.589 E83.6320
G0 F2400 X108.190 Y134.028
G1 F2400 X116.683 Y142.520 E84.2612
G0 F2400 X117.352 Y142.596
G1 F2400 X108.223 Y133.467 E84.9375
G0 F2400 X108.255 Y132.904
G1 F2400 X118.023 Y142.672 E85.6611
G0 F2400 X118.692 Y142.748
G1 F2400 X108.287 Y132.343 E86.4320
G0 F2400 X108.319 Y131.781
G1 F2400 X119.362 Y142.824 E87.2501
G0 F2400 X120.032 Y142.899
G1 F2400 X108.352 Y131.219 E88.1154
G0 F2400 X108.384 Y130.658
G1 F2400 X120.701 Y142.975 E89.0278
G0 F2400 X121.371 Y143.051
G1 F2400 X108.416 Y130.096 E89.9876
G0 F2400 X108.448 Y129.534
G1 F2400 X122.040 Y143.126 E90.9945
G0 F2400 X122.710 Y143.202
G1 F2400 X108.480 Y128.972 E92.0487
G0 F2400 X108.513 Y128.411
G1 F2400 X123.380 Y143.278 E93.1501
G0 F2400 X124.049 Y143.353
G1 F2400 X108.545 Y127.849 E94.2987
G0 F2400 X108.577 Y127.287
G1 F2400 X124.720 Y143.430 E95.4946
G0 F2400 X125.389 Y143.505
G1 F2400 X108.610 Y126.726 E96.7377
G0 F2400 X108.642 Y126.164
G1 F2400 X126.059 Y143.581 E98.0280
G0 F2400 X126.729 Y143.657
G1 F2400 X108.674 Y125.602 E99.3656
G0 F2400 X108.707 Y125.041
G1 F2400 X127.398 Y143.732 E100.7502
G0 F2400 X128.068 Y143.808
G1 F2400 X108.738 Y124.479 E102.1822
G0 F2400 X108.771 Y123.917
G1 F2400 X128.737 Y143.884 E103.6614
G0 F2400 X129.407 Y143.959
G1 F2400 X108.803 Y123.356 E105.1878
G0 F2400 X108.835 Y122.794
G1 F2400 X130.077 Y144.035 E106.7614
G0 F2400 X130.747 Y144.111
G1 F2400 X108.868 Y122.232 E108.3823
G0 F2400 X108.900 Y121.670
G1 F2400 X131.322 Y144.092 E110.0434
G0 F2400 X131.849 Y144.025
G1 F2400 X108.932 Y121.109 E111.7411
G0 F2400 X108.965 Y120.547
G1 F2400 X132.271 Y143.853 E113.4677
G0 F2400 X132.685 Y143.674
G1 F2400 X109.018 Y120.006 E115.2211
G0 F2400 X109.082 Y119.477
G1 F2400 X133.027 Y143.422 E116.9950
G0 F2400 X133.370 Y143.170
G1 F2400 X109.146 Y118.947 E118.7895
G0 F2400 X109.211 Y118.418
G1 F2400 X133.713 Y142.919 E120.6047
G0 F2400 X134.056 Y142.668
G1 F2400 X109.302 Y117.915 E122.4385
G0 F2400 X109.436 Y117.455
G1 F2400 X134.399 Y142.417 E124.2878
G0 F2400 X134.741 Y142.165
G1 F2400 X109.571 Y116.996 E126.1524
G0 F2400 X109.934 Y116.765
G1 F2400 X135.084 Y141.914 E128.0156
G0 F2400 X135.427 Y141.663
G1 F2400 X110.440 Y116.677 E129.8667
G0 F2400 X110.947 Y116.590
G1 F2400 X135.770 Y141.412 E131.7056
G0 F2400 X136.113 Y141.161
G1 F2400 X111.454 Y116.503 E133.5324
G0 F2400 X111.961 Y116.415
G1 F2400 X136.455 Y140.910 E135.3470
G0 F2400 X136.798 Y140.659
G1 F2400 X112.468 Y116.328 E137.1495
G0 F2400 X112.974 Y116.241
G1 F2400 X137.141 Y140.408 E138.9399
G0 F2400 X137.484 Y140.157
G1 F2400 X113.481 Y116.154 E140.7181
G0 F2400 X113.987 Y116.066
G1 F2400 X137.827 Y139.906 E142.4842
G0 F2400 X138.169 Y139.654
G1 F2400 X114.494 Y115.979 E144.2381
G0 F2400 X115.001 Y115.891
G1 F2400 X138.512 Y139.403 E145.9800
G0 F2400 X138.855 Y139.152
G1 F2400 X115.508 Y115.804 E147.7096
G0 F2400 X116.014 Y115.717
G1 F2400 X139.198 Y138.901 E149.4272
G0 F2400 X139.541 Y138.650
G1 F2400 X116.521 Y115.630 E151.1325
G0 F2400 X117.028 Y115.543
G1 F2400 X139.883 Y138.398 E152.8257
G0 F2400 X140.226 Y138.147
G1 F2400 X117.534 Y115.455 E154.5068
G0 F2400 X118.041 Y115.368
G1 F2400 X140.519 Y137.846 E156.1721
G0 F2400 X140.434 Y137.168
G1 F2400 X118.547 Y115.281 E157.7935
G0 F2400 X119.054 Y115.194
G1 F2400 X140.350 Y136.489 E159.3712
G0 F2400 X140.264 Y135.809
G1 F2400 X119.561 Y115.106 E160.9049
G0 F2400 X120.068 Y115.019
G1 F2400 X140.179 Y135.130 E162.3948
G0 F2400 X140.094 Y134.451
G1 F2400 X120.595 Y114.952 E163.8393
G0 F2400 X121.164 Y114.928
G1 F2400 X140.009 Y133.772 E165.2354
G0 F2400 X139.924 Y133.093
G1 F2400 X121.734 Y114.903 E166.5830
G0 F2400 X122.304 Y114.879
G1 F2400 X139.838 Y132.414 E167.8820
G0 F2400 X139.753 Y131.735
G1 F2400 X122.873 Y114.854 E169.1325
G0 F2400 X123.442 Y114.829
G1 F2400 X139.668 Y131.055 E170.3346
G0 F2400 X139.583 Y130.377
G1 F2400 X124.012 Y114.805 E171.4882
G0 F2400 X124.634 Y114.834
G1 F2400 X139.498 Y129.697 E172.5893
G0 F2400 X139.413 Y129.018
G1 F2400 X125.261 Y114.866 E173.6378
G0 F2400 X125.886 Y114.898
G1 F2400 X139.328 Y128.339 E174.6335
G0 F2400 X139.242 Y127.660
G1 F2400 X126.513 Y114.931 E175.5765
G0 F2400 X127.139 Y114.963
G1 F2400 X139.157 Y126.981 E176.4669
G0 F2400 X139.072 Y126.301
G1 F2400 X127.765 Y114.995 E177.3045
G0 F2400 X128.392 Y115.027
G1 F2400 X138.987 Y125.623 E178.0894
G0 F2400 X138.901 Y124.943
G1 F2400 X129.017 Y115.059 E178.8217
G0 F2400 X129.644 Y115.092
G1 F2400 X138.817 Y124.264 E179.5012
G0 F2400 X138.732 Y123.586
G1 F2400 X130.270 Y115.124 E180.1281
G0 F2400 X130.896 Y115.156
G1 F2400 X138.646 Y122.906 E180.7023
G0 F2400 X138.561 Y122.227
G1 F2400 X131.523 Y115.189 E181.2236
G0 F2400 X132.149 Y115.220
G1 F2400 X138.476 Y121.548 E181.6924
G0 F2400 X138.391 Y120.869
G1 F2400 X132.775 Y115.253 E182.1085
G0 F2400 X133.401 Y115.285
G1 F2400 X138.459 Y120.343 E182.4832
G0 F2400 X138.661 Y119.951
G1 F2400 X134.027 Y115.317 E182.8265
G0 F2400 X134.653 Y115.349
G1 F2400 X138.864 Y119.560 E183.1384
G0 F2400 X139.066 Y119.168
G1 F2400 X135.280 Y115.382 E183.4189
G0 F2400 X135.906 Y115.414
G1 F2400 X139.028 Y118.536 E183.6502
G0 F2400 X138.954 Y117.868
G1 F2400 X136.532 Y115.446 E183.8296
G0 F2400 X137.158 Y115.479
G1 F2400 X138.880 Y117.200 E183.9572
G0 F2400 X138.805 Y116.531
G1 F2400 X137.784 Y115.510 E184.0328
;PRINTING_TIME: 154
;REMAINING_TIME: 8994
;LAYER:1
;Z:0.600
;HEIGHT:0.300
M106 S64
;PRINTING: p2_Low_Poly_Venus_De_Milo.stl
;PRINTING_ID: 0
G1 F2400 E179.0328
G1 F300 Z0.800
G0 F3900 X107.603 Y141.077
G0 F300 Z0.600
G0 F3900 X107.068 Y141.346
;TYPE:WALL-OUTER
;WIDTH:0.420
G1 F300 Z0.600
G1 F1500 E184.0328
G1 F2100 X108.187 Y121.857 E185.0554
G1 X108.585 Y118.585 E185.2281
G1 X109.287 Y116.181 E185.3593
G1 X119.434 Y114.433 E185.8987
G1 X124.717 Y114.205 E186.1757
G1 X137.649 Y114.871 E186.8540
G1 X139.469 Y115.723 E186.9593
G1 X139.867 Y119.293 E187.1474
G1 X139.159 Y120.655 E187.2278
G1 X141.380 Y138.144 E188.1514
G1 X141.151 Y138.112 E188.1635
G1 X133.348 Y143.895 E188.6723
G1 X131.950 Y144.502 E188.7521
G1 X130.365 Y144.699 E188.8358
G1 X110.685 Y142.474 E189.8733
G1 X108.651 Y142.057 E189.9820
G1 X107.068 Y141.346 E190.0729
G0 F3900 X107.504 Y141.081
;TYPE:WALL-INNER
;WIDTH:0.420
;FLOW:90.0
G1 F2400 X108.606 Y121.894 E190.9790
G1 X108.998 Y118.670 E191.1321
G1 X109.617 Y116.550 E191.2363
G1 X119.479 Y114.851 E191.7081
G1 X124.715 Y114.625 E191.9552
G1 X137.545 Y115.286 E192.5608
G1 X139.078 Y116.004 E192.6407
G1 X139.435 Y119.213 E192.7929
G1 X138.726 Y120.578 E192.8654
G1 X140.909 Y137.769 E193.6824
G1 X133.137 Y143.529 E194.1385
G1 X131.838 Y144.093 E194.2052
G1 X130.363 Y144.276 E194.2753
G1 X110.751 Y142.059 E195.2058
