;Sliced by ideaMaker 5.2.4.8581, 2025-10-12 09:36:40 UTC+0200
;Slicer Version: 5.2.3.8580
;Dimension: 250.000 250.000 250.000 0.400
;Plate Shape: 0
;Origin Center: 0
;Extruder Offset #1: 25.000 0.000
;Filament Diameter #1: 1.750
;Filament Diameter #2: 1.750
;Filament Compensation #1: 94.000
;Filament Compensation #2: 90.000
;Filament Density #1: 1240.000
;Filament Density #2: 1240.000
;Filament Type #1: PLA
;Filament Type #2: PLA
;Filament Name #1: [Raise3D] Premium PLA 1.75mm
;Filament Name #2: [Raise3D] Premium PLA 1.75mm
;Filament #1: PLA 1.75mm
;Filament #2: PLA 1.75mm
;Printer Type: floppy
;Firmware: Klipper
;Bounding Box: 90.166 159.541 58.860 191.803 0.000 41.550
;Model Gap: 0.000
M221 T0 S94.00
M140 S45.00
M104 T0 S195.00
M109 T0 S195.00
T0
M190 S45.00
G21 ;metric values
G90 ;absolute positioning
M82 ;set extruder to absolute mode
M107 ;start with the fan off
G28 X0 Y0 ;move X/Y to min endstops
G28 Z0 ;move Z to min endstops
G1 Z15.0 F9000 ;move the platform down 15mm
G92 E0 ;zero the extruded length
G0 X43 Y27 F2000  ;go to the edge of the bed
G92 X0 Y0 E0 ;set zero to edge of the bed
G0 F9000 Z1 ;Z up with 1mm
G1 F200 Z0 ;Z home slowly
G1 Z15.0 F9000 ;move the platform down 15mm
G1 F9000 ;speed setting
G92 E-3 ;retraction
M117 Printing...
M1001
;TOTAL_NUM: 1
;PRINTING_TIME: 0
;REMAINING_TIME: 5851
;LAYER:0
;Z:0.150
;HEIGHT:0.150
M106 S153
;PRINTING: NON-OBJECT
;PRINTING_ID: -1
G1 F2400 E-5.0000
SET_VELOCITY_LIMIT ACCEL=500.00
SET_VELOCITY_LIMIT SQUARE_CORNER_VELOCITY=5.00
G0 F3900 X92.299 Y73.766
G0 F300 Z0.150
;TYPE:SKIRT
;WIDTH:0.420
G1 F1500 E0.0000
G1 F900 X95.366 Y71.527 E0.0995
G1 X98.939 Y70.601 E0.1961
G1 X100.798 Y70.558 E0.2448
G1 X102.481 Y70.970 E0.2902
G1 X104.513 Y72.249 E0.3531
G1 X108.095 Y76.972 E0.5084
G1 X108.751 Y77.639 E0.5329
G1 X108.998 Y77.333 E0.5432
G1 X110.065 Y74.212 E0.6296
G1 X110.503 Y73.719 E0.6468
G1 X110.263 Y71.554 E0.7039
G1 X110.914 Y69.106 E0.7702
G1 X111.742 Y67.542 E0.8166
G1 X111.834 Y65.766 E0.8632
G1 X113.325 Y62.354 E0.9607
G1 X114.763 Y60.713 E1.0179
G1 X116.746 Y59.412 E1.0800
G1 X119.198 Y58.860 E1.1458
G1 X121.396 Y58.933 E1.2034
G1 X125.947 Y60.648 E1.3308
G1 X128.776 Y63.726 E1.4403
G1 X130.048 Y66.472 E1.5196
G1 X131.199 Y70.397 E1.6267
G1 X131.844 Y73.674 E1.7142
G1 X132.771 Y76.475 E1.7914
G1 X134.678 Y80.893 E1.9175
G1 X136.446 Y85.776 E2.0535
G1 X137.094 Y88.289 E2.1215
G1 X137.782 Y93.691 E2.2641
G1 X139.038 Y97.414 E2.3670
G1 X141.325 Y102.277 E2.5078
G1 X141.995 Y103.136 E2.5363
G1 X142.564 Y103.646 E2.5563
G1 X145.306 Y105.177 E2.6386
G1 X147.287 Y106.612 E2.7027
G1 X149.776 Y109.301 E2.7986
G1 X151.127 Y111.440 E2.8649
G1 X152.095 Y113.623 E2.9274
G1 X154.432 Y123.521 E3.1938
G1 X154.674 Y126.140 E3.2627
G1 X154.473 Y128.652 E3.3287
G1 X152.978 Y133.665 E3.4657
G1 X154.407 Y137.879 E3.5823
G1 X154.980 Y140.159 E3.6439
G1 X155.138 Y142.483 E3.7049
G1 X154.883 Y143.972 E3.7444
G1 X157.047 Y147.728 E3.8580
G1 X158.038 Y150.074 E3.9247
G1 X158.719 Y152.336 E3.9866
G1 X159.417 Y156.124 E4.0874
G1 X159.541 Y162.689 E4.2594
G1 X159.066 Y165.457 E4.3330
G1 X157.971 Y168.877 E4.4270
G1 X153.705 Y176.756 E4.6617
G1 X152.622 Y179.456 E4.7379
G1 X150.585 Y183.725 E4.8618
G1 X148.663 Y186.918 E4.9594
G1 X146.070 Y189.681 E5.0587
G1 X143.732 Y191.204 E5.1318
G1 X141.983 Y191.803 E5.1802
G1 X138.559 Y191.656 E5.2699
G1 X135.793 Y189.990 E5.3545
G1 X133.786 Y187.011 E5.4486
G1 X133.212 Y183.494 E5.5419
G1 X134.254 Y179.818 E5.6420
G1 X136.580 Y176.269 E5.7532
G1 X137.328 Y174.821 E5.7958
G1 X138.175 Y172.164 E5.8689
G1 X141.879 Y163.469 E6.1164
G1 X143.854 Y157.007 E6.2934
G1 X144.241 Y153.625 E6.3826
G1 X144.909 Y150.968 E6.4543
G1 X143.859 Y149.032 E6.5120
G1 X143.474 Y146.509 E6.5789
G1 X141.575 Y145.546 E6.6346
G1 X140.777 Y145.421 E6.6558
G1 X137.755 Y144.266 E6.7405
G1 X134.007 Y141.625 E6.8606
G1 X133.356 Y141.308 E6.8796
G1 X128.169 Y139.607 E7.0226
G1 X126.125 Y138.578 E7.0825
G1 X123.831 Y136.816 E7.1583
G1 X121.972 Y134.802 E7.2301
G1 X119.104 Y131.176 E7.3512
G1 X117.449 Y128.450 E7.4347
G1 X116.440 Y125.986 E7.5044
G1 X115.828 Y121.736 E7.6169
G1 X116.094 Y119.700 E7.6707
G1 X116.712 Y117.429 E7.7323
G1 X116.620 Y116.823 E7.7484
G1 X115.539 Y113.656 E7.8360
G1 X112.429 Y108.062 E8.0037
G1 X108.744 Y104.830 E8.1320
G1 X103.410 Y98.713 E8.3446
G1 X100.755 Y94.896 E8.4664
G1 X98.389 Y92.055 E8.5632
G1 X92.000 Y85.811 E8.7972
G1 X90.206 Y80.938 E8.9332
G1 X90.166 Y78.684 E8.9923
G1 X90.612 Y76.655 E9.0467
G1 X91.349 Y74.995 E9.0943
G1 X92.299 Y73.766 E9.1350
G0 F3900 X92.631 Y74.023
G1 F900 X95.612 Y71.867 E9.2313
G1 X99.041 Y71.008 E9.3239
G1 X100.805 Y70.978 E9.3701
G1 X102.378 Y71.377 E9.4126
G1 X104.286 Y72.602 E9.4720
G1 X107.776 Y77.247 E9.6242
G1 X108.783 Y78.270 E9.6618
G1 X109.371 Y77.538 E9.6864
G1 X110.462 Y74.348 E9.7747
G1 X110.946 Y73.872 E9.7925
G1 X110.669 Y71.662 E9.8508
G1 X111.320 Y69.214 E9.9172
G1 X112.158 Y67.654 E9.9635
G1 X112.220 Y65.932 E10.0087
G1 X113.643 Y62.629 E10.1029
G1 X114.998 Y61.061 E10.1571
G1 X116.838 Y59.822 E10.2152
G1 X119.290 Y59.270 E10.2811
G1 X121.379 Y59.353 E10.3358
G1 X125.797 Y61.040 E10.4597
G1 X128.395 Y63.903 E10.5610
G1 X129.667 Y66.649 E10.6402
G1 X130.796 Y70.515 E10.7457
G1 X131.438 Y73.784 E10.8330
G1 X132.378 Y76.624 E10.9113
G1 X134.292 Y81.059 E11.0379
G1 X136.051 Y85.919 E11.1732
G1 X136.687 Y88.394 E11.2402
G1 X137.370 Y93.784 E11.3825
G1 X138.648 Y97.572 E11.4872
G1 X140.964 Y102.497 E11.6297
G1 X141.688 Y103.425 E11.6606
G1 X142.320 Y103.991 E11.6828
G1 X145.101 Y105.544 E11.7662
G1 X147.040 Y106.952 E11.8290
G1 X149.467 Y109.586 E11.9228
G1 X150.771 Y111.663 E11.9870
G1 X151.711 Y113.793 E12.0480
G1 X154.023 Y123.617 E12.3123
G1 X154.256 Y126.178 E12.3797
G1 X154.054 Y128.617 E12.4438
G1 X152.537 Y133.674 E12.5821
G1 X154.009 Y138.014 E12.7021
G1 X154.573 Y140.261 E12.7628
G1 X154.719 Y142.510 E12.8218
G1 X154.443 Y144.050 E12.8628
G1 X156.683 Y147.938 E12.9803
G1 X157.651 Y150.237 E13.0457
G1 X158.317 Y152.457 E13.1064
G1 X159.004 Y156.200 E13.2061
G1 X159.121 Y162.697 E13.3763
G1 X158.652 Y165.385 E13.4477
G1 X157.571 Y168.749 E13.5403
G1 X153.323 Y176.580 E13.7736
G1 X152.232 Y179.300 E13.8504
G1 X150.206 Y183.544 E13.9736
G1 X148.303 Y186.701 E14.0701
G1 X145.841 Y189.329 E14.1644
G1 X143.503 Y190.852 E14.2375
G1 X141.995 Y191.383 E14.2794
G1 X138.771 Y191.293 E14.3639
G1 X136.141 Y189.755 E14.4437
G1 X134.134 Y186.776 E14.5378
G1 X133.627 Y183.431 E14.6264
G1 X134.605 Y180.048 E14.7186
G1 X136.945 Y176.478 E14.8304
G1 X137.717 Y174.984 E14.8745
G1 X138.575 Y172.291 E14.9485
G1 X142.276 Y163.608 E15.1957
G1 X144.266 Y157.096 E15.3741
G1 X144.658 Y153.673 E15.4643
G1 X145.357 Y150.908 E15.5390
G1 X144.274 Y148.969 E15.5972
G1 X143.856 Y146.232 E15.6697
G1 X141.707 Y145.141 E15.7328
G1 X140.842 Y145.006 E15.7558
G1 X137.906 Y143.874 E15.8382
G1 X134.222 Y141.262 E15.9565
G1 X133.517 Y140.919 E15.9770
G1 X128.300 Y139.208 E16.1208
G1 X126.315 Y138.203 E16.1791
G1 X124.088 Y136.484 E16.2528
G1 X122.281 Y134.518 E16.3227
G1 X119.433 Y130.916 E16.4430
G1 X117.808 Y128.232 E16.5252
G1 X116.829 Y125.828 E16.5931
G1 X116.244 Y121.790 E16.7000
G1 X116.510 Y119.754 E16.7538
G1 X117.140 Y117.455 E16.8162
G1 X117.031 Y116.734 E16.8353
G1 X116.424 Y114.642 E16.8924
G1 X115.920 Y113.476 E16.9257
G1 X112.760 Y107.793 E17.0960
G1 X109.021 Y104.514 E17.2262
G1 X103.727 Y98.437 E17.4373
G1 X101.089 Y94.640 E17.5584
G1 X98.700 Y91.772 E17.6562
G1 X92.294 Y85.511 E17.8908
G1 X90.626 Y80.931 E18.0185
G1 X90.586 Y78.677 E18.0775
G1 X91.022 Y76.748 E18.1293
G1 X91.681 Y75.252 E18.1721
G1 X92.631 Y74.023 E18.2128
G0 F3900 X92.961 Y74.282
G1 F900 X95.714 Y72.274 E18.3021
G1 X99.143 Y71.415 E18.3947
G1 X100.809 Y71.398 E18.4383
G1 X102.271 Y71.783 E18.4779
G1 X104.056 Y72.953 E18.5338
G1 X107.455 Y77.520 E18.6829
G1 X108.814 Y78.900 E18.7336
G1 X109.744 Y77.744 E18.7725
G1 X110.859 Y74.484 E18.8628
G1 X111.395 Y74.049 E18.8808
G1 X111.075 Y71.770 E18.9411
G1 X111.726 Y69.322 E19.0075
G1 X112.603 Y67.716 E19.0554
G1 X112.503 Y67.273 E19.0673
G1 X112.607 Y66.096 E19.0982
G1 X113.961 Y62.904 E19.1890
G1 X115.316 Y61.336 E19.2433
G1 X117.070 Y60.172 E19.2985
G1 X119.377 Y59.681 E19.3602
G1 X121.360 Y59.773 E19.4122
G1 X125.645 Y61.432 E19.5326
G1 X128.014 Y64.080 E19.6257
G1 X129.286 Y66.826 E19.7049
G1 X130.393 Y70.632 E19.8087
G1 X131.032 Y73.894 E19.8958
G1 X131.985 Y76.773 E19.9752
G1 X133.906 Y81.225 E20.1022
G1 X135.656 Y86.062 E20.2370
G1 X136.280 Y88.498 E20.3028
G1 X136.956 Y93.858 E20.4443
G1 X137.280 Y95.141 E20.4790
G1 X138.260 Y97.733 E20.5516
G1 X140.603 Y102.717 E20.6958
G1 X141.381 Y103.714 E20.7289
G1 X142.076 Y104.336 E20.7534
G1 X144.896 Y105.911 E20.8380
G1 X146.793 Y107.292 E20.8994
G1 X149.157 Y109.870 E20.9910
G1 X150.415 Y111.885 E21.0533
G1 X151.326 Y113.962 E21.1127
G1 X153.614 Y123.713 E21.3750
G1 X153.838 Y126.215 E21.4408
G1 X153.636 Y128.581 E21.5030
G1 X152.096 Y133.682 E21.6426
G1 X153.611 Y138.149 E21.7661
G1 X154.166 Y140.363 E21.8259
G1 X154.300 Y142.536 E21.8829
G1 X154.001 Y144.125 E21.9253
G1 X156.319 Y148.148 E22.0469
G1 X157.264 Y150.400 E22.1109
G1 X157.915 Y152.577 E22.1704
G1 X158.591 Y156.276 E22.2689
G1 X158.701 Y162.704 E22.4372
G1 X158.238 Y165.312 E22.5066
G1 X157.171 Y168.620 E22.5977
G1 X152.943 Y176.400 E22.8296
G1 X151.842 Y179.144 E22.9070
G1 X149.827 Y183.363 E23.0295
G1 X147.943 Y186.484 E23.1250
G1 X145.612 Y188.977 E23.2144
G1 X143.274 Y190.500 E23.2875
G1 X141.859 Y190.986 E23.3266
G1 X138.786 Y190.873 E23.4072
G1 X136.359 Y189.396 E23.4816
G1 X134.485 Y186.545 E23.5710
G1 X134.043 Y183.373 E23.6548
G1 X134.956 Y180.278 E23.7394
G1 X137.310 Y176.687 E23.8518
G1 X138.106 Y175.147 E23.8972
G1 X138.975 Y172.418 E23.9723
G1 X142.673 Y163.747 E24.2192
G1 X144.678 Y157.185 E24.3989
G1 X145.075 Y153.721 E24.4902
G1 X145.818 Y150.800 E24.5691
G1 X145.427 Y150.346 E24.5848
G1 X144.689 Y148.906 E24.6272
G1 X144.242 Y145.977 E24.7048
G1 X143.134 Y145.288 E24.7390
G1 X141.824 Y144.734 E24.7763
G1 X140.907 Y144.591 E24.8006
G1 X138.058 Y143.483 E24.8806
G1 X134.436 Y140.899 E24.9972
G1 X133.678 Y140.530 E25.0192
G1 X128.431 Y138.809 E25.1639
G1 X126.506 Y137.829 E25.2205
G1 X124.346 Y136.152 E25.2921
G1 X122.591 Y134.234 E25.3602
G1 X119.763 Y130.656 E25.4796
G1 X118.168 Y128.015 E25.5604
G1 X117.218 Y125.670 E25.6267
G1 X116.660 Y121.844 E25.7280
G1 X116.926 Y119.808 E25.7818
G1 X117.568 Y117.482 E25.8450
G1 X117.442 Y116.644 E25.8672
G1 X116.818 Y114.496 E25.9258
G1 X116.299 Y113.293 E25.9601
G1 X113.091 Y107.524 E26.1330
G1 X109.298 Y104.198 E26.2651
G1 X104.044 Y98.161 E26.4747
G1 X101.419 Y94.379 E26.5953
G1 X99.011 Y91.489 E26.6938
G1 X92.588 Y85.211 E26.9291
G1 X91.046 Y80.921 E27.0485
G1 X90.996 Y78.770 E27.1048
G1 X91.432 Y76.841 E27.1566
G1 X92.065 Y75.423 E27.1973
G1 X92.961 Y74.282 E27.2353
G0 F3900 X93.289 Y74.544
G1 F900 X95.960 Y72.614 E27.3216
G1 X99.241 Y71.823 E27.4100
G1 X100.702 Y71.804 E27.4483
G1 X102.164 Y72.189 E27.4879
G1 X103.822 Y73.302 E27.5402
G1 X107.136 Y77.795 E27.6864
G1 X108.846 Y79.531 E27.7502
G1 X110.117 Y77.949 E27.8034
G1 X111.256 Y74.620 E27.8956
G1 X111.854 Y74.265 E27.9138
G1 X111.481 Y71.878 E27.9771
G1 X112.132 Y69.430 E28.0434
G1 X113.055 Y67.768 E28.0932
G1 X112.922 Y67.302 E28.1059
G1 X112.995 Y66.258 E28.1333
G1 X114.281 Y63.176 E28.2208
G1 X115.548 Y61.686 E28.2720
G1 X117.302 Y60.522 E28.3271
G1 X119.459 Y60.093 E28.3847
G1 X121.338 Y60.192 E28.4340
G1 X125.492 Y61.823 E28.5509
G1 X127.633 Y64.257 E28.6358
G1 X128.905 Y67.003 E28.7151
G1 X129.990 Y70.749 E28.8172
G1 X130.626 Y74.004 E28.9041
G1 X131.592 Y76.922 E28.9846
G1 X133.520 Y81.391 E29.1121
G1 X135.261 Y86.205 E29.2462
G1 X135.873 Y88.602 E29.3110
G1 X136.542 Y93.933 E29.4517
G1 X136.879 Y95.268 E29.4878
G1 X137.873 Y97.898 E29.5614
G1 X140.242 Y102.937 E29.7072
G1 X141.074 Y104.003 E29.7427
G1 X141.832 Y104.681 E29.7693
G1 X144.691 Y106.278 E29.8551
G1 X146.545 Y107.631 E29.9152
G1 X148.847 Y110.153 E30.0046
G1 X150.058 Y112.106 E30.0648
G1 X150.941 Y114.130 E30.1227
G1 X153.205 Y123.809 E30.3830
G1 X153.420 Y126.252 E30.4472
G1 X153.218 Y128.544 E30.5075
G1 X151.655 Y133.689 E30.6484
G1 X153.213 Y138.284 E30.7754
G1 X153.759 Y140.465 E30.8343
G1 X153.881 Y142.560 E30.8893
G1 X153.558 Y144.199 E30.9330
G1 X155.955 Y148.358 E31.0588
G1 X156.876 Y150.562 E31.1213
G1 X157.513 Y152.697 E31.1797
G1 X158.178 Y156.351 E31.2770
G1 X158.281 Y162.711 E31.4436
G1 X157.825 Y165.237 E31.5108
G1 X156.771 Y168.491 E31.6004
G1 X152.563 Y176.220 E31.8309
G1 X151.452 Y178.988 E31.9090
G1 X149.448 Y183.182 E32.0308
G1 X147.584 Y186.267 E32.1252
G1 X145.306 Y188.689 E32.2123
G1 X143.046 Y190.147 E32.2827
G1 X141.726 Y190.588 E32.3192
G1 X138.999 Y190.511 E32.3906
G1 X136.707 Y189.161 E32.4603
G1 X134.901 Y186.487 E32.5448
G1 X134.459 Y183.315 E32.6287
G1 X135.307 Y180.508 E32.7055
G1 X137.675 Y176.896 E32.8186
G1 X138.495 Y175.308 E32.8654
G1 X139.375 Y172.546 E32.9414
G1 X143.070 Y163.886 E33.1880
G1 X145.090 Y157.274 E33.3691
G1 X145.492 Y153.769 E33.4615
G1 X146.279 Y150.692 E33.5447
G1 X145.745 Y150.072 E33.5661
G1 X145.104 Y148.843 E33.6024
G1 X144.628 Y145.722 E33.6851
G1 X143.329 Y144.914 E33.7252
G1 X141.941 Y144.327 E33.7646
G1 X140.972 Y144.176 E33.7903
G1 X138.211 Y143.092 E33.8680
G1 X134.649 Y140.535 E33.9829
G1 X133.839 Y140.141 E34.0064
G1 X128.562 Y138.410 E34.1519
G1 X126.697 Y137.455 E34.2068
G1 X124.605 Y135.821 E34.2763
G1 X122.901 Y133.951 E34.3426
G1 X120.093 Y130.396 E34.4612
G1 X118.528 Y127.798 E34.5407
G1 X117.608 Y125.513 E34.6052
G1 X117.076 Y121.898 E34.7009
G1 X117.342 Y119.862 E34.7547
G1 X117.997 Y117.510 E34.8186
G1 X117.853 Y116.555 E34.8439
G1 X117.212 Y114.350 E34.9041
G1 X116.678 Y113.110 E34.9394
G1 X113.438 Y107.284 E35.1140
G1 X112.969 Y106.727 E35.1331
G1 X109.568 Y103.876 E35.2494
G1 X104.361 Y97.885 E35.4573
G1 X101.749 Y94.119 E35.5773
G1 X99.322 Y91.206 E35.6766
G1 X92.882 Y84.911 E35.9125
G1 X91.466 Y80.909 E36.0237
G1 X91.406 Y78.863 E36.0773
G1 X91.842 Y76.934 E36.1291
G1 X92.448 Y75.596 E36.1676
G1 X93.289 Y74.544 E36.2028
G0 F3900 X93.617 Y74.806
G1 F900 X96.204 Y72.956 E36.2861
G1 X99.336 Y72.232 E36.3703
G1 X100.704 Y72.224 E36.4062
G1 X102.053 Y72.594 E36.4428
G1 X103.584 Y73.648 E36.4915
G1 X106.813 Y78.065 E36.6348
G1 X108.330 Y79.667 E36.6926
G1 X108.699 Y79.946 E36.7047
G1 X109.029 Y79.974 E36.7134
G1 X110.493 Y78.151 E36.7746
G1 X111.574 Y74.894 E36.8645
G1 X112.319 Y74.491 E36.8867
G1 X111.887 Y71.986 E36.9533
G1 X112.538 Y69.538 E37.0196
G1 X113.516 Y67.808 E37.0717
G1 X113.342 Y67.321 E37.0852
G1 X113.384 Y66.417 E37.1089
G1 X114.603 Y63.446 E37.1930
G1 X115.786 Y62.032 E37.2413
G1 X117.384 Y60.934 E37.2921
G1 X119.541 Y60.505 E37.3497
G1 X121.313 Y60.611 E37.3962
G1 X125.337 Y62.213 E37.5096
G1 X127.252 Y64.434 E37.5865
G1 X128.524 Y67.180 E37.6657
G1 X129.586 Y70.865 E37.7662
G1 X130.220 Y74.115 E37.8529
G1 X131.199 Y77.071 E37.9345
G1 X133.134 Y81.557 E38.0624
G1 X134.866 Y86.348 E38.1959
G1 X135.466 Y88.706 E38.2596
G1 X136.128 Y94.008 E38.3995
G1 X136.479 Y95.398 E38.4371
G1 X137.485 Y98.059 E38.5116
G1 X139.881 Y103.157 E38.6591
G1 X140.767 Y104.292 E38.6969
G1 X141.588 Y105.026 E38.7257
G1 X144.486 Y106.645 E38.8126
G1 X146.297 Y107.970 E38.8714
G1 X148.536 Y110.435 E38.9586
G1 X149.700 Y112.326 E39.0168
G1 X150.556 Y114.297 E39.0731
G1 X152.796 Y123.904 E39.3315
G1 X153.002 Y126.288 E39.3941
G1 X152.800 Y128.506 E39.4525
G1 X152.159 Y130.903 E39.5175
G1 X151.203 Y133.378 E39.5870
G1 X151.242 Y133.779 E39.5975
G1 X152.815 Y138.419 E39.7258
G1 X153.351 Y140.567 E39.7838
G1 X153.462 Y142.583 E39.8367
G1 X153.115 Y144.271 E39.8819
G1 X155.591 Y148.568 E40.0117
G1 X156.488 Y150.723 E40.0729
G1 X157.110 Y152.817 E40.1301
G1 X157.765 Y156.426 E40.2262
G1 X157.861 Y162.717 E40.3910
G1 X157.412 Y165.161 E40.4561
G1 X156.372 Y168.361 E40.5442
G1 X152.183 Y176.039 E40.7733
G1 X151.062 Y178.832 E40.8521
G1 X149.069 Y183.001 E40.9731
G1 X147.225 Y186.050 E41.0665
G1 X145.001 Y188.400 E41.1512
G1 X142.820 Y189.793 E41.2190
G1 X141.597 Y190.188 E41.2527
G1 X139.207 Y190.146 E41.3153
