;Sliced by ideaMaker 5.1.4.8480, 2025-02-08 13:31:24 UTC+0100
;Slicer Version: 5.1.4.8480
;Dimension: 250.000 250.000 250.000 0.400
;Plate Shape: 0
;Origin Center: 0
;Extruder Offset #1: 25.000 0.000
;Filament Diameter #1: 1.750
;Filament Diameter #2: 1.750
;Filament Compensation #1: 94.000
;Filament Compensation #2: 90.000
;Filament Density #1: 1240.000
;Filament Density #2: 1240.000
;Filament Type #1: PLA
;Filament Type #2: 
;Filament Name #1: [Raise3D] Premium PLA 1.75mm
;Filament Name #2: 
;Printer Type: floppy
;Firmware: Klipper
;Bounding Box: 78.947 169.302 86.737 163.788 0.000 59.900
;Model Gap: 0.000
M221 T0 S94.00
M140 S50.00
M104 T0 S200.00
M109 T0 S200.00
T0
M190 S50.00
G21 ;metric values
G90 ;absolute positioning
M82 ;set extruder to absolute mode
M107 ;start with the fan off
G28 X0 Y0 ;move X/Y to min endstops
G28 Z0 ;move Z to min endstops
G1 Z15.0 F9000 ;move the platform down 15mm
G92 E0 ;zero the extruded length
G1 F200 E1 ;extrude 1mm of feed stock
G92 E0 ;zero the extruded length again
G0 X12 Y17 F2000
G92 X0 Y0 E0
G0 F9000 Z1
G1 F200 Z0
G1 Z15.0 F9000 ;move the platform down 15mm
G1 F9000
G92 E-3
M117 Printing...
M1001
;TOTAL_NUM: 1
;PRINTING_TIME: 0
;REMAINING_TIME: 7916
;LAYER:0
;Z:0.500
;HEIGHT:0.500
M106 S0
;PRINTING: NON-OBJECT
;PRINTING_ID: -1
G1 F2400 E-3.0000
G0 F3900 X110.501 Y92.275
G0 F300 Z0.500
;TYPE:SKIRT
;WIDTH:0.420
;FLOW:55.0
G1 F1500 E0.0000
G1 F900 X112.654 Y89.758 E0.1590
G1 X115.289 Y87.948 E0.3126
G1 X117.200 Y87.192 E0.4112
G1 X119.814 Y86.737 E0.5387
G1 X123.258 Y87.054 E0.7047
G1 X127.689 Y89.165 E0.9404
G1 X129.926 Y91.427 E1.0932
G1 X131.459 Y94.150 E1.2432
G1 X147.392 Y151.235 E4.0892
G1 X153.593 Y149.514 E4.3982
G1 X153.025 Y147.244 E4.5106
G1 X153.281 Y145.031 E4.6176
G1 X153.726 Y144.346 E4.6568
G1 X156.101 Y142.665 E4.7965
G1 X160.234 Y142.917 E4.9953
G1 X163.197 Y144.316 E5.1527
G1 X164.946 Y146.007 E5.2695
G1 X166.108 Y148.014 E5.3809
G1 X169.302 Y159.184 E5.9387
G1 X169.002 Y161.678 E6.0594
G1 X167.330 Y163.788 E6.1886
G1 X141.452 Y163.650 E7.4313
G1 X138.283 Y161.965 E7.6036
G1 X120.696 Y99.607 E10.7148
G1 X120.302 Y99.103 E10.7456
G1 X119.912 Y98.982 E10.7652
G1 X119.553 Y99.074 E10.7830
G1 X119.025 Y99.578 E10.8180
G1 X90.562 Y145.578 E13.4156
G1 X90.026 Y147.024 E13.4896
G1 X90.033 Y148.041 E13.5385
G1 X90.372 Y149.013 E13.5879
G1 X90.973 Y149.799 E13.6354
G1 X91.879 Y150.411 E13.6879
G1 X92.536 Y150.622 E13.7210
G1 X114.237 Y151.570 E14.7641
G1 X115.723 Y152.714 E14.8541
G1 X116.629 Y154.445 E14.9480
G1 X116.325 Y160.554 E15.2417
G1 X112.822 Y162.730 E15.4397
G1 X93.319 Y162.307 E16.3764
G1 X90.834 Y162.014 E16.4966
G1 X88.875 Y161.489 E16.5940
G1 X86.347 Y160.329 E16.7275
G1 X83.378 Y158.064 E16.9069
G1 X81.452 Y155.765 E17.0509
G1 X80.071 Y153.199 E17.1908
G1 X79.404 Y151.241 E17.2901
G1 X78.947 Y147.656 E17.4637
G1 X79.448 Y143.730 E17.6537
G1 X80.860 Y140.260 E17.8336
G1 X110.501 Y92.275 E20.5420
G0 F3900 X110.858 Y92.496
G1 F900 X112.892 Y90.104 E20.6928
G1 X115.527 Y88.294 E20.8463
G1 X117.352 Y87.583 E20.9403
G1 X119.885 Y87.151 E21.0637
G1 X123.218 Y87.472 E21.2245
G1 X127.390 Y89.460 E21.4464
G1 X129.627 Y91.722 E21.5992
G1 X131.092 Y94.354 E21.7438
G1 X147.100 Y151.752 E24.6052
G1 X154.100 Y149.809 E24.9541
G1 X153.432 Y147.142 E25.0861
G1 X153.643 Y145.244 E25.1778
G1 X153.972 Y144.686 E25.2089
G1 X156.199 Y143.073 E25.3410
G1 X160.206 Y143.336 E25.5338
G1 X163.014 Y144.694 E25.6836
G1 X164.651 Y146.306 E25.7939
G1 X165.704 Y148.129 E25.8950
G1 X168.898 Y159.299 E26.4529
G1 X168.586 Y161.622 E26.5654
G1 X167.129 Y163.419 E26.6765
G1 X141.455 Y163.230 E27.9094
G1 X138.608 Y161.699 E28.0646
G1 X121.077 Y99.412 E31.1718
G1 X120.552 Y98.741 E31.2127
G1 X119.922 Y98.545 E31.2444
G1 X119.343 Y98.694 E31.2731
G1 X118.697 Y99.310 E31.3160
G1 X90.182 Y145.394 E33.9182
G1 X89.605 Y146.950 E33.9979
G1 X89.613 Y148.114 E34.0538
G1 X89.997 Y149.215 E34.1098
G1 X90.680 Y150.108 E34.1638
G1 X91.694 Y150.793 E34.2226
G1 X92.463 Y151.040 E34.2614
G1 X114.061 Y151.951 E35.2994
G1 X115.465 Y153.045 E35.3849
G1 X116.253 Y154.632 E35.4700
G1 X115.946 Y160.373 E35.7460
G1 X112.831 Y162.310 E35.9222
G1 X93.328 Y161.887 E36.8589
G1 X90.883 Y161.597 E36.9771
G1 X88.985 Y161.084 E37.0716
G1 X86.523 Y159.948 E37.2018
G1 X83.634 Y157.731 E37.3766
G1 X81.775 Y155.496 E37.5162
G1 X80.441 Y153.001 E37.6521
G1 X79.802 Y151.107 E37.7481
G1 X79.364 Y147.604 E37.9176
G1 X79.864 Y143.785 E38.1025
G1 X81.248 Y140.420 E38.2773
G1 X110.858 Y92.496 E40.9823
G0 F3900 X111.215 Y92.717
G1 F900 X113.130 Y90.450 E41.1248
G1 X115.765 Y88.640 E41.2784
G1 X117.502 Y87.975 E41.3677
G1 X119.954 Y87.565 E41.4870
G1 X123.176 Y87.890 E41.6425
G1 X127.093 Y89.757 E41.8509
G1 X129.261 Y91.928 E41.9982
G1 X130.687 Y94.467 E42.1381
G1 X146.808 Y152.269 E45.0196
G1 X154.606 Y150.104 E45.4082
G1 X153.839 Y147.040 E45.5599
G1 X154.060 Y145.297 E45.6443
G1 X154.222 Y145.023 E45.6596
G1 X156.302 Y143.480 E45.7839
G1 X160.176 Y143.755 E45.9704
G1 X162.827 Y145.070 E46.1125
G1 X164.354 Y146.602 E46.2164
G1 X165.339 Y148.336 E46.3122
G1 X168.494 Y159.414 E46.8653
G1 X168.171 Y161.559 E46.9694
G1 X166.933 Y163.048 E47.0624
G1 X141.459 Y162.810 E48.2857
G1 X138.934 Y161.435 E48.4238
G1 X121.458 Y99.217 E51.5271
G1 X120.803 Y98.379 E51.5781
G1 X119.932 Y98.108 E51.6219
G1 X119.133 Y98.314 E51.6616
G1 X118.369 Y99.042 E51.7122
G1 X89.802 Y145.210 E54.3193
G1 X89.184 Y146.876 E54.4046
G1 X89.193 Y148.187 E54.4675
G1 X89.622 Y149.417 E54.5301
G1 X90.387 Y150.417 E54.5906
G1 X91.509 Y151.175 E54.6556
G1 X92.390 Y151.458 E54.7000
G1 X113.885 Y152.332 E55.7330
G1 X115.095 Y153.244 E55.8058
G1 X115.833 Y154.612 E55.8804
G1 X115.566 Y160.195 E56.1488
G1 X112.840 Y161.890 E56.3030
G1 X93.337 Y161.467 E57.2397
G1 X90.933 Y161.180 E57.3560
G1 X89.096 Y160.679 E57.4474
G1 X86.700 Y159.567 E57.5743
G1 X83.891 Y157.399 E57.7446
G1 X82.099 Y155.229 E57.8798
G1 X80.812 Y152.804 E58.0116
G1 X80.200 Y150.974 E58.1043
G1 X79.781 Y147.553 E58.2698
G1 X80.280 Y143.841 E58.4496
G1 X81.636 Y140.581 E58.6192
G1 X111.215 Y92.717 E61.3210
G0 F3900 X111.572 Y92.938
G1 F900 X113.369 Y90.795 E61.4553
G1 X115.915 Y89.032 E61.6040
G1 X117.652 Y88.367 E61.6934
G1 X120.022 Y87.980 E61.8087
G1 X123.132 Y88.308 E61.9588
G1 X126.797 Y90.055 E62.1538
G1 X128.896 Y92.135 E62.2957
G1 X130.282 Y94.580 E62.4307
G1 X146.516 Y152.786 E65.3323
G1 X155.112 Y150.400 E65.7607
G1 X154.246 Y146.938 E65.9321
G1 X154.476 Y145.357 E66.0088
G1 X156.410 Y143.886 E66.1255
G1 X160.144 Y144.174 E66.3053
G1 X162.636 Y145.444 E66.4396
G1 X163.990 Y146.812 E66.5321
G1 X164.935 Y148.451 E66.6229
G1 X168.090 Y159.529 E67.1760
G1 X167.844 Y161.296 E67.2617
G1 X166.731 Y162.680 E67.3470
G1 X141.464 Y162.390 E68.5603
G1 X139.262 Y161.173 E68.6812
G1 X121.839 Y99.022 E71.7807
G1 X121.054 Y98.017 E71.8419
G1 X119.942 Y97.672 E71.8978
G1 X118.922 Y97.934 E71.9484
G1 X118.041 Y98.774 E72.0068
G1 X89.422 Y145.026 E74.6186
G1 X88.763 Y146.802 E74.7096
G1 X88.774 Y148.260 E74.7796
G1 X89.246 Y149.616 E74.8485
G1 X90.097 Y150.727 E74.9157
G1 X91.325 Y151.557 E74.9869
G1 X92.316 Y151.876 E75.0369
G1 X113.710 Y152.714 E76.0650
G1 X114.840 Y153.578 E76.1333
G1 X115.458 Y154.801 E76.1991
G1 X115.187 Y160.015 E76.4498
G1 X112.849 Y161.470 E76.5821
G1 X93.346 Y161.047 E77.5188
G1 X90.983 Y160.763 E77.6331
G1 X89.208 Y160.274 E77.7215
G1 X86.878 Y159.186 E77.8450
G1 X84.149 Y157.067 E78.0109
G1 X82.424 Y154.963 E78.1415
G1 X81.184 Y152.608 E78.2693
G1 X80.599 Y150.842 E78.3587
G1 X80.198 Y147.503 E78.5202
G1 X80.696 Y143.898 E78.6949
G1 X82.023 Y140.744 E78.8592
G1 X111.572 Y92.938 E81.5580
G0 F3900 X111.929 Y93.159
G1 F900 X113.609 Y91.139 E81.6841
G1 X116.065 Y89.424 E81.8280
G1 X117.802 Y88.759 E81.9173
G1 X120.088 Y88.395 E82.0284
G1 X123.086 Y88.725 E82.1733
G1 X126.501 Y90.353 E82.3549
G1 X128.600 Y92.433 E82.4968
G1 X129.915 Y94.785 E82.6262
G1 X146.224 Y153.303 E85.5433
G1 X155.619 Y150.695 E86.0115
G1 X154.653 Y146.836 E86.2025
G1 X154.837 Y145.571 E86.2639
G1 X156.518 Y144.292 E86.3654
G1 X159.956 Y144.550 E86.5309
G1 X162.337 Y145.739 E86.6587
G1 X163.691 Y147.107 E86.7511
G1 X164.570 Y148.658 E86.8367
G1 X167.686 Y159.644 E87.3851
G1 X167.429 Y161.229 E87.4622
G1 X166.534 Y162.309 E87.5296
G1 X141.470 Y161.970 E88.7332
G1 X139.592 Y160.913 E88.8367
G1 X122.228 Y98.857 E91.9310
G1 X121.834 Y98.167 E91.9692
G1 X121.291 Y97.665 E92.0047
G1 X120.623 Y97.346 E92.0403
G1 X119.920 Y97.244 E92.0744
G1 X118.711 Y97.554 E92.1343
G1 X117.713 Y98.506 E92.2005
G1 X89.042 Y144.842 E94.8171
G1 X88.342 Y146.728 E94.9137
G1 X88.355 Y148.333 E94.9907
G1 X88.870 Y149.815 E95.0661
G1 X89.807 Y151.038 E95.1401
G1 X91.140 Y151.939 E95.2173
G1 X92.242 Y152.294 E95.2729
G1 X113.535 Y153.096 E96.2961
G1 X114.582 Y153.910 E96.3598
G1 X115.077 Y154.978 E96.4163
G1 X114.808 Y159.834 E96.6499
G1 X112.858 Y161.050 E96.7602
G1 X93.355 Y160.627 E97.6969
G1 X91.033 Y160.346 E97.8093
G1 X89.321 Y159.869 E97.8946
G1 X87.057 Y158.806 E98.0147
G1 X84.408 Y156.736 E98.1761
G1 X82.750 Y154.698 E98.3023
G1 X81.556 Y152.413 E98.4261
G1 X80.998 Y150.711 E98.5121
G1 X80.615 Y147.454 E98.6696
G1 X81.112 Y143.957 E98.8392
G1 X82.409 Y140.908 E98.9983
G1 X111.929 Y93.159 E101.6940
G0 F3900 X112.286 Y93.380
G1 F900 X113.851 Y91.482 E101.8121
G1 X116.215 Y89.816 E101.9510
G1 X117.952 Y89.151 E102.0403
G1 X120.152 Y88.810 E102.1472
G1 X123.038 Y89.142 E102.2867
G1 X126.207 Y90.653 E102.4553
G1 X128.233 Y92.638 E102.5915
G1 X129.548 Y94.990 E102.7209
G1 X145.932 Y153.820 E105.6534
G1 X156.126 Y150.991 E106.1614
G1 X155.060 Y146.734 E106.3721
G1 X155.198 Y145.785 E106.4182
G1 X156.626 Y144.698 E106.5043
G1 X159.772 Y144.927 E106.6558
G1 X162.038 Y146.034 E106.7769
G1 X163.392 Y147.402 E106.8693
G1 X164.203 Y148.862 E106.9495
G1 X167.282 Y159.758 E107.4932
G1 X167.016 Y161.150 E107.5613
G1 X166.343 Y161.935 E107.6109
G1 X141.477 Y161.550 E108.8051
G1 X139.924 Y160.656 E108.8912
G1 X122.620 Y98.696 E111.9803
G1 X122.166 Y97.903 E112.0242
G1 X121.528 Y97.313 E112.0659
G1 X120.746 Y96.939 E112.1075
G1 X119.898 Y96.816 E112.1487
G1 X118.500 Y97.174 E112.2180
G1 X117.385 Y98.238 E112.2920
G1 X88.675 Y144.636 E114.9120
G1 X88.264 Y145.439 E114.9553
G1 X87.921 Y146.671 E115.0168
G1 X87.936 Y148.406 E115.1001
G1 X88.494 Y150.014 E115.1818
G1 X89.517 Y151.349 E115.2626
G1 X90.955 Y152.321 E115.3459
G1 X92.169 Y152.712 E115.4072
G1 X113.361 Y153.478 E116.4254
G1 X114.321 Y154.239 E116.4843
G1 X114.688 Y155.137 E116.5309
G1 X114.429 Y159.652 E116.7480
G1 X112.867 Y160.630 E116.8365
G1 X93.364 Y160.207 E117.7733
G1 X91.084 Y159.929 E117.8836
G1 X89.435 Y159.465 E117.9658
G1 X87.236 Y158.426 E118.0826
G1 X84.668 Y156.406 E118.2395
G1 X83.077 Y154.434 E118.3612
G1 X81.929 Y152.220 E118.4809
G1 X81.397 Y150.581 E118.5637
G1 X81.032 Y147.406 E118.7171
G1 X81.528 Y144.018 E118.8816
G1 X82.795 Y141.074 E119.0355
G1 X112.286 Y93.380 E121.7282
G0 F3900 X112.643 Y93.601
G1 F900 X114.095 Y91.824 E121.8383
G1 X116.365 Y90.208 E121.9722
G1 X118.102 Y89.543 E122.0615
G1 X120.215 Y89.225 E122.1641
G1 X122.988 Y89.559 E122.2982
G1 X125.915 Y90.955 E122.4539
G1 X127.866 Y92.843 E122.5843
G1 X129.181 Y95.195 E122.7137
G1 X145.639 Y154.337 E125.6615
G1 X156.633 Y151.286 E126.2094
G1 X155.467 Y146.632 E126.4398
G1 X155.559 Y145.999 E126.4705
G1 X156.734 Y145.104 E126.5415
G1 X159.591 Y145.306 E126.6790
G1 X161.742 Y146.332 E126.7934
G1 X163.026 Y147.609 E126.8804
G1 X163.799 Y148.976 E126.9558
G1 X166.878 Y159.872 E127.4995
G1 X166.607 Y161.056 E127.5578
G1 X166.160 Y161.557 E127.5901
G1 X141.484 Y161.130 E128.7752
G1 X140.260 Y160.404 E128.8435
G1 X123.011 Y98.532 E131.9279
G1 X122.501 Y97.641 E131.9772
G1 X121.765 Y96.961 E132.0253
G1 X120.869 Y96.532 E132.0730
G1 X119.876 Y96.388 E132.1212
G1 X118.310 Y96.789 E132.1988
G1 X117.464 Y97.447 E132.2502
G1 X117.040 Y97.998 E132.2836
G1 X88.306 Y144.435 E134.9059
G1 X87.870 Y145.285 E134.9517
G1 X87.500 Y146.614 E135.0180
G1 X87.517 Y148.479 E135.1076
G1 X88.118 Y150.213 E135.1957
G1 X89.227 Y151.660 E135.2832
G1 X90.771 Y152.703 E135.3727
G1 X92.096 Y153.130 E135.4395
G1 X113.188 Y153.861 E136.4530
G1 X113.941 Y154.417 E136.4979
G1 X114.269 Y155.116 E136.5350
G1 X114.049 Y159.473 E136.7445
G1 X112.876 Y160.210 E136.8110
G1 X93.373 Y159.787 E137.7477
G1 X91.135 Y159.512 E137.8560
G1 X89.550 Y159.061 E137.9352
G1 X87.416 Y158.047 E138.0486
G1 X84.929 Y156.077 E138.2010
G1 X83.405 Y154.172 E138.3181
G1 X82.303 Y152.028 E138.4339
G1 X81.797 Y150.453 E138.5133
G1 X81.449 Y147.359 E138.6628
G1 X81.943 Y144.081 E138.8220
G1 X83.180 Y141.242 E138.9707
G1 X112.643 Y93.601 E141.6605
G0 F3900 X113.000 Y93.822
G1 F900 X114.340 Y92.165 E141.7629
G1 X116.515 Y90.600 E141.8915
G1 X118.252 Y89.935 E141.9808
G1 X120.275 Y89.641 E142.0790
G1 X122.936 Y89.976 E142.2078
G1 X125.625 Y91.259 E142.3509
G1 X127.499 Y93.048 E142.4753
G1 X128.814 Y95.400 E142.6047
G1 X145.346 Y154.854 E145.5679
G1 X157.140 Y151.582 E146.1556
G1 X155.874 Y146.530 E146.4057
G1 X155.920 Y146.213 E146.4211
G1 X156.842 Y145.510 E146.4768
G1 X159.414 Y145.687 E146.6006
G1 X161.448 Y146.632 E146.7083
G1 X162.662 Y147.819 E146.7898
G1 X163.395 Y149.090 E146.8603
G1 X166.474 Y159.986 E147.4040
G1 X166.203 Y160.941 E147.4517
G1 X165.985 Y161.175 E147.4670
G1 X141.492 Y160.710 E148.6434
G1 X140.601 Y160.158 E148.6937
G1 X123.403 Y98.371 E151.7735
G1 X122.833 Y97.377 E151.8285
G1 X122.003 Y96.609 E151.8828
G1 X120.992 Y96.125 E151.9366
G1 X119.873 Y95.963 E151.9909
G1 X118.739 Y96.144 E152.0460
G1 X118.092 Y96.426 E152.0799
G1 X117.165 Y97.147 E152.1363
G1 X116.695 Y97.758 E152.1733
G1 X87.939 Y144.229 E154.7975
G1 X87.476 Y145.134 E154.8463
G1 X87.079 Y146.557 E154.9173
G1 X87.098 Y148.553 E155.0131
G1 X87.743 Y150.414 E155.1077
G1 X88.935 Y151.969 E155.2018
G1 X90.586 Y153.085 E155.2975
G1 X92.004 Y153.542 E155.3690
G1 X92.991 Y153.651 E155.4167
G1 X113.017 Y154.244 E156.3788
G1 X113.687 Y154.752 E156.4191
G1 X113.849 Y155.098 E156.4375
G1 X113.668 Y159.296 E156.6393
G1 X112.885 Y159.790 E156.6837
G1 X93.382 Y159.367 E157.6205
G1 X91.187 Y159.095 E157.7267
G1 X89.666 Y158.657 E157.8027
G1 X87.597 Y157.668 E157.9128
G1 X85.191 Y155.749 E158.0606
G1 X83.734 Y153.911 E158.1732
G1 X82.677 Y151.837 E158.2850
G1 X82.197 Y150.326 E158.3611
G1 X81.866 Y147.313 E158.5067
G1 X82.358 Y144.145 E158.6606
G1 X83.564 Y141.412 E158.8041
G1 X113.000 Y93.822 E161.4911
G0 F3900 X113.357 Y94.043
G1 F900 X114.587 Y92.505 E161.5857
G1 X116.665 Y90.992 E161.7091
G1 X118.402 Y90.327 E161.7984
G1 X120.333 Y90.057 E161.8921
G1 X122.881 Y90.392 E162.0155
G1 X125.337 Y91.565 E162.1462
G1 X127.133 Y93.255 E162.2646
G1 X128.409 Y95.513 E162.3891
G1 X145.053 Y155.371 E165.3725
G1 X157.647 Y151.878 E166.0001
G1 X156.281 Y146.428 E166.2699
G1 X156.818 Y145.929 E166.3051
G1 X159.241 Y146.070 E166.4216
G1 X161.157 Y146.935 E166.5226
G1 X162.298 Y148.029 E166.5985
G1 X163.031 Y149.300 E166.6690
G1 X166.070 Y160.100 E167.2077
G1 X165.810 Y160.793 E167.2432
G1 X141.501 Y160.290 E168.4108
G1 X140.949 Y159.923 E168.4426
G1 X123.794 Y98.210 E171.5184
G1 X123.165 Y97.113 E171.5791
G1 X122.241 Y96.257 E171.6396
G1 X121.115 Y95.718 E171.6996
G1 X119.870 Y95.538 E171.7600
G1 X118.621 Y95.737 E171.8207
G1 X117.877 Y96.061 E171.8597
G1 X116.864 Y96.850 E171.9213
G1 X116.350 Y97.518 E171.9618
G1 X87.570 Y144.028 E174.5882
G1 X87.082 Y144.980 E174.6396
G1 X86.658 Y146.500 E174.7153
G1 X86.679 Y148.626 E174.8174
G1 X87.368 Y150.616 E174.9185
G1 X88.643 Y152.278 E175.0191
G1 X90.401 Y153.467 E175.1210
G1 X91.912 Y153.954 E175.1973
G1 X92.970 Y154.071 E175.2484
G1 X112.846 Y154.628 E176.2032
G1 X113.429 Y155.083 E176.2387
G1 X113.286 Y159.122 E176.4328
G1 X112.894 Y159.370 E176.4551
G1 X93.391 Y158.947 E177.3918
G1 X91.239 Y158.678 E177.4959
G1 X89.783 Y158.254 E177.5688
G1 X87.779 Y157.290 E177.6755
G1 X85.454 Y155.422 E177.8188
G1 X84.064 Y153.652 E177.9268
G1 X83.052 Y151.648 E178.0346
G1 X82.598 Y150.200 E178.1075
G1 X82.284 Y147.268 E178.2491
G1 X82.742 Y144.315 E178.3926
G1 X83.948 Y141.582 E178.5360
G1 X113.357 Y94.043 E181.2203
G0 F3900 X113.714 Y94.264
