;Sliced by ideaMaker 5.2.3.8580, 2025-04-27 17:55:55 UTC+0200
;Slicer Version: 5.2.3.8580
;Dimension: 250.000 250.000 250.000 0.400
;Plate Shape: 0
;Origin Center: 0
;Extruder Offset #1: 25.000 0.000
;Filament Diameter #1: 1.750
;Filament Diameter #2: 1.750
;Filament Compensation #1: 94.000
;Filament Compensation #2: 90.000
;Filament Density #1: 1240.000
;Filament Density #2: 1240.000
;Filament Type #1: PLA
;Filament Type #2: PLA
;Filament Name #1: [Raise3D] Premium PLA 1.75mm
;Filament Name #2: [Raise3D] Premium PLA 1.75mm
;Filament #1: PLA 1.75mm
;Filament #2: PLA 1.75mm
;Printer Type: floppy
;Firmware: Klipper
;Bounding Box: 79.654 170.251 86.917 163.175 0.000 60.000
;Model Gap: 0.000
M221 T0 S94.00
M140 S50.00
M104 T0 S190.00
M109 T0 S190.00
T0
M190 S50.00
G21 ;metric values
G90 ;absolute positioning
M82 ;set extruder to absolute mode
M107 ;start with the fan off
G28 X0 Y0 ;move X/Y to min endstops
G28 Z0 ;move Z to min endstops
G1 Z15.0 F9000 ;move the platform down 15mm
G92 E0 ;zero the extruded length
G0 X43 Y27 F2000  ;go to the edge of the bed
G92 X0 Y0 E0 ;set zero to edge of the bed
G0 F9000 Z1 ;Z up with 1mm
G1 F200 Z0 ;Z home slowly
G1 Z15.0 F9000 ;move the platform down 15mm
G1 F9000 ;speed setting
G92 E-3 ;retraction
M117 Printing...
M1001
;TOTAL_NUM: 1
;PRINTING_TIME: 0
;REMAINING_TIME: 8164
;LAYER:0
;Z:0.300
;HEIGHT:0.300
;PRINTING: NON-OBJECT
;PRINTING_ID: -1
G1 F2400 E-3.0000
G0 F3900 X109.913 Y92.185
G0 F300 Z0.300
;TYPE:SKIRT
;WIDTH:0.420
G1 F1500 E0.0000
G1 F900 X112.149 Y89.677 E0.1760
G1 X114.658 Y88.037 E0.3330
G1 X117.778 Y87.028 E0.5048
G1 X120.910 Y86.917 E0.6690
G1 X124.038 Y87.655 E0.8373
G1 X126.692 Y89.104 E0.9957
G1 X129.013 Y91.335 E1.1644
G1 X130.596 Y93.991 E1.3264
G1 X148.111 Y150.603 E4.4307
G1 X154.289 Y148.701 E4.7693
G1 X153.631 Y146.474 E4.8909
G1 X153.750 Y144.418 E4.9988
G1 X154.878 Y142.768 E5.1035
G1 X156.303 Y141.905 E5.1908
G1 X160.714 Y141.927 E5.4218
G1 X163.697 Y143.221 E5.5922
G1 X165.476 Y144.830 E5.7178
G1 X166.691 Y146.792 E5.8387
G1 X170.251 Y157.981 E6.4538
G1 X169.954 Y160.680 E6.5961
G1 X168.437 Y162.636 E6.7257
G1 X142.518 Y163.175 E8.0838
G1 X139.319 Y161.596 E8.2707
G1 X120.081 Y99.957 E11.6532
G1 X119.670 Y99.303 E11.6937
G1 X119.223 Y99.133 E11.7187
G1 X118.839 Y99.225 E11.7394
G1 X118.289 Y99.797 E11.7810
G1 X91.170 Y146.493 E14.6097
G1 X90.653 Y147.965 E14.6915
G1 X90.691 Y149.015 E14.7465
G1 X91.050 Y149.962 E14.7996
G1 X91.686 Y150.742 E14.8523
G1 X92.630 Y151.339 E14.9108
G1 X93.246 Y151.519 E14.9444
G1 X114.982 Y151.860 E16.0832
G1 X116.507 Y152.971 E16.1820
G1 X117.460 Y154.678 E16.2844
G1 X117.321 Y160.806 E16.6055
G1 X113.874 Y163.076 E16.8217
G1 X94.366 Y163.175 E17.8437
G1 X91.869 Y162.949 E17.9750
G1 X89.096 Y162.193 E18.1256
G1 X86.510 Y160.905 E18.2769
G1 X84.208 Y159.128 E18.4292
G1 X82.306 Y156.942 E18.5810
G1 X80.484 Y153.439 E18.7879
G1 X79.668 Y149.898 E18.9782
G1 X79.654 Y146.884 E19.1361
G1 X80.001 Y144.833 E19.2451
G1 X81.311 Y141.462 E19.4345
G1 X109.913 Y92.185 E22.4192
G0 F3900 X110.276 Y92.396
G1 F900 X112.462 Y89.957 E22.5908
G1 X114.886 Y88.390 E22.7420
G1 X117.795 Y87.448 E22.9022
G1 X120.815 Y87.326 E23.0605
G1 X123.839 Y88.025 E23.2231
G1 X126.402 Y89.408 E23.3757
G1 X128.652 Y91.550 E23.5384
G1 X130.235 Y94.206 E23.7004
G1 X147.834 Y151.127 E26.8214
G1 X154.809 Y148.980 E27.2037
G1 X154.034 Y146.355 E27.3471
G1 X154.169 Y144.448 E27.4473
G1 X155.217 Y143.016 E27.5402
G1 X156.513 Y142.269 E27.6186
G1 X160.706 Y142.347 E27.8383
G1 X163.526 Y143.605 E28.0000
G1 X165.191 Y145.139 E28.1186
G1 X166.291 Y146.919 E28.2282
G1 X169.851 Y158.108 E28.8433
G1 X169.619 Y160.427 E28.9654
G1 X168.224 Y162.274 E29.0867
G1 X142.510 Y162.755 E30.4339
G1 X139.636 Y161.320 E30.6022
G1 X120.466 Y99.780 E33.9787
G1 X119.951 Y98.960 E34.0295
G1 X119.252 Y98.695 E34.0686
G1 X118.621 Y98.846 E34.1026
G1 X117.952 Y99.542 E34.1532
G1 X90.787 Y146.316 E36.9867
G1 X90.230 Y147.902 E37.0747
G1 X90.273 Y149.099 E37.1375
G1 X90.681 Y150.174 E37.1977
G1 X91.404 Y151.061 E37.2577
G1 X92.453 Y151.725 E37.3227
G1 X93.185 Y151.938 E37.3626
G1 X114.816 Y152.246 E38.4959
G1 X116.258 Y153.309 E38.5897
G1 X117.089 Y154.875 E38.6826
G1 X116.937 Y160.636 E38.9845
G1 X113.872 Y162.656 E39.1768
G1 X94.364 Y162.755 E40.1987
G1 X91.907 Y162.531 E40.3280
G1 X89.207 Y161.788 E40.4746
G1 X86.698 Y160.530 E40.6217
G1 X84.466 Y158.796 E40.7697
G1 X82.624 Y156.667 E40.9172
G1 X80.857 Y153.246 E41.1189
G1 X80.078 Y149.805 E41.3037
G1 X80.074 Y146.883 E41.4568
G1 X80.415 Y144.904 E41.5620
G1 X81.702 Y141.615 E41.7470
G1 X110.276 Y92.396 E44.7283
G0 F3900 X110.639 Y92.607
G1 F900 X112.692 Y90.309 E44.8898
G1 X115.017 Y88.789 E45.0353
G1 X117.814 Y87.868 E45.1895
G1 X120.722 Y87.736 E45.3420
G1 X123.641 Y88.396 E45.4988
G1 X126.114 Y89.714 E45.6456
G1 X128.292 Y91.766 E45.8023
G1 X129.834 Y94.330 E45.9591
G1 X147.557 Y151.652 E49.1021
G1 X155.330 Y149.259 E49.5282
G1 X154.437 Y146.236 E49.6933
G1 X154.587 Y144.484 E49.7854
G1 X155.546 Y143.277 E49.8662
G1 X156.715 Y142.637 E49.9360
G1 X160.692 Y142.767 E50.1444
G1 X163.351 Y143.987 E50.2977
G1 X164.904 Y145.445 E50.4093
G1 X165.891 Y147.046 E50.5078
G1 X169.451 Y158.235 E51.1229
G1 X169.280 Y160.179 E51.2251
G1 X168.006 Y161.915 E51.3379
G1 X142.503 Y162.335 E52.6741
G1 X139.954 Y161.046 E52.8237
G1 X120.851 Y99.603 E56.1943
G1 X120.232 Y98.617 E56.2553
G1 X119.281 Y98.256 E56.3086
G1 X118.403 Y98.467 E56.3559
G1 X117.615 Y99.287 E56.4155
G1 X90.404 Y146.139 E59.2537
G1 X89.807 Y147.839 E59.3481
G1 X89.856 Y149.183 E59.4186
G1 X90.312 Y150.386 E59.4860
G1 X91.122 Y151.380 E59.5531
G1 X92.277 Y152.111 E59.6247
G1 X93.124 Y152.357 E59.6709
G1 X114.651 Y152.632 E60.7987
G1 X116.007 Y153.645 E60.8874
G1 X116.713 Y155.062 E60.9703
G1 X116.554 Y160.465 E61.2535
G1 X113.870 Y162.236 E61.4219
G1 X94.362 Y162.335 E62.4438
G1 X91.945 Y162.113 E62.5710
G1 X89.320 Y161.383 E62.7137
G1 X86.887 Y160.155 E62.8565
G1 X84.725 Y158.465 E63.0002
G1 X82.942 Y156.393 E63.1434
G1 X81.231 Y153.054 E63.3400
G1 X80.488 Y149.714 E63.5192
G1 X80.494 Y146.884 E63.6675
G1 X80.829 Y144.977 E63.7689
G1 X82.093 Y141.769 E63.9495
G1 X110.639 Y92.607 E66.9275
G0 F3900 X111.002 Y92.818
G1 F900 X112.924 Y90.659 E67.0789
G1 X115.151 Y89.187 E67.2188
G1 X117.835 Y88.287 E67.3671
G1 X120.629 Y88.146 E67.5136
G1 X123.548 Y88.806 E67.6704
G1 X125.826 Y90.020 E67.8056
G1 X128.004 Y92.072 E67.9624
G1 X129.433 Y94.454 E68.1079
G1 X147.280 Y152.176 E71.2729
G1 X155.850 Y149.538 E71.7426
G1 X154.840 Y146.117 E71.9295
G1 X155.005 Y144.527 E72.0132
G1 X155.861 Y143.555 E72.0810
G1 X156.909 Y143.009 E72.1429
G1 X160.672 Y143.187 E72.3403
G1 X163.172 Y144.367 E72.4851
G1 X164.614 Y145.748 E72.5897
G1 X165.532 Y147.264 E72.6825
G1 X169.051 Y158.362 E73.2924
G1 X168.862 Y160.134 E73.3858
G1 X167.792 Y161.553 E73.4789
G1 X142.497 Y161.915 E74.8041
G1 X140.274 Y160.774 E74.9350
G1 X121.242 Y99.447 E78.2987
G1 X120.874 Y98.688 E78.3429
G1 X120.471 Y98.258 E78.3738
G1 X119.310 Y97.817 E78.4388
G1 X118.185 Y98.088 E78.4995
G1 X117.278 Y99.032 E78.5680
G1 X90.021 Y145.962 E81.4110
G1 X89.384 Y147.776 E81.5117
G1 X89.439 Y149.268 E81.5899
G1 X89.943 Y150.598 E81.6645
G1 X90.840 Y151.699 E81.7388
G1 X92.101 Y152.497 E81.8170
G1 X93.063 Y152.776 E81.8695
G1 X114.487 Y153.018 E82.9919
G1 X115.638 Y153.845 E83.0661
G1 X116.293 Y155.052 E83.1380
G1 X116.170 Y160.296 E83.4128
G1 X113.868 Y161.816 E83.5573
G1 X94.360 Y161.915 E84.5793
G1 X91.984 Y161.695 E84.7043
G1 X89.434 Y160.979 E84.8430
G1 X87.077 Y159.781 E84.9815
G1 X84.985 Y158.135 E85.1210
G1 X83.261 Y156.120 E85.2599
G1 X81.605 Y152.864 E85.4512
G1 X80.898 Y149.624 E85.6249
G1 X80.914 Y146.886 E85.7684
G1 X81.242 Y145.051 E85.8660
G1 X82.483 Y141.924 E86.0423
G1 X111.002 Y92.818 E89.0170
G0 F3900 X111.365 Y93.029
G1 F900 X113.237 Y90.939 E89.1640
G1 X115.381 Y89.539 E89.2981
G1 X117.858 Y88.706 E89.4350
G1 X120.538 Y88.556 E89.5756
G1 X123.350 Y89.177 E89.7265
G1 X125.628 Y90.391 E89.8617
G1 X127.715 Y92.376 E90.0126
G1 X129.072 Y94.668 E90.1521
G1 X147.003 Y152.700 E93.3339
G1 X156.371 Y149.817 E93.8474
G1 X155.243 Y145.998 E94.0560
G1 X155.375 Y144.726 E94.1230
G1 X156.174 Y143.835 E94.1857
G1 X157.093 Y143.387 E94.2392
G1 X160.496 Y143.568 E94.4177
G1 X162.884 Y144.672 E94.5556
G1 X164.256 Y145.968 E94.6544
G1 X165.132 Y147.391 E94.7420
G1 X168.651 Y158.489 E95.3519
G1 X168.445 Y160.080 E95.4359
G1 X167.584 Y161.188 E95.5094
G1 X142.492 Y161.495 E96.8239
G1 X140.596 Y160.504 E96.9360
G1 X121.633 Y99.291 E100.2930
G1 X121.225 Y98.449 E100.3420
G1 X120.732 Y97.923 E100.3798
G1 X120.084 Y97.554 E100.4188
G1 X119.337 Y97.393 E100.4588
G1 X118.624 Y97.453 E100.4963
G1 X117.942 Y97.734 E100.5350
G1 X116.941 Y98.777 E100.6107
G1 X89.639 Y145.785 E103.4584
G1 X88.961 Y147.714 E103.5655
G1 X89.022 Y149.352 E103.6514
G1 X89.574 Y150.810 E103.7330
G1 X90.558 Y152.018 E103.8147
G1 X91.925 Y152.883 E103.8994
G1 X93.003 Y153.195 E103.9582
G1 X114.323 Y153.405 E105.0751
G1 X115.390 Y154.184 E105.1443
G1 X115.917 Y155.240 E105.2061
G1 X115.786 Y160.126 E105.4622
G1 X113.866 Y161.396 E105.5828
G1 X94.358 Y161.495 E106.6047
G1 X92.023 Y161.277 E106.7275
G1 X89.549 Y160.575 E106.8623
G1 X87.268 Y159.407 E106.9965
G1 X85.246 Y157.806 E107.1316
G1 X83.581 Y155.848 E107.2662
G1 X81.980 Y152.675 E107.4524
G1 X81.309 Y149.536 E107.6206
G1 X81.334 Y146.890 E107.7592
G1 X81.655 Y145.126 E107.8531
G1 X82.873 Y142.080 E108.0250
G1 X111.365 Y93.029 E110.9965
G0 F3900 X111.728 Y93.240
G1 F900 X113.467 Y91.291 E111.1333
G1 X115.611 Y89.891 E111.2675
G1 X117.990 Y89.105 E111.3987
G1 X120.450 Y88.967 E111.5278
G1 X123.152 Y89.548 E111.6726
G1 X125.430 Y90.762 E111.8078
G1 X127.355 Y92.592 E111.9469
G1 X128.671 Y94.792 E112.0812
G1 X146.726 Y153.224 E115.2850
G1 X156.892 Y150.096 E115.8421
G1 X155.646 Y145.879 E116.0725
G1 X155.745 Y144.925 E116.1227
G1 X156.484 Y144.119 E116.1800
G1 X157.074 Y143.807 E116.2150
G1 X160.323 Y143.951 E116.3853
G1 X162.598 Y144.980 E116.5161
G1 X163.900 Y146.191 E116.6093
G1 X164.732 Y147.518 E116.6913
G1 X168.251 Y158.616 E117.3012
G1 X168.030 Y160.014 E117.3754
G1 X167.382 Y160.820 E117.4295
G1 X142.488 Y161.075 E118.7337
G1 X140.920 Y160.237 E118.8268
G1 X122.024 Y99.135 E122.1772
G1 X121.576 Y98.210 E122.2310
G1 X120.993 Y97.588 E122.2757
G1 X120.234 Y97.156 E122.3214
G1 X119.367 Y96.969 E122.3679
G1 X118.524 Y97.041 E122.4122
G1 X117.700 Y97.380 E122.4589
G1 X116.604 Y98.522 E122.5418
G1 X89.257 Y145.608 E125.3942
G1 X88.538 Y147.652 E125.5077
G1 X88.605 Y149.436 E125.6013
G1 X89.205 Y151.022 E125.6901
G1 X90.276 Y152.337 E125.7789
G1 X91.749 Y153.269 E125.8702
G1 X92.943 Y153.615 E125.9354
G1 X114.160 Y153.792 E127.0468
G1 X115.139 Y154.521 E127.1108
G1 X115.533 Y155.410 E127.1617
G1 X115.402 Y159.955 E127.3999
G1 X113.864 Y160.976 E127.4966
G1 X94.356 Y161.075 E128.5185
G1 X92.062 Y160.859 E128.6393
G1 X89.665 Y160.171 E128.7699
G1 X87.460 Y159.034 E128.8998
G1 X85.508 Y157.478 E129.0306
G1 X83.902 Y155.577 E129.1610
G1 X82.391 Y152.587 E129.3365
G1 X81.720 Y149.448 E129.5046
G1 X81.754 Y146.896 E129.6383
G1 X82.068 Y145.203 E129.7285
G1 X83.263 Y142.237 E129.8960
G1 X111.728 Y93.240 E132.8644
G0 F3900 X112.091 Y93.451
G1 F900 X113.697 Y91.643 E132.9911
G1 X115.841 Y90.243 E133.1252
G1 X118.119 Y89.505 E133.2507
G1 X120.364 Y89.378 E133.3685
G1 X122.954 Y89.919 E133.5071
G1 X125.232 Y91.133 E133.6423
G1 X127.064 Y92.895 E133.7755
G1 X128.309 Y95.005 E133.9038
G1 X146.449 Y153.748 E137.1244
G1 X157.413 Y150.375 E137.7253
G1 X156.049 Y145.760 E137.9774
G1 X156.115 Y145.124 E138.0109
G1 X156.790 Y144.407 E138.0625
G1 X157.254 Y144.187 E138.0894
G1 X160.153 Y144.335 E138.2415
G1 X162.314 Y145.290 E138.3652
G1 X163.546 Y146.418 E138.4527
G1 X164.332 Y147.645 E138.5291
G1 X167.851 Y158.743 E139.1389
G1 X167.618 Y159.933 E139.2025
G1 X167.187 Y160.448 E139.2376
G1 X142.484 Y160.655 E140.5318
G1 X141.247 Y159.974 E140.6057
G1 X122.415 Y98.979 E143.9498
G1 X121.927 Y97.971 E144.0084
G1 X121.254 Y97.253 E144.0600
G1 X120.384 Y96.758 E144.1124
G1 X119.397 Y96.545 E144.1653
G1 X118.423 Y96.628 E144.2165
G1 X117.457 Y97.026 E144.2712
G1 X116.267 Y98.267 E144.3613
G1 X88.880 Y145.421 E147.2179
G1 X88.281 Y146.818 E147.2975
G1 X88.116 Y147.620 E147.3404
G1 X88.188 Y149.520 E147.4400
G1 X88.836 Y151.234 E147.5360
G1 X89.994 Y152.656 E147.6320
G1 X91.573 Y153.655 E147.7299
G1 X92.883 Y154.035 E147.8014
G1 X113.997 Y154.179 E148.9074
G1 X114.764 Y154.710 E148.9563
G1 X115.113 Y155.401 E148.9969
G1 X115.017 Y159.786 E149.2266
G1 X113.862 Y160.556 E149.2993
G1 X94.354 Y160.655 E150.3213
G1 X92.102 Y160.441 E150.4398
G1 X89.782 Y159.768 E150.5663
G1 X87.654 Y158.661 E150.6920
G1 X85.771 Y157.150 E150.8185
G1 X84.224 Y155.307 E150.9445
G1 X82.766 Y152.399 E151.1149
G1 X82.131 Y149.362 E151.2774
G1 X82.174 Y146.903 E151.4063
G1 X82.481 Y145.281 E151.4928
G1 X83.652 Y142.395 E151.6559
G1 X112.091 Y93.451 E154.6212
G0 F3900 X112.454 Y93.662
G1 F900 X113.929 Y91.993 E154.7379
G1 X115.973 Y90.642 E154.8662
G1 X118.146 Y89.924 E154.9861
G1 X120.278 Y89.789 E155.0980
G1 X122.868 Y90.330 E155.2366
G1 X125.032 Y91.502 E155.3656
G1 X126.702 Y93.108 E155.4869
G1 X127.947 Y95.218 E155.6153
G1 X146.172 Y154.273 E158.8528
G1 X157.934 Y150.654 E159.4975
G1 X156.452 Y145.641 E159.7713
G1 X156.485 Y145.323 E159.7881
G1 X157.091 Y144.700 E159.8336
G1 X157.405 Y144.579 E159.8512
G1 X159.987 Y144.721 E159.9867
G1 X162.033 Y145.602 E160.1034
G1 X163.195 Y146.648 E160.1853
G1 X163.932 Y147.772 E160.2557
G1 X167.451 Y158.870 E160.8656
G1 X167.211 Y159.831 E160.9175
G1 X167.000 Y160.072 E160.9342
G1 X142.481 Y160.235 E162.2187
G1 X141.579 Y159.717 E162.2732
G1 X122.806 Y98.823 E165.6112
G1 X122.278 Y97.732 E165.6747
G1 X121.515 Y96.918 E165.7332
G1 X120.534 Y96.360 E165.7923
G1 X119.427 Y96.121 E165.8516
G1 X118.323 Y96.216 E165.9097
G1 X117.247 Y96.658 E165.9706
G1 X116.683 Y97.080 E166.0075
G1 X115.919 Y98.030 E166.0714
G1 X88.503 Y145.234 E168.9310
G1 X87.879 Y146.688 E169.0138
G1 X87.694 Y147.589 E169.0620
G1 X87.771 Y149.605 E169.1677
G1 X88.467 Y151.446 E169.2708
G1 X89.712 Y152.975 E169.3741
G1 X91.397 Y154.041 E169.4785
G1 X92.810 Y154.451 E169.5556
G1 X93.836 Y154.535 E169.6095
G1 X113.836 Y154.567 E170.6572
G1 X114.521 Y155.053 E170.7012
G1 X114.693 Y155.395 E170.7213
G1 X114.631 Y159.620 E170.9426
G1 X113.860 Y160.136 E170.9912
G1 X94.352 Y160.235 E172.0132
G1 X92.142 Y160.023 E172.1295
G1 X89.900 Y159.365 E172.2519
G1 X87.849 Y158.289 E172.3732
G1 X86.035 Y156.823 E172.4954
G1 X84.547 Y155.038 E172.6171
G1 X83.177 Y152.313 E172.7769
G1 X82.542 Y149.276 E172.9394
G1 X82.594 Y146.912 E173.0633
G1 X82.893 Y145.360 E173.1461
G1 X84.041 Y142.554 E173.3049
G1 X112.454 Y93.662 E176.2672
G0 F3900 X112.817 Y93.873
G1 F900 X114.161 Y92.343 E176.3739
G1 X116.205 Y90.992 E176.5022
G1 X118.175 Y90.343 E176.6109
G1 X120.195 Y90.201 E176.7169
G1 X122.668 Y90.699 E176.8491
G1 X124.832 Y91.871 E176.9780
G1 X126.340 Y93.321 E177.0876
G1 X127.585 Y95.431 E177.2159
G1 X145.894 Y154.797 E180.4704
G1 X158.455 Y150.933 E181.1588
G1 X156.855 Y145.522 E181.4544
G1 X157.386 Y144.999 E181.4934
G1 X159.825 Y145.108 E181.6213
G1 X161.752 Y145.914 E181.7307
G1 X162.914 Y146.960 E181.8126
G1 X163.532 Y147.899 E181.8715
G1 X167.051 Y158.997 E182.4814
G1 X166.813 Y159.696 E182.5201
G1 X142.479 Y159.815 E183.7948
G1 X141.919 Y159.470 E183.8293
G1 X123.197 Y98.668 E187.1620
G1 X122.629 Y97.493 E187.2303
G1 X121.776 Y96.583 E187.2957
G1 X120.684 Y95.962 E187.3615
G1 X119.457 Y95.697 E187.4272
G1 X118.221 Y95.804 E187.4922
G1 X117.039 Y96.289 E187.5591
G1 X116.390 Y96.775 E187.6016
G1 X115.571 Y97.793 E187.6701
G1 X88.126 Y145.047 E190.5327
G1 X87.477 Y146.559 E190.6189
G1 X87.272 Y147.557 E190.6722
G1 X87.354 Y149.690 E190.7841
G1 X88.098 Y151.658 E190.8943
G1 X89.430 Y153.294 E191.0048
G1 X91.221 Y154.427 E191.1158
G1 X92.737 Y154.867 E191.1985
G1 X93.814 Y154.955 E191.2551
G1 X113.676 Y154.955 E192.2956
G1 X114.273 Y155.392 E192.3343
G1 X114.244 Y159.457 E192.5473
G1 X113.858 Y159.716 E192.5716
G1 X94.350 Y159.815 E193.5936
G1 X92.183 Y159.605 E193.7076
