;Sliced by ideaMaker 5.1.0.8435, 2024-08-26 14:12:23 UTC+0200
;Slicer Version: 5.1.0.8430
;Dimension: 250.000 250.000 250.000 0.400
;Plate Shape: 0
;Origin Center: 0
;Extruder Offset #1: 25.000 0.000
;Filament Diameter #1: 1.750
;Filament Diameter #2: 1.750
;Filament Compensation #1: 94.000
;Filament Compensation #2: 90.000
;Filament Density #1: 1240.000
;Filament Density #2: 1240.000
;Filament Type #1: PLA
;Filament Type #2: 
;Filament Name #1: [Raise3D] Premium PLA 1.75mm
;Filament Name #2: 
;Printer Type: floppy
;Firmware: Klipper
;Bounding Box: 111.041 138.959 111.110 138.959 0.000 20.050
;Model Gap: 0.000
M221 T0 S94.00
M140 S50.00
M104 T0 S200.00
M109 T0 S200.00
T0
M190 S50.00
G21 ;metric values
G90 ;absolute positioning
M82 ;set extruder to absolute mode
M107 ;start with the fan off
G28 X0 Y0 ;move X/Y to min endstops
G28 Z0 ;move Z to min endstops
G1 Z15.0 F9000 ;move the platform down 15mm
G92 E0 ;zero the extruded length
G1 F200 E12 ;extrude 15mm of feed stock
G92 E0 ;zero the extruded length again
G0 X12 Y17 F2000
G92 X0 Y0 E0
G0 F9000 Z1
G1 F200 Z0
G1 Z15.0 F9000 ;move the platform down 15mm
G1 F9000
G92 E-3
M117 Printing...
M1001
;TOTAL_NUM: 1
;PRINTING_TIME: 0
;REMAINING_TIME: 1192
;LAYER:0
;Z:0.550
;HEIGHT:0.550
M106 S0
;PRINTING: NON-OBJECT
;PRINTING_ID: -1
G1 F2400 E-3.0000
G0 F3900 X112.130 Y112.235
G0 F300 Z0.550
;TYPE:SKIRT
;WIDTH:0.420
;FLOW:55.0
G1 F1500 E0.0000
G1 F900 X114.825 Y111.110 E0.1543
G1 X135.594 Y111.135 E1.2513
G1 X137.720 Y112.316 E1.3798
G1 X138.862 Y114.542 E1.5119
G1 X138.959 Y135.094 E2.5975
G1 X137.870 Y137.765 E2.7499
G1 X135.188 Y138.890 E2.9035
G1 X114.899 Y138.959 E3.9752
G1 X112.235 Y137.870 E4.1272
G1 X111.110 Y135.188 E4.2808
G1 X111.041 Y114.899 E5.3525
G1 X112.130 Y112.235 E5.5046
G0 F3900 X112.429 Y112.530
G1 F900 X114.824 Y111.530 E5.6416
G1 X135.593 Y111.555 E6.7387
G1 X137.350 Y112.515 E6.8444
G1 X138.442 Y114.544 E6.9662
G1 X138.539 Y135.096 E8.0518
G1 X137.571 Y137.470 E8.1872
G1 X135.187 Y138.470 E8.3237
G1 X114.898 Y138.539 E9.3954
G1 X112.530 Y137.571 E9.5306
G1 X111.530 Y135.187 E9.6671
G1 X111.461 Y114.898 E10.7388
G1 X112.429 Y112.530 E10.8739
G0 F3900 X112.728 Y112.825
G1 F900 X114.823 Y111.950 E10.9939
G1 X135.592 Y111.975 E12.0909
G1 X136.985 Y112.723 E12.1744
G1 X138.022 Y114.546 E12.2852
G1 X138.119 Y135.098 E13.3708
G1 X137.272 Y137.175 E13.4893
G1 X135.186 Y138.050 E13.6088
G1 X114.897 Y138.119 E14.6805
G1 X112.825 Y137.272 E14.7987
G1 X111.950 Y135.186 E14.9182
G1 X111.881 Y114.897 E15.9899
G1 X112.728 Y112.825 E16.1081
G0 F3900 X113.027 Y113.120
G1 F900 X114.822 Y112.370 E16.2109
G1 X135.591 Y112.395 E17.3079
G1 X136.626 Y112.941 E17.3697
G1 X137.602 Y114.548 E17.4690
G1 X137.699 Y135.100 E18.5546
G1 X136.973 Y136.880 E18.6562
G1 X135.185 Y137.630 E18.7586
G1 X114.896 Y137.699 E19.8303
G1 X113.120 Y136.973 E19.9316
G1 X112.370 Y135.185 E20.0341
G1 X112.301 Y114.896 E21.1058
G1 X113.027 Y113.120 E21.2071
G0 F3900 X113.326 Y113.415
G1 F900 X114.821 Y112.790 E21.2927
G1 X135.590 Y112.815 E22.3897
G1 X136.275 Y113.172 E22.4305
G1 X137.182 Y114.550 E22.5177
G1 X137.279 Y135.102 E23.6033
G1 X136.674 Y136.585 E23.6879
G1 X135.184 Y137.210 E23.7732
G1 X114.895 Y137.279 E24.8449
G1 X113.415 Y136.674 E24.9294
G1 X112.790 Y135.184 E25.0147
G1 X112.721 Y114.895 E26.0864
G1 X113.326 Y113.415 E26.1709
G0 F3900 X113.141 Y114.894
G1 F900 X113.625 Y113.710 E26.2384
G1 X114.820 Y113.210 E26.3069
G1 X135.589 Y113.235 E27.4039
G1 X135.929 Y113.410 E27.4241
G1 X136.771 Y114.638 E27.5027
G1 X136.859 Y135.104 E28.5838
G1 X136.375 Y136.290 E28.6515
G1 X135.183 Y136.790 E28.7197
G1 X114.894 Y136.859 E29.7914
G1 X113.710 Y136.375 E29.8590
G1 X113.210 Y135.183 E29.9273
G1 X113.141 Y114.894 E30.9990
G0 F3900 X113.561 Y114.893
G1 F900 X113.924 Y114.005 E31.0496
G1 X114.819 Y113.630 E31.1009
G1 X135.588 Y113.655 E32.1979
G1 X136.362 Y114.734 E32.2681
G1 X136.439 Y135.106 E33.3442
G1 X136.076 Y135.995 E33.3949
G1 X135.182 Y136.370 E33.4461
G1 X114.893 Y136.439 E34.5178
G1 X114.005 Y136.076 E34.5685
G1 X113.630 Y135.182 E34.6197
G1 X113.561 Y114.893 E35.6914
G0 F3900 X113.981 Y114.892
G1 F900 X114.223 Y114.300 E35.7252
G1 X114.819 Y114.050 E35.7593
G1 X135.428 Y114.043 E36.8479
G1 X135.942 Y114.736 E36.8935
G1 X136.019 Y135.108 E37.9695
G1 X135.777 Y135.700 E38.0033
G1 X135.181 Y135.950 E38.0375
G1 X114.892 Y136.019 E39.1092
G1 X114.300 Y135.777 E39.1429
G1 X114.050 Y135.181 E39.1771
G1 X113.981 Y114.892 E40.2488
G0 F3900 X114.401 Y114.891
G1 F900 X114.522 Y114.595 E40.2657
G1 X114.820 Y114.470 E40.2827
G1 X135.269 Y114.432 E41.3629
G1 X135.530 Y114.820 E41.3876
G1 X135.599 Y135.109 E42.4593
G1 X135.478 Y135.405 E42.4762
G1 X135.180 Y135.530 E42.4932
G1 X114.891 Y135.599 E43.5649
G1 X114.595 Y135.478 E43.5818
G1 X114.470 Y135.180 E43.5989
G1 X114.401 Y114.891 E44.6706
G0 F3900 X114.821 Y114.890
G1 F900 X135.110 Y114.821 E45.7423
G1 X135.179 Y135.110 E46.8140
G1 X114.890 Y135.179 E47.8857
G1 X114.821 Y114.890 E48.9574
;PRINTING: calibration_cube.stl
;PRINTING_ID: 0
G1 F2400 E45.9574
G0 F3900 X115.210 Y115.210
;TYPE:WALL-OUTER
;WIDTH:0.420
G1 F1500 E48.9574
G1 F2400 X134.790 Y115.210 E49.9916
G1 X134.790 Y134.790 E51.0259
G1 X115.210 Y134.790 E52.0601
G1 X115.210 Y115.210 E53.0943
G0 F3900 X115.630 Y115.630
;TYPE:WALL-INNER
;WIDTH:0.420
G1 F2400 X134.370 Y115.630 E54.0842
G1 X134.370 Y134.370 E55.0741
G1 X115.630 Y134.370 E56.0640
G1 X115.630 Y115.630 E57.0538
G1 F2400 E54.0538
G0 F3900 X115.730 Y115.640
G0 X115.818 Y133.934
;TYPE:SOLID-FILL
;WIDTH:0.420
G1 F1500 E57.0538
G1 F2400 X116.063 Y134.179 E57.0721
G0 F2400 X116.657 Y134.179
G1 F2400 X115.818 Y133.340 E57.1348
G0 F2400 X115.818 Y132.746
G1 F2400 X117.251 Y134.179 E57.2418
G0 F2400 X117.845 Y134.179
G1 F2400 X115.818 Y132.152 E57.3933
G0 F2400 X115.818 Y131.558
G1 F2400 X118.439 Y134.179 E57.5891
G0 F2400 X119.033 Y134.179
G1 F2400 X115.818 Y130.964 E57.8292
G0 F2400 X115.818 Y130.370
G1 F2400 X119.627 Y134.179 E58.1138
G0 F2400 X120.221 Y134.179
G1 F2400 X115.818 Y129.776 E58.4427
G0 F2400 X115.818 Y129.182
G1 F2400 X120.815 Y134.179 E58.8159
G0 F2400 X121.409 Y134.179
G1 F2400 X115.818 Y128.588 E59.2336
G0 F2400 X115.818 Y127.994
G1 F2400 X122.003 Y134.179 E59.6956
G0 F2400 X122.597 Y134.179
G1 F2400 X115.818 Y127.400 E60.2020
G0 F2400 X115.818 Y126.806
G1 F2400 X123.191 Y134.179 E60.7528
G0 F2400 X123.785 Y134.179
G1 F2400 X115.818 Y126.212 E61.3479
G0 F2400 X115.818 Y125.618
G1 F2400 X124.379 Y134.179 E61.9874
G0 F2400 X124.973 Y134.179
G1 F2400 X115.818 Y125.024 E62.6713
G0 F2400 X115.818 Y124.430
G1 F2400 X125.567 Y134.179 E63.3996
G0 F2400 X126.161 Y134.179
G1 F2400 X115.818 Y123.837 E64.1722
G0 F2400 X115.818 Y123.243
G1 F2400 X126.755 Y134.179 E64.9891
G0 F2400 X127.349 Y134.179
G1 F2400 X115.818 Y122.649 E65.8504
G0 F2400 X115.818 Y122.055
G1 F2400 X127.943 Y134.179 E66.7562
G0 F2400 X128.537 Y134.179
G1 F2400 X115.818 Y121.461 E67.7062
G0 F2400 X115.818 Y120.867
G1 F2400 X129.131 Y134.179 E68.7007
G0 F2400 X129.725 Y134.179
G1 F2400 X115.818 Y120.273 E69.7395
G0 F2400 X115.818 Y119.679
G1 F2400 X130.319 Y134.179 E70.8227
G0 F2400 X130.913 Y134.179
G1 F2400 X115.818 Y119.085 E71.9503
G0 F2400 X115.818 Y118.491
G1 F2400 X131.507 Y134.179 E73.1222
G0 F2400 X132.100 Y134.179
G1 F2400 X115.818 Y117.897 E74.3385
G0 F2400 X115.818 Y117.303
G1 F2400 X132.694 Y134.179 E75.5991
G0 F2400 X133.288 Y134.179
G1 F2400 X115.818 Y116.709 E76.9041
G0 F2400 X115.818 Y116.115
G1 F2400 X133.882 Y134.179 E78.2535
G0 F2400 X134.180 Y133.883
G1 F2400 X116.116 Y115.819 E79.6029
G0 F2400 X116.710 Y115.819
G1 F2400 X134.180 Y133.289 E80.9079
G0 F2400 X134.180 Y132.695
G1 F2400 X117.304 Y115.819 E82.1686
G0 F2400 X117.898 Y115.819
G1 F2400 X134.180 Y132.101 E83.3849
G0 F2400 X134.180 Y131.507
G1 F2400 X118.492 Y115.819 E84.5568
G0 F2400 X119.085 Y115.819
G1 F2400 X134.180 Y130.913 E85.6843
G0 F2400 X134.180 Y130.319
G1 F2400 X119.679 Y115.819 E86.7675
G0 F2400 X120.273 Y115.819
G1 F2400 X134.180 Y129.725 E87.8064
G0 F2400 X134.180 Y129.131
G1 F2400 X120.867 Y115.819 E88.8008
G0 F2400 X121.461 Y115.819
G1 F2400 X134.180 Y128.537 E89.7509
G0 F2400 X134.180 Y127.943
G1 F2400 X122.055 Y115.819 E90.6566
G0 F2400 X122.649 Y115.819
G1 F2400 X134.180 Y127.349 E91.5179
G0 F2400 X134.180 Y126.755
G1 F2400 X123.243 Y115.819 E92.3349
G0 F2400 X123.837 Y115.819
G1 F2400 X134.180 Y126.161 E93.1075
G0 F2400 X134.180 Y125.568
G1 F2400 X124.431 Y115.819 E93.8357
G0 F2400 X125.025 Y115.819
G1 F2400 X134.180 Y124.974 E94.5196
G0 F2400 X134.180 Y124.380
G1 F2400 X125.619 Y115.819 E95.1591
G0 F2400 X126.213 Y115.819
G1 F2400 X134.180 Y123.786 E95.7543
G0 F2400 X134.180 Y123.192
G1 F2400 X126.807 Y115.819 E96.3050
G0 F2400 X127.401 Y115.819
G1 F2400 X134.180 Y122.598 E96.8114
G0 F2400 X134.180 Y122.004
G1 F2400 X127.995 Y115.819 E97.2734
G0 F2400 X128.589 Y115.819
G1 F2400 X134.180 Y121.410 E97.6911
G0 F2400 X134.180 Y120.816
G1 F2400 X129.183 Y115.819 E98.0644
G0 F2400 X129.777 Y115.819
G1 F2400 X134.180 Y120.222 E98.3933
G0 F2400 X134.180 Y119.628
G1 F2400 X130.371 Y115.819 E98.6778
G0 F2400 X130.965 Y115.819
G1 F2400 X134.180 Y119.034 E98.9180
G0 F2400 X134.180 Y118.440
G1 F2400 X131.559 Y115.819 E99.1138
G0 F2400 X132.153 Y115.819
G1 F2400 X134.180 Y117.846 E99.2652
G0 F2400 X134.180 Y117.252
G1 F2400 X132.747 Y115.819 E99.3722
G0 F2400 X133.341 Y115.819
G1 F2400 X134.180 Y116.658 E99.4349
G0 F2400 X134.180 Y116.064
G1 F2400 X133.935 Y115.819 E99.4532
;PRINTING_TIME: 95
;REMAINING_TIME: 1097
;LAYER:1
;Z:0.850
;HEIGHT:0.300
;FLOW:100.0
;PRINTING: calibration_cube.stl
;PRINTING_ID: 0
G1 F2400 E96.4532
G0 F300 Z0.850
G0 F3900 X133.935 Y115.819
G0 X115.730 Y115.640
G0 X115.210 Y115.210
;TYPE:WALL-OUTER
;WIDTH:0.420
G1 F1500 E99.4532
G1 F2100 X134.790 Y115.210 E100.4789
G1 X134.790 Y134.790 E101.5046
G1 X115.210 Y134.790 E102.5303
G1 X115.210 Y115.210 E103.5560
G0 F3900 X115.630 Y115.630
;TYPE:WALL-INNER
;WIDTH:0.420
G1 F2400 X134.370 Y115.630 E104.5377
G1 X134.370 Y134.370 E105.5194
G1 X115.630 Y134.370 E106.5011
G1 X115.630 Y115.630 E107.4827
G0 F3900 X116.126 Y115.818
;TYPE:SOLID-FILL
;WIDTH:0.420
;FLOW:95.0
G1 F2700 X115.819 Y116.126 E107.5044
G0 F2700 X115.819 Y116.719
G1 F2700 X116.720 Y115.818 E107.5678
G0 F2700 X117.314 Y115.818
G1 F2700 X115.819 Y117.313 E107.6730
G0 F2700 X115.819 Y117.907
G1 F2700 X117.908 Y115.818 E107.8200
G0 F2700 X118.502 Y115.818
G1 F2700 X115.819 Y118.501 E108.0089
G0 F2700 X115.819 Y119.095
G1 F2700 X119.096 Y115.818 E108.2395
G0 F2700 X119.690 Y115.818
G1 F2700 X115.819 Y119.689 E108.5119
G0 F2700 X115.819 Y120.283
G1 F2700 X120.284 Y115.818 E108.8262
G0 F2700 X120.878 Y115.818
G1 F2700 X115.819 Y120.877 E109.1822
G0 F2700 X115.819 Y121.471
G1 F2700 X121.472 Y115.818 E109.5801
G0 F2700 X122.066 Y115.818
G1 F2700 X115.819 Y122.065 E110.0197
G0 F2700 X115.819 Y122.659
G1 F2700 X122.660 Y115.818 E110.5012
G0 F2700 X123.254 Y115.818
G1 F2700 X115.819 Y123.253 E111.0245
G0 F2700 X115.819 Y123.847
G1 F2700 X123.848 Y115.818 E111.5895
G0 F2700 X124.442 Y115.818
G1 F2700 X115.819 Y124.441 E112.1964
G0 F2700 X115.819 Y125.035
G1 F2700 X125.036 Y115.818 E112.8451
G0 F2700 X125.630 Y115.818
G1 F2700 X115.819 Y125.629 E113.5356
G0 F2700 X115.819 Y126.223
G1 F2700 X126.224 Y115.818 E114.2679
G0 F2700 X126.818 Y115.818
G1 F2700 X115.819 Y126.817 E115.0420
G0 F2700 X115.819 Y127.411
G1 F2700 X127.412 Y115.818 E115.8579
G0 F2700 X128.006 Y115.818
G1 F2700 X115.819 Y128.005 E116.7156
G0 F2700 X115.819 Y128.599
G1 F2700 X128.600 Y115.818 E117.6151
G0 F2700 X129.194 Y115.818
G1 F2700 X115.819 Y129.193 E118.5564
G0 F2700 X115.819 Y129.787
G1 F2700 X129.788 Y115.818 E119.5395
G0 F2700 X130.382 Y115.818
G1 F2700 X115.819 Y130.381 E120.5645
G0 F2700 X115.819 Y130.975
G1 F2700 X130.975 Y115.818 E121.6312
G0 F2700 X131.569 Y115.818
G1 F2700 X115.819 Y131.569 E122.7397
G0 F2700 X115.819 Y132.163
G1 F2700 X132.163 Y115.818 E123.8900
G0 F2700 X132.757 Y115.818
G1 F2700 X115.819 Y132.757 E125.0821
G0 F2700 X115.819 Y133.351
G1 F2700 X133.351 Y115.818 E126.3160
G0 F2700 X133.945 Y115.818
G1 F2700 X115.819 Y133.945 E127.5917
G0 F2700 X116.177 Y134.180
G1 F2700 X134.179 Y116.178 E128.8587
G0 F2700 X134.179 Y116.772
G1 F2700 X116.771 Y134.180 E130.0839
G0 F2700 X117.365 Y134.180
G1 F2700 X134.179 Y117.366 E131.2672
G0 F2700 X134.179 Y117.960
G1 F2700 X117.959 Y134.180 E132.4088
G0 F2700 X118.553 Y134.180
G1 F2700 X134.179 Y118.554 E133.5085
G0 F2700 X134.179 Y119.148
G1 F2700 X119.147 Y134.180 E134.5664
G0 F2700 X119.741 Y134.180
G1 F2700 X134.179 Y119.742 E135.5826
G0 F2700 X134.179 Y120.336
G1 F2700 X120.335 Y134.180 E136.5569
G0 F2700 X120.929 Y134.180
G1 F2700 X134.179 Y120.930 E137.4894
G0 F2700 X134.179 Y121.524
G1 F2700 X121.523 Y134.180 E138.3801
G0 F2700 X122.117 Y134.180
G1 F2700 X134.179 Y122.118 E139.2291
G0 F2700 X134.179 Y122.712
G1 F2700 X122.711 Y134.180 E140.0362
G0 F2700 X123.305 Y134.180
G1 F2700 X134.179 Y123.305 E140.8015
G0 F2700 X134.179 Y123.899
G1 F2700 X123.899 Y134.180 E141.5250
G0 F2700 X124.493 Y134.180
G1 F2700 X134.179 Y124.493 E142.2068
G0 F2700 X134.179 Y125.087
G1 F2700 X125.087 Y134.180 E142.8467
G0 F2700 X125.681 Y134.180
G1 F2700 X134.179 Y125.681 E143.4448
G0 F2700 X134.179 Y126.275
G1 F2700 X126.275 Y134.180 E144.0011
G0 F2700 X126.869 Y134.180
G1 F2700 X134.179 Y126.869 E144.5156
G0 F2700 X134.179 Y127.463
G1 F2700 X127.463 Y134.180 E144.9883
G0 F2700 X128.057 Y134.180
G1 F2700 X134.179 Y128.057 E145.4192
G0 F2700 X134.179 Y128.651
G1 F2700 X128.651 Y134.180 E145.8083
G0 F2700 X129.244 Y134.180
G1 F2700 X134.179 Y129.245 E146.1556
G0 F2700 X134.179 Y129.839
G1 F2700 X129.838 Y134.180 E146.4611
G0 F2700 X130.432 Y134.180
G1 F2700 X134.179 Y130.433 E146.7248
G0 F2700 X134.179 Y131.027
G1 F2700 X131.026 Y134.180 E146.9468
G0 F2700 X131.620 Y134.180
G1 F2700 X134.179 Y131.621 E147.1269
G0 F2700 X134.179 Y132.215
G1 F2700 X132.214 Y134.180 E147.2651
G0 F2700 X132.808 Y134.180
G1 F2700 X134.179 Y132.809 E147.3616
G0 F2700 X134.179 Y133.403
G1 F2700 X133.402 Y134.180 E147.4163
G0 F2700 X133.996 Y134.180
G1 F2700 X134.179 Y133.997 E147.4292
;PRINTING_TIME: 123
;REMAINING_TIME: 1069
;LAYER:2
;Z:1.150
;HEIGHT:0.300
;FLOW:100.0
M106 S191
;PRINTING: calibration_cube.stl
;PRINTING_ID: 0
G1 F2400 E144.4292
G0 F300 Z1.150
G0 F3900 X134.179 Y133.997
G0 X115.730 Y115.640
G0 X115.210 Y115.210
;TYPE:WALL-OUTER
;WIDTH:0.420
G1 F1500 E147.4292
G1 F2100 X134.790 Y115.210 E148.4549
G1 X134.790 Y134.790 E149.4806
G1 X115.210 Y134.790 E150.5063
G1 X115.210 Y115.210 E151.5320
G0 F3900 X115.630 Y115.630
;TYPE:WALL-INNER
;WIDTH:0.420
G1 F2400 X134.370 Y115.630 E152.5137
G1 X134.370 Y134.370 E153.4953
G1 X115.630 Y134.370 E154.4770
G1 X115.630 Y115.630 E155.4587
G1 F2400 E152.4587
G0 F3900 X115.730 Y115.640
G0 X115.818 Y133.934
;TYPE:SOLID-FILL
;WIDTH:0.420
;FLOW:95.0
G1 F1500 E155.4587
G1 F3000 X116.063 Y134.179 E155.4760
G0 F3000 X116.657 Y134.179
G1 F3000 X115.818 Y133.340 E155.5350
G0 F3000 X115.818 Y132.746
G1 F3000 X117.251 Y134.179 E155.6359
G0 F3000 X117.845 Y134.179
G1 F3000 X115.818 Y132.152 E155.7785
G0 F3000 X115.818 Y131.558
G1 F3000 X118.439 Y134.179 E155.9630
G0 F3000 X119.033 Y134.179
G1 F3000 X115.818 Y130.964 E156.1893
G0 F3000 X115.818 Y130.370
G1 F3000 X119.627 Y134.179 E156.4573
G0 F3000 X120.221 Y134.179
G1 F3000 X115.818 Y129.776 E156.7672
G0 F3000 X115.818 Y129.182
G1 F3000 X120.815 Y134.179 E157.1189
G0 F3000 X121.409 Y134.179
G1 F3000 X115.818 Y128.588 E157.5124
G0 F3000 X115.818 Y127.994
G1 F3000 X122.003 Y134.179 E157.9477
G0 F3000 X122.597 Y134.179
G1 F3000 X115.818 Y127.400 E158.4248
G0 F3000 X115.818 Y126.806
G1 F3000 X123.191 Y134.179 E158.9437
G0 F3000 X123.785 Y134.179
G1 F3000 X115.818 Y126.212 E159.5044
G0 F3000 X115.818 Y125.618
G1 F3000 X124.379 Y134.179 E160.1069
G0 F3000 X124.973 Y134.179
G1 F3000 X115.818 Y125.024 E160.7512
G0 F3000 X115.818 Y124.430
G1 F3000 X125.567 Y134.179 E161.4374
G0 F3000 X126.161 Y134.179
G1 F3000 X115.818 Y123.837 E162.1652
G0 F3000 X115.818 Y123.243
G1 F3000 X126.755 Y134.179 E162.9349
G0 F3000 X127.349 Y134.179
G1 F3000 X115.818 Y122.649 E163.7465
