;Sliced by ideaMaker 5.1.4.8480, 2025-02-01 17:49:07 UTC+0100
;Slicer Version: 5.1.4.8480
;Dimension: 250.000 250.000 250.000 0.400
;Plate Shape: 0
;Origin Center: 0
;Extruder Offset #1: 25.000 0.000
;Filament Diameter #1: 1.750
;Filament Diameter #2: 1.750
;Filament Compensation #1: 94.000
;Filament Compensation #2: 90.000
;Filament Density #1: 1240.000
;Filament Density #2: 1240.000
;Filament Type #1: PLA
;Filament Type #2: 
;Filament Name #1: [Raise3D] Premium PLA 1.75mm
;Filament Name #2: 
;Printer Type: floppy
;Firmware: Klipper
;Bounding Box: 79.108 170.892 67.945 182.055 0.000 4.400
;Model Gap: 0.000
M221 T0 S94.00
M140 S50.00
M104 T0 S200.00
M109 T0 S200.00
T0
M190 S50.00
G21 ;metric values
G90 ;absolute positioning
M82 ;set extruder to absolute mode
M107 ;start with the fan off
G28 X0 Y0 ;move X/Y to min endstops
G28 Z0 ;move Z to min endstops
G1 Z15.0 F9000 ;move the platform down 15mm
G92 E0 ;zero the extruded length
G1 F200 E1 ;extrude 1mm of feed stock
G92 E0 ;zero the extruded length again
G0 X12 Y17 F2000
G92 X0 Y0 E0
G0 F9000 Z1
G1 F200 Z0
G1 Z15.0 F9000 ;move the platform down 15mm
G1 F9000
G92 E-3
M117 Printing...
M1001
;TOTAL_NUM: 1
;PRINTING_TIME: 0
;REMAINING_TIME: 3338
;LAYER:0
;Z:0.500
;HEIGHT:0.500
M106 S0
;PRINTING: Controller_Case_-_Base.stl
;PRINTING_ID: 0
G1 F2400 E-3.0000
G0 F3900 X80.955 Y68.440
G0 F300 Z0.500
;TYPE:WALL-OUTER
;WIDTH:0.420
;FLOW:55.0
G1 F1500 E0.0000
G1 F2400 X82.186 Y68.156 E0.0607
G1 X167.793 Y68.155 E4.1715
G1 X168.768 Y68.323 E4.2190
G1 X169.631 Y68.811 E4.2666
G1 X170.397 Y69.792 E4.3263
G1 X170.681 Y71.023 E4.3870
G1 X170.682 Y178.956 E9.5699
G1 X170.514 Y179.931 E9.6174
G1 X170.026 Y180.794 E9.6650
G1 X169.045 Y181.560 E9.7248
G1 X167.814 Y181.844 E9.7854
G1 X82.104 Y181.843 E13.9012
G1 X81.002 Y181.583 E13.9555
G1 X80.092 Y180.929 E14.0093
G1 X79.502 Y179.974 E14.0632
G1 X79.318 Y178.984 E14.1116
G1 X79.318 Y71.044 E19.2948
G1 X79.486 Y70.069 E19.3423
G1 X79.974 Y69.206 E19.3899
G1 X80.955 Y68.440 E19.4497
G1 F2400 E16.4497
G0 F3900 X81.094 Y69.931
G1 F1500 E19.4497
G1 F2400 X80.641 Y71.025 E19.5065
G1 X81.084 Y72.096 E19.5622
G1 X81.544 Y72.418 E19.5892
G1 X82.207 Y72.564 E19.6218
G1 X83.282 Y72.120 E19.6776
G1 X83.735 Y71.025 E19.7345
G1 X83.282 Y69.931 E19.7914
G1 X82.188 Y69.478 E19.8482
G1 X81.094 Y69.931 E19.9051
G1 F2400 E16.9051
G0 F3900 X80.894 Y69.452
G0 X82.188 Y68.823
G0 X83.447 Y69.345
G0 X89.108 Y77.986
G0 X89.552 Y78.255
G1 F1500 E19.9051
G1 F2400 X89.037 Y79.105 E19.9528
G1 X88.885 Y80.086 E20.0005
G1 X89.122 Y81.051 E20.0482
G1 X89.708 Y81.851 E20.0958
G1 X90.558 Y82.366 E20.1435
G1 X91.538 Y82.517 E20.1912
G1 X92.504 Y82.281 E20.2389
G1 X93.304 Y81.694 E20.2866
G1 X93.819 Y80.845 E20.3342
G1 X93.970 Y79.865 E20.3818
G1 X93.734 Y78.900 E20.4296
G1 X93.148 Y78.098 E20.4772
G1 X92.298 Y77.584 E20.5249
G1 X91.318 Y77.432 E20.5726
G1 X90.352 Y77.668 E20.6203
G1 X89.552 Y78.255 E20.6680
G1 F2400 E17.6680
G0 F3900 X89.108 Y77.986
G0 X90.087 Y77.099
G0 X104.694 Y74.144
G0 X106.359 Y74.802
G0 X106.899 Y75.540
G0 X107.034 Y77.347
G0 X106.575 Y77.105
G1 F1500 E20.6680
G1 F2400 X106.437 Y75.948 E20.7239
G1 X105.935 Y75.265 E20.7646
G1 X105.353 Y74.911 E20.7973
G1 X104.687 Y74.772 E20.8300
G1 X103.867 Y74.924 E20.8700
G1 X103.306 Y75.283 E20.9020
G1 X86.389 Y92.208 E22.0511
G1 X86.002 Y92.950 E22.0913
G1 X85.942 Y93.642 E22.1247
G1 X86.196 Y94.448 E22.1652
G1 X86.640 Y94.976 E22.1984
G1 X87.237 Y95.322 E22.2315
G1 X88.075 Y95.433 E22.2721
G1 X88.742 Y95.253 E22.3053
G1 X89.288 Y94.872 E22.3372
G1 X106.044 Y78.116 E23.4751
G1 X106.575 Y77.105 E23.5300
G1 F2400 E20.5300
G0 F3900 X107.034 Y77.347
G0 X106.547 Y78.486
G0 X85.465 Y101.376
G0 X85.467 Y102.830
G0 X86.073 Y103.941
G0 X86.511 Y103.662
G1 F1500 E23.5300
G1 F2400 X87.228 Y104.119 E23.5708
G1 X87.908 Y104.238 E23.6040
G1 X88.588 Y104.119 E23.6371
G1 X89.285 Y103.675 E23.6768
G1 X114.946 Y78.004 E25.4198
G1 X115.330 Y77.274 E25.4594
G1 X115.396 Y76.592 E25.4923
G1 X115.157 Y75.793 E25.5323
G1 X114.728 Y75.259 E25.5652
G1 X113.998 Y74.855 E25.6053
G1 X113.321 Y74.775 E25.6380
G1 X112.661 Y74.927 E25.6705
G1 X112.049 Y75.338 E25.7059
G1 X86.392 Y101.005 E27.4486
G1 X86.054 Y101.590 E27.4811
G1 X85.935 Y102.265 E27.5140
G1 X86.054 Y102.945 E27.5471
G1 X86.511 Y103.662 E27.5880
G1 F2400 E24.5880
G0 F3900 X86.073 Y103.941
G0 X85.309 Y111.065
G0 X85.353 Y111.321
G0 X86.073 Y112.741
G0 X86.511 Y112.462
G1 F1500 E27.5880
G1 F2400 X87.228 Y112.919 E27.6288
G1 X87.908 Y113.038 E27.6619
G1 X88.588 Y112.919 E27.6951
G1 X89.285 Y112.475 E27.7348
G1 X123.638 Y78.122 E30.0677
G1 X124.077 Y77.436 E30.1068
G1 X124.202 Y76.762 E30.1397
G1 X124.032 Y75.945 E30.1798
G1 X123.650 Y75.377 E30.2126
G1 X122.958 Y74.912 E30.2527
G1 X122.287 Y74.772 E30.2856
G1 X121.465 Y74.924 E30.3257
G1 X120.849 Y75.338 E30.3614
G1 X86.498 Y109.689 E32.6941
G1 X86.054 Y110.385 E32.7338
G1 X85.935 Y111.065 E32.7669
G1 X86.054 Y111.745 E32.8001
G1 X86.511 Y112.462 E32.8409
G1 F2400 E29.8409
G0 F3900 X86.073 Y112.741
G0 X85.309 Y119.865
G0 X85.353 Y120.121
G0 X86.073 Y121.541
G0 X86.511 Y121.262
G1 F1500 E32.8409
G1 F2400 X87.228 Y121.719 E32.8817
G1 X87.908 Y121.838 E32.9149
G1 X88.588 Y121.719 E32.9480
G1 X89.285 Y121.275 E32.9877
G1 X132.438 Y78.122 E35.9182
G1 X132.877 Y77.436 E35.9573
G1 X133.002 Y76.762 E35.9902
G1 X132.832 Y75.945 E36.0303
G1 X132.450 Y75.377 E36.0632
G1 X131.758 Y74.912 E36.1032
G1 X131.087 Y74.772 E36.1361
G1 X130.267 Y74.924 E36.1762
G1 X129.706 Y75.283 E36.2082
G1 X86.498 Y118.489 E39.1423
G1 X86.054 Y119.185 E39.1820
G1 X85.935 Y119.865 E39.2151
G1 X86.054 Y120.545 E39.2483
G1 X86.511 Y121.262 E39.2891
G1 F2400 E36.2891
G0 F3900 X86.073 Y121.541
G0 X86.630 Y128.002
G0 X86.955 Y128.406
G1 F1500 E39.2891
G1 F2400 X86.426 Y128.832 E39.3217
G1 X86.070 Y129.414 E39.3545
G1 X85.937 Y130.236 E39.3945
G1 X86.089 Y130.899 E39.4271
G1 X86.446 Y131.457 E39.4589
G1 X129.651 Y174.664 E42.3930
G1 X130.348 Y175.109 E42.4327
G1 X131.033 Y175.229 E42.4661
G1 X131.858 Y175.046 E42.5067
G1 X132.428 Y174.647 E42.5401
G1 X132.882 Y173.935 E42.5807
G1 X133.001 Y173.255 E42.6138
G1 X132.882 Y172.575 E42.6470
G1 X132.438 Y171.878 E42.6867
G1 X89.167 Y128.617 E45.6248
G1 X88.437 Y128.233 E45.6644
G1 X87.755 Y128.167 E45.6973
G1 X86.955 Y128.406 E45.7374
G1 F2400 E42.7374
G0 F3900 X86.630 Y128.002
G0 X87.492 Y127.631
G0 X95.049 Y128.283
G0 X95.340 Y128.713
G1 F1500 E45.7374
G1 F2400 X94.874 Y129.405 E45.7775
G1 X94.735 Y130.076 E45.8104
G1 X94.887 Y130.896 E45.8504
G1 X95.246 Y131.457 E45.8824
G1 X138.452 Y174.664 E48.8166
G1 X139.148 Y175.109 E48.8562
G1 X139.833 Y175.229 E48.8896
G1 X140.658 Y175.046 E48.9302
G1 X141.228 Y174.647 E48.9636
G1 X141.682 Y173.935 E49.0042
G1 X141.801 Y173.255 E49.0373
G1 X141.682 Y172.575 E49.0705
G1 X141.238 Y171.878 E49.1101
G1 X98.085 Y128.725 E52.0406
G1 X97.399 Y128.286 E52.0798
G1 X96.725 Y128.161 E52.1127
G1 X95.908 Y128.330 E52.1527
G1 X95.340 Y128.713 E52.1856
G1 F2400 E49.1856
G0 F3900 X95.049 Y128.283
G0 X95.665 Y127.751
G0 X96.777 Y127.724
G0 X103.550 Y128.601
G0 X103.999 Y128.862
G1 F1500 E52.1856
G1 F2400 X103.654 Y129.460 E52.2188
G1 X103.534 Y130.140 E52.2519
G1 X103.717 Y130.965 E52.2925
G1 X104.102 Y131.514 E52.3247
G1 X147.251 Y174.664 E55.2550
G1 X147.948 Y175.109 E55.2947
G1 X148.633 Y175.229 E55.3281
G1 X149.458 Y175.046 E55.3687
G1 X150.028 Y174.647 E55.4021
G1 X150.482 Y173.935 E55.4426
G1 X150.601 Y173.255 E55.4758
G1 X150.482 Y172.575 E55.5089
G1 X150.038 Y171.878 E55.5486
G1 X106.765 Y128.616 E58.4869
G1 X106.024 Y128.229 E58.5270
G1 X105.336 Y128.170 E58.5602
G1 X104.669 Y128.348 E58.5933
G1 X103.999 Y128.862 E58.6339
G1 F2400 E55.6339
G0 F3900 X103.550 Y128.601
G0 X104.357 Y122.067
G0 X104.673 Y121.655
G1 F1500 E58.6339
G1 F2400 X105.503 Y121.839 E58.6747
G1 X106.188 Y121.719 E58.7081
G1 X106.885 Y121.275 E58.7478
G1 X150.147 Y78.003 E61.6860
G1 X150.534 Y77.261 E61.7262
G1 X150.594 Y76.569 E61.7596
G1 X150.340 Y75.762 E61.8002
G1 X149.893 Y75.230 E61.8336
G1 X149.144 Y74.839 E61.8741
G1 X148.456 Y74.780 E61.9073
G1 X147.794 Y74.957 E61.9402
G1 X147.247 Y75.340 E61.9723
G1 X104.098 Y118.489 E64.9025
G1 X103.654 Y119.185 E64.9421
G1 X103.535 Y119.865 E64.9753
G1 X103.654 Y120.540 E65.0082
G1 X103.999 Y121.138 E65.0413
G1 X104.673 Y121.655 E65.0821
G1 F2400 E62.0821
G0 F3900 X104.357 Y122.067
G0 X105.489 Y122.467
G0 X106.500 Y122.068
G0 X111.063 Y119.095
G0 X111.574 Y119.185
G1 F1500 E65.0821
G1 F2400 X111.455 Y119.865 E65.1153
G1 X111.574 Y120.540 E65.1482
G1 X111.919 Y121.138 E65.1814
G1 X112.589 Y121.652 E65.2219
G1 X113.261 Y121.833 E65.2553
G1 X114.099 Y121.722 E65.2959
G1 X114.688 Y121.381 E65.3286
G1 X150.147 Y85.923 E67.7366
G1 X150.534 Y85.181 E67.7768
G1 X150.594 Y84.489 E67.8101
G1 X150.340 Y83.682 E67.8507
G1 X149.893 Y83.150 E67.8841
G1 X149.144 Y82.759 E67.9247
G1 X148.456 Y82.700 E67.9578
G1 X147.794 Y82.877 E67.9907
G1 X147.247 Y83.260 E68.0228
G1 X112.018 Y118.489 E70.4152
G1 X111.574 Y119.185 E70.4548
G1 F2400 E67.4548
G0 F3900 X111.063 Y119.095
G0 X110.985 Y120.754
G0 X112.311 Y122.215
G0 X113.437 Y122.270
G0 X120.127 Y121.195
G0 X120.511 Y120.845
G1 F1500 E70.4548
G1 F2400 X121.092 Y121.480 E70.4962
G1 X121.721 Y121.773 E70.5295
G1 X122.567 Y121.810 E70.5701
G1 X123.223 Y121.570 E70.6037
G1 X150.146 Y94.724 E72.4294
G1 X150.530 Y93.994 E72.4690
G1 X150.596 Y93.312 E72.5019
G1 X150.357 Y92.513 E72.5420
G1 X149.928 Y91.979 E72.5749
G1 X149.198 Y91.575 E72.6149
G1 X148.521 Y91.495 E72.6477
G1 X147.863 Y91.646 E72.6801
G1 X147.306 Y92.003 E72.7118
G1 X120.822 Y118.486 E74.5103
G1 X120.440 Y119.031 E74.5423
G1 X120.259 Y119.707 E74.5759
G1 X120.511 Y120.845 E74.6319
G1 F2400 E71.6319
G0 F3900 X120.127 Y121.195
G0 X121.078 Y127.932
G0 X121.393 Y128.345
G1 F1500 E74.6319
G1 F2400 X120.719 Y128.862 E74.6726
G1 X120.374 Y129.460 E74.7058
G1 X120.254 Y130.140 E74.7390
G1 X120.437 Y130.965 E74.7795
G1 X120.822 Y131.515 E74.8118
G1 X147.371 Y158.054 E76.6144
G1 X148.112 Y158.441 E76.6545
G1 X148.800 Y158.500 E76.6877
G1 X149.462 Y158.323 E76.7206
G1 X150.028 Y157.927 E76.7537
G1 X150.482 Y157.215 E76.7943
G1 X150.601 Y156.535 E76.8274
G1 X150.482 Y155.855 E76.8606
G1 X150.038 Y155.158 E76.9003
G1 X123.605 Y128.725 E78.6953
G1 X122.908 Y128.281 E78.7350
G1 X122.223 Y128.161 E78.7684
G1 X121.393 Y128.345 E78.8092
G1 F2400 E75.8092
G0 F3900 X121.078 Y127.932
G0 X121.718 Y127.706
G0 X129.878 Y127.932
G0 X130.193 Y128.345
G1 F1500 E78.8092
G1 F2400 X129.519 Y128.862 E78.8500
G1 X129.174 Y129.460 E78.8832
G1 X129.054 Y130.140 E78.9163
G1 X129.237 Y130.965 E78.9569
G1 X129.622 Y131.515 E78.9891
G1 X156.171 Y158.054 E80.7917
G1 X156.912 Y158.441 E80.8319
G1 X157.600 Y158.500 E80.8650
G1 X158.262 Y158.323 E80.8979
G1 X158.828 Y157.927 E80.9311
G1 X159.282 Y157.215 E80.9717
G1 X159.401 Y156.535 E81.0048
G1 X159.282 Y155.855 E81.0380
G1 X158.838 Y155.158 E81.0776
G1 X132.405 Y128.725 E82.8727
G1 X131.708 Y128.281 E82.9124
G1 X131.023 Y128.161 E82.9458
G1 X130.193 Y128.345 E82.9866
G1 F2400 E79.9866
G0 F3900 X129.878 Y127.932
G0 X128.927 Y121.195
G0 X129.311 Y120.845
G1 F1500 E82.9866
G1 F2400 X129.892 Y121.480 E83.0279
G1 X130.521 Y121.773 E83.0612
G1 X131.367 Y121.810 E83.1019
G1 X132.023 Y121.570 E83.1355
G1 X158.947 Y94.723 E84.9612
G1 X159.334 Y93.981 E85.0014
G1 X159.394 Y93.289 E85.0348
G1 X159.140 Y92.482 E85.0754
G1 X158.693 Y91.950 E85.1088
G1 X157.944 Y91.559 E85.1493
G1 X157.256 Y91.500 E85.1825
G1 X156.594 Y91.677 E85.2154
G1 X156.047 Y92.060 E85.2475
G1 X129.622 Y118.486 E87.0420
G1 X129.240 Y119.031 E87.0740
G1 X129.059 Y119.707 E87.1076
G1 X129.311 Y120.845 E87.1636
G1 F2400 E84.1636
G0 F3900 X128.927 Y121.195
G0 X129.521 Y121.986
G0 X131.462 Y122.430
G0 X137.376 Y119.494
G0 X137.856 Y119.693
G1 F1500 E87.1636
G1 F2400 X138.111 Y120.845 E87.2202
G1 X138.692 Y121.480 E87.2615
G1 X139.321 Y121.773 E87.2949
G1 X140.167 Y121.810 E87.3355
G1 X140.823 Y121.570 E87.3691
G1 X163.610 Y98.860 E88.9139
G1 X163.994 Y98.130 E88.9535
G1 X164.060 Y97.448 E88.9864
G1 X163.821 Y96.649 E89.0265
G1 X163.392 Y96.115 E89.0594
G1 X162.662 Y95.711 E89.0994
G1 X161.985 Y95.631 E89.1322
G1 X161.327 Y95.782 E89.1646
G1 X160.770 Y96.139 E89.1963
G1 X138.302 Y118.615 E90.7224
G1 X137.856 Y119.693 E90.7784
G1 F2400 E87.7784
G0 F3900 X137.376 Y119.494
G0 X137.548 Y121.138
G0 X138.321 Y121.986
G0 X140.262 Y122.430
G0 X146.211 Y119.302
G0 X146.681 Y119.522
G1 F1500 E90.7784
G1 F2400 X146.769 Y120.536 E90.8273
G1 X147.228 Y121.258 E90.8684
G1 X147.798 Y121.656 E90.9018
G1 X148.623 Y121.839 E90.9423
G1 X149.308 Y121.719 E90.9757
G1 X150.005 Y121.275 E91.0154
G1 X163.611 Y107.659 E91.9397
G1 X163.998 Y106.917 E91.9799
G1 X164.058 Y106.225 E92.0133
G1 X163.804 Y105.418 E92.0539
G1 X163.357 Y104.886 E92.0873
G1 X162.608 Y104.495 E92.1278
G1 X161.920 Y104.436 E92.1610
G1 X161.258 Y104.613 E92.1939
G1 X160.711 Y104.996 E92.2260
G1 X147.105 Y118.612 E93.1503
G1 X146.681 Y119.522 E93.1985
G1 F2400 E90.1985
G0 F3900 X146.211 Y119.302
G0 X146.170 Y120.739
G0 X146.775 Y121.692
G0 X148.609 Y122.467
G0 X149.621 Y122.067
G0 X154.954 Y119.704
G0 X155.449 Y119.860
G1 F1500 E93.1985
G1 F2400 X155.714 Y120.849 E93.2477
G1 X156.292 Y121.480 E93.2888
G1 X156.921 Y121.773 E93.3221
G1 X157.767 Y121.810 E93.3627
G1 X158.423 Y121.571 E93.3963
G1 X163.501 Y116.579 E93.7382
G1 X163.946 Y115.881 E93.7780
G1 X164.065 Y115.201 E93.8111
G1 X163.946 Y114.526 E93.8440
G1 X163.603 Y113.933 E93.8769
G1 X163.079 Y113.492 E93.9098
G1 X162.435 Y113.258 E93.9427
G1 X161.749 Y113.258 E93.9756
G1 X161.097 Y113.495 E94.0090
G1 X155.801 Y118.743 E94.3670
G1 X155.449 Y119.860 E94.4232
G1 F2400 E91.4232
G0 F3900 X154.954 Y119.704
G0 X146.952 Y128.300
G0 X147.231 Y128.738
G1 F1500 E94.4232
G1 F2400 X146.774 Y129.455 E94.4640
G1 X146.655 Y130.135 E94.4972
G1 X146.774 Y130.810 E94.5301
G1 X147.112 Y131.395 E94.5626
G1 X160.832 Y145.115 E95.4943
G1 X161.417 Y145.453 E95.5267
G1 X162.092 Y145.572 E95.5596
G1 X162.767 Y145.453 E95.5925
G1 X163.364 Y145.108 E95.6256
G1 X163.879 Y144.438 E95.6662
G1 X164.059 Y143.766 E95.6996
G1 X163.949 Y142.928 E95.7402
G1 X163.608 Y142.339 E95.7729
G1 X150.005 Y128.725 E96.6970
G1 X149.308 Y128.281 E96.7367
G1 X148.628 Y128.162 E96.7699
G1 X147.948 Y128.281 E96.8030
G1 X147.231 Y128.738 E96.8439
G1 F2400 E93.8439
G0 F3900 X146.952 Y128.300
G0 X139.602 Y127.546
G0 X138.600 Y128.063
G0 X137.855 Y128.624
G0 X138.315 Y128.865
G1 F1500 E96.8439
G1 F2400 X137.922 Y129.619 E96.8847
G1 X137.863 Y130.307 E96.9178
G1 X138.040 Y130.969 E96.9508
G1 X138.423 Y131.515 E96.9828
G1 X160.833 Y153.917 E98.5044
G1 X161.563 Y154.301 E98.5440
G1 X162.245 Y154.367 E98.5769
G1 X163.045 Y154.128 E98.6170
G1 X163.574 Y153.701 E98.6496
G1 X163.930 Y153.120 E98.6823
G1 X164.063 Y152.297 E98.7224
G1 X163.911 Y151.634 E98.7550
G1 X163.554 Y151.077 E98.7868
G1 X141.085 Y128.616 E100.3124
G1 X140.344 Y128.229 E100.3525
G1 X139.656 Y128.170 E100.3857
G1 X138.989 Y128.348 E100.4188
G1 X138.315 Y128.865 E100.4596
G1 F2400 E97.4596
G0 F3900 X137.855 Y128.624
G0 X138.712 Y127.785
G0 X140.519 Y127.626
G0 X149.535 Y127.696
G0 X150.395 Y128.240
G0 X157.773 Y135.784
G0 X161.907 Y137.272
G0 X162.066 Y136.777
G1 F1500 E100.4596
G1 F2400 X163.046 Y136.530 E100.5082
G1 X163.679 Y135.972 E100.5487
G1 X163.984 Y135.360 E100.5815
G1 X164.048 Y134.528 E100.6216
G1 X163.835 Y133.868 E100.6549
G1 X158.806 Y128.726 E101.0003
G1 X158.108 Y128.281 E101.0400
G1 X157.428 Y128.162 E101.0732
G1 X156.753 Y128.281 E101.1061
G1 X156.160 Y128.624 E101.1390
G1 X155.719 Y129.148 E101.1719
G1 X155.485 Y129.792 E101.2048
G1 X155.485 Y130.477 E101.2376
G1 X155.722 Y131.130 E101.2710
G1 X160.966 Y136.422 E101.6288
G1 X162.066 Y136.777 E101.6843
G1 F2400 E98.6843
G0 F3900 X161.907 Y137.272
G0 X164.544 Y142.726
G0 X164.518 Y153.338
G0 X156.252 Y167.746
G0 X156.696 Y168.015
G1 F1500 E101.6843
G1 F2400 X156.181 Y168.865 E101.7320
G1 X156.029 Y169.846 E101.7797
G1 X156.266 Y170.811 E101.8274
G1 X156.852 Y171.611 E101.8750
G1 X157.702 Y172.126 E101.9227
G1 X158.682 Y172.277 E101.9703
G1 X159.648 Y172.041 E102.0181
G1 X160.448 Y171.454 E102.0657
