;Sliced by ideaMaker 5.1.4.8480, 2025-02-10 10:45:00 UTC+0100
;Slicer Version: 5.1.4.8480
;Dimension: 250.000 250.000 250.000 0.400
;Plate Shape: 0
;Origin Center: 0
;Extruder Offset #1: 25.000 0.000
;Filament Diameter #1: 1.750
;Filament Diameter #2: 1.750
;Filament Compensation #1: 94.000
;Filament Compensation #2: 90.000
;Filament Density #1: 1240.000
;Filament Density #2: 1240.000
;Filament Type #1: PLA
;Filament Type #2: 
;Filament Name #1: [Raise3D] Premium PLA 1.75mm
;Filament Name #2: 
;Printer Type: floppy
;Firmware: Klipper
;Bounding Box: 101.041 148.959 101.196 149.046 0.000 25.100
;Model Gap: 0.000
M221 T0 S94.00
M140 S50.00
M104 T0 S200.00
M109 T0 S200.00
T0
M190 S50.00
G21 ;metric values
G90 ;absolute positioning
M82 ;set extruder to absolute mode
M107 ;start with the fan off
G28 X0 Y0 ;move X/Y to min endstops
G28 Z0 ;move Z to min endstops
G1 Z15.0 F9000 ;move the platform down 15mm
G92 E0 ;zero the extruded length
G1 F200 E1 ;extrude 1mm of feed stock
G92 E0 ;zero the extruded length again
G0 X12 Y17 F2000
G92 X0 Y0 E0
G0 F9000 Z1
G1 F200 Z0
G1 Z15.0 F9000 ;move the platform down 15mm
G1 F9000
G92 E-3
M117 Printing...
M1001
;TOTAL_NUM: 1
;PRINTING_TIME: 0
;REMAINING_TIME: 3376
;LAYER:0
;Z:0.500
;HEIGHT:0.500
M106 S0
;PRINTING: NON-OBJECT
;PRINTING_ID: -1
G1 F2400 E-3.0000
G0 F3900 X102.130 Y102.321
G0 F300 Z0.500
;TYPE:SKIRT
;WIDTH:0.420
;FLOW:55.0
G1 F1500 E0.0000
G1 F900 X104.820 Y101.196 E0.1400
G1 X145.589 Y101.222 E2.0977
G1 X147.722 Y102.405 E2.2148
G1 X148.862 Y104.634 E2.3351
G1 X148.959 Y145.116 E4.2790
G1 X147.870 Y147.780 E4.4172
G1 X145.188 Y148.905 E4.5568
G1 X104.899 Y149.046 E6.4915
G1 X102.235 Y147.957 E6.6297
G1 X101.110 Y145.275 E6.7694
G1 X101.041 Y104.985 E8.7041
G1 X102.130 Y102.321 E8.8423
G0 F3900 X102.429 Y102.616
G1 F900 X104.820 Y101.616 E8.9667
G1 X145.589 Y101.642 E10.9244
G1 X147.352 Y102.604 E11.0209
G1 X148.442 Y104.635 E11.1315
G1 X148.539 Y145.117 E13.0755
G1 X147.571 Y147.485 E13.1983
G1 X145.187 Y148.485 E13.3224
G1 X104.898 Y148.626 E15.2571
G1 X102.530 Y147.658 E15.3800
G1 X101.530 Y145.274 E15.5041
G1 X101.461 Y104.984 E17.4388
G1 X102.429 Y102.616 E17.5616
G0 F3900 X102.728 Y102.911
G1 F900 X104.820 Y102.036 E17.6705
G1 X145.589 Y102.062 E19.6282
G1 X146.987 Y102.811 E19.7044
G1 X148.022 Y104.636 E19.8051
G1 X148.119 Y145.118 E21.7491
G1 X147.272 Y147.190 E21.8565
G1 X145.186 Y148.065 E21.9652
G1 X104.897 Y148.206 E23.8998
G1 X102.825 Y147.359 E24.0073
G1 X101.950 Y145.273 E24.1159
G1 X101.881 Y104.983 E26.0506
G1 X102.728 Y102.911 E26.1581
G0 F3900 X103.027 Y103.206
G1 F900 X104.820 Y102.456 E26.2515
G1 X145.589 Y102.482 E28.2092
G1 X146.628 Y103.029 E28.2655
G1 X147.602 Y104.637 E28.3558
G1 X147.699 Y145.119 E30.2997
G1 X146.973 Y146.895 E30.3919
G1 X145.185 Y147.645 E30.4850
G1 X104.896 Y147.786 E32.4196
G1 X103.120 Y147.060 E32.5118
G1 X102.370 Y145.272 E32.6049
G1 X102.301 Y104.982 E34.5396
G1 X103.027 Y103.206 E34.6317
G0 F3900 X103.326 Y103.501
G1 F900 X104.820 Y102.876 E34.7095
G1 X145.589 Y102.902 E36.6672
G1 X146.277 Y103.260 E36.7044
G1 X147.182 Y104.638 E36.7836
G1 X147.279 Y145.120 E38.7275
G1 X146.674 Y146.600 E38.8043
G1 X145.184 Y147.225 E38.8819
G1 X104.895 Y147.366 E40.8165
G1 X103.415 Y146.761 E40.8933
G1 X102.790 Y145.271 E40.9709
G1 X102.721 Y104.981 E42.9056
G1 X103.326 Y103.501 E42.9824
G0 F3900 X103.141 Y104.980
G1 F900 X103.625 Y103.796 E43.0438
G1 X104.820 Y103.296 E43.1060
G1 X145.589 Y103.322 E45.0637
G1 X145.930 Y103.497 E45.0821
G1 X146.771 Y104.725 E45.1536
G1 X146.859 Y145.121 E47.0934
G1 X146.375 Y146.305 E47.1548
G1 X145.183 Y146.805 E47.2169
G1 X104.894 Y146.946 E49.1515
G1 X103.710 Y146.462 E49.2130
G1 X103.210 Y145.270 E49.2750
G1 X103.141 Y104.980 E51.2097
G0 F3900 X103.561 Y104.979
G1 F900 X103.924 Y104.091 E51.2558
G1 X104.820 Y103.716 E51.3024
G1 X145.589 Y103.742 E53.2601
G1 X146.362 Y104.821 E53.3239
G1 X146.439 Y145.122 E55.2591
G1 X146.076 Y146.010 E55.3052
G1 X145.182 Y146.385 E55.3517
G1 X104.893 Y146.526 E57.2864
G1 X104.005 Y146.163 E57.3325
G1 X103.630 Y145.269 E57.3790
G1 X103.561 Y104.979 E59.3137
G0 F3900 X103.981 Y104.978
G1 F900 X104.223 Y104.386 E59.3444
G1 X104.820 Y104.136 E59.3755
G1 X145.429 Y104.130 E61.3255
G1 X145.942 Y104.822 E61.3669
G1 X146.019 Y145.123 E63.3021
G1 X145.777 Y145.715 E63.3328
G1 X145.181 Y145.965 E63.3639
G1 X104.892 Y146.106 E65.2985
G1 X104.300 Y145.864 E65.3292
G1 X104.050 Y145.268 E65.3603
G1 X103.981 Y104.978 E67.2950
G0 F3900 X104.401 Y104.977
G1 F900 X104.522 Y104.681 E67.3103
G1 X104.820 Y104.556 E67.3258
G1 X145.269 Y104.518 E69.2682
G1 X145.530 Y104.906 E69.2906
G1 X145.599 Y145.124 E71.2219
G1 X145.478 Y145.420 E71.2372
G1 X145.180 Y145.545 E71.2527
G1 X104.891 Y145.686 E73.1874
G1 X104.595 Y145.565 E73.2028
G1 X104.470 Y145.267 E73.2183
G1 X104.401 Y104.977 E75.1530
G0 F3900 X104.821 Y104.976
G1 F900 X145.110 Y104.907 E77.0876
G1 X145.179 Y145.125 E79.0189
G1 X104.890 Y145.266 E80.9535
G1 X104.821 Y104.976 E82.8882
;PRINTING: T??glalap.stl
;PRINTING_ID: 0
G1 F2400 E79.8882
G0 F3900 X105.210 Y105.296
;TYPE:WALL-OUTER
;WIDTH:0.420
G1 F1500 E82.8882
G1 F2400 X144.790 Y105.296 E84.7888
G1 X144.790 Y144.805 E86.6860
G1 X105.210 Y144.877 E88.5866
G1 X105.210 Y105.296 E90.4873
G0 F3900 X105.630 Y105.716
;TYPE:WALL-INNER
;WIDTH:0.420
G1 F2400 X144.370 Y105.716 E92.3476
G1 X144.370 Y144.386 E94.2045
G1 X105.630 Y144.456 E96.0647
G1 X105.630 Y105.716 E97.9250
G1 F2400 E94.9250
G0 F3900 X105.730 Y105.726
G0 X143.621 Y105.904
;TYPE:SOLID-FILL
;WIDTH:0.420
G1 F1500 E97.9250
G1 F2400 X144.181 Y106.464 E97.9630
G0 F2400 X144.181 Y107.058
G1 F2400 X143.027 Y105.904 E98.0414
G0 F2400 X142.433 Y105.904
G1 F2400 X144.181 Y107.652 E98.1601
G0 F2400 X144.181 Y108.246
G1 F2400 X141.839 Y105.904 E98.3192
G0 F2400 X141.245 Y105.904
G1 F2400 X144.181 Y108.839 E98.5185
G0 F2400 X144.181 Y109.433
G1 F2400 X140.652 Y105.904 E98.7582
G0 F2400 X140.058 Y105.904
G1 F2400 X144.181 Y110.027 E99.0382
G0 F2400 X144.181 Y110.621
G1 F2400 X139.464 Y105.904 E99.3585
G0 F2400 X138.870 Y105.904
G1 F2400 X144.181 Y111.215 E99.7192
G0 F2400 X144.181 Y111.809
G1 F2400 X138.276 Y105.904 E100.1202
G0 F2400 X137.682 Y105.904
G1 F2400 X144.181 Y112.403 E100.5615
G0 F2400 X144.181 Y112.997
G1 F2400 X137.088 Y105.904 E101.0432
G0 F2400 X136.494 Y105.904
G1 F2400 X144.181 Y113.591 E101.5652
G0 F2400 X144.181 Y114.185
G1 F2400 X135.900 Y105.904 E102.1276
G0 F2400 X135.306 Y105.904
G1 F2400 X144.181 Y114.779 E102.7303
G0 F2400 X144.181 Y115.373
G1 F2400 X134.712 Y105.904 E103.3733
G0 F2400 X134.118 Y105.904
G1 F2400 X144.181 Y115.967 E104.0567
G0 F2400 X144.181 Y116.561
G1 F2400 X133.524 Y105.904 E104.7804
G0 F2400 X132.930 Y105.904
G1 F2400 X144.181 Y117.155 E105.5444
G0 F2400 X144.181 Y117.749
G1 F2400 X132.336 Y105.904 E106.3488
G0 F2400 X131.742 Y105.904
G1 F2400 X144.181 Y118.343 E107.1936
G0 F2400 X144.181 Y118.937
G1 F2400 X131.148 Y105.904 E108.0786
G0 F2400 X130.554 Y105.904
G1 F2400 X144.181 Y119.531 E109.0040
G0 F2400 X144.181 Y120.125
G1 F2400 X129.960 Y105.904 E109.9698
G0 F2400 X129.366 Y105.904
G1 F2400 X144.181 Y120.719 E110.9758
G0 F2400 X144.181 Y121.313
G1 F2400 X128.772 Y105.904 E112.0223
G0 F2400 X128.178 Y105.904
G1 F2400 X144.181 Y121.907 E113.1090
G0 F2400 X144.181 Y122.501
G1 F2400 X127.584 Y105.904 E114.2361
G0 F2400 X126.990 Y105.904
G1 F2400 X144.181 Y123.095 E115.4035
G0 F2400 X144.181 Y123.689
G1 F2400 X126.396 Y105.904 E116.6113
G0 F2400 X125.802 Y105.904
G1 F2400 X144.181 Y124.283 E117.8594
G0 F2400 X144.181 Y124.877
G1 F2400 X125.208 Y105.904 E119.1479
G0 F2400 X124.614 Y105.904
G1 F2400 X144.181 Y125.471 E120.4767
G0 F2400 X144.181 Y126.065
G1 F2400 X124.020 Y105.904 E121.8458
G0 F2400 X123.426 Y105.904
G1 F2400 X144.181 Y126.659 E123.2553
G0 F2400 X144.181 Y127.253
G1 F2400 X122.832 Y105.904 E124.7051
G0 F2400 X122.238 Y105.904
G1 F2400 X144.181 Y127.847 E126.1952
G0 F2400 X144.181 Y128.440
G1 F2400 X121.644 Y105.904 E127.7256
G0 F2400 X121.051 Y105.904
G1 F2400 X144.181 Y129.034 E129.2964
G0 F2400 X144.181 Y129.628
G1 F2400 X120.457 Y105.904 E130.9075
G0 F2400 X119.863 Y105.904
G1 F2400 X144.181 Y130.222 E132.5589
G0 F2400 X144.181 Y130.816
G1 F2400 X119.269 Y105.904 E134.2507
G0 F2400 X118.675 Y105.904
G1 F2400 X144.181 Y131.410 E135.9828
G0 F2400 X144.181 Y132.004
G1 F2400 X118.081 Y105.904 E137.7552
G0 F2400 X117.487 Y105.904
G1 F2400 X144.181 Y132.598 E139.5680
G0 F2400 X144.181 Y133.192
G1 F2400 X116.893 Y105.904 E141.4211
G0 F2400 X116.299 Y105.904
G1 F2400 X144.181 Y133.786 E143.3146
G0 F2400 X144.181 Y134.380
G1 F2400 X115.705 Y105.904 E145.2483
G0 F2400 X115.111 Y105.904
G1 F2400 X144.181 Y134.974 E147.2225
G0 F2400 X144.181 Y135.568
G1 F2400 X114.517 Y105.904 E149.2369
G0 F2400 X113.923 Y105.904
G1 F2400 X144.181 Y136.162 E151.2918
G0 F2400 X144.181 Y136.756
G1 F2400 X113.329 Y105.904 E153.3869
G0 F2400 X112.735 Y105.904
G1 F2400 X144.181 Y137.350 E155.5224
G0 F2400 X144.181 Y137.944
G1 F2400 X112.141 Y105.904 E157.6982
G0 F2400 X111.547 Y105.904
G1 F2400 X144.181 Y138.538 E159.9144
G0 F2400 X144.181 Y139.132
G1 F2400 X110.953 Y105.904 E162.1709
G0 F2400 X110.359 Y105.904
G1 F2400 X144.181 Y139.726 E164.4677
G0 F2400 X144.181 Y140.320
G1 F2400 X109.765 Y105.904 E166.8049
G0 F2400 X109.171 Y105.904
G1 F2400 X144.181 Y140.914 E169.1824
G0 F2400 X144.181 Y141.508
G1 F2400 X108.577 Y105.904 E171.6002
G0 F2400 X107.983 Y105.904
G1 F2400 X144.181 Y142.102 E174.0584
G0 F2400 X144.181 Y142.696
G1 F2400 X107.389 Y105.904 E176.5570
G0 F2400 X106.795 Y105.904
G1 F2400 X144.181 Y143.290 E179.0958
G0 F2400 X144.181 Y143.884
G1 F2400 X106.201 Y105.904 E181.6750
G0 F2400 X105.819 Y106.116
G1 F2400 X143.899 Y144.196 E184.2610
G0 F2400 X143.307 Y144.198
G1 F2400 X105.819 Y106.710 E186.8068
G0 F2400 X105.819 Y107.304
G1 F2400 X142.713 Y144.198 E189.3123
G0 F2400 X142.121 Y144.200
G1 F2400 X105.819 Y107.898 E191.7775
G0 F2400 X105.819 Y108.492
G1 F2400 X141.528 Y144.200 E194.2025
G0 F2400 X140.935 Y144.202
G1 F2400 X105.819 Y109.086 E196.5872
G0 F2400 X105.819 Y109.680
G1 F2400 X140.342 Y144.203 E198.9316
G0 F2400 X139.749 Y144.204
G1 F2400 X105.819 Y110.274 E201.2358
G0 F2400 X105.819 Y110.867
G1 F2400 X139.156 Y144.205 E203.4998
G0 F2400 X138.563 Y144.206
G1 F2400 X105.819 Y111.461 E205.7234
G0 F2400 X105.819 Y112.055
G1 F2400 X137.970 Y144.207 E207.9068
G0 F2400 X137.378 Y144.208
G1 F2400 X105.819 Y112.649 E210.0500
G0 F2400 X105.819 Y113.243
G1 F2400 X136.784 Y144.209 E212.1528
G0 F2400 X136.192 Y144.210
G1 F2400 X105.819 Y113.837 E214.2154
G0 F2400 X105.819 Y114.431
G1 F2400 X135.599 Y144.211 E216.2378
G0 F2400 X135.006 Y144.213
G1 F2400 X105.819 Y115.025 E218.2199
G0 F2400 X105.819 Y115.619
G1 F2400 X134.413 Y144.213 E220.1617
G0 F2400 X133.820 Y144.215
G1 F2400 X105.819 Y116.213 E222.0633
G0 F2400 X105.819 Y116.807
G1 F2400 X133.227 Y144.215 E223.9245
G0 F2400 X132.634 Y144.217
G1 F2400 X105.819 Y117.401 E225.7456
G0 F2400 X105.819 Y117.995
G1 F2400 X132.042 Y144.218 E227.5264
G0 F2400 X131.449 Y144.219
G1 F2400 X105.819 Y118.589 E229.2669
G0 F2400 X105.819 Y119.183
G1 F2400 X130.856 Y144.220 E230.9671
G0 F2400 X130.263 Y144.221
G1 F2400 X105.819 Y119.777 E232.6271
G0 F2400 X105.819 Y120.371
G1 F2400 X129.670 Y144.222 E234.2468
G0 F2400 X129.077 Y144.223
G1 F2400 X105.819 Y120.965 E235.8263
G0 F2400 X105.819 Y121.559
G1 F2400 X128.484 Y144.225 E237.3655
G0 F2400 X127.891 Y144.225
G1 F2400 X105.819 Y122.153 E238.8644
G0 F2400 X105.819 Y122.747
G1 F2400 X127.299 Y144.227 E240.3231
G0 F2400 X126.705 Y144.227
G1 F2400 X105.819 Y123.341 E241.7414
G0 F2400 X105.819 Y123.935
G1 F2400 X126.113 Y144.229 E243.1196
G0 F2400 X125.519 Y144.229
G1 F2400 X105.819 Y124.529 E244.4574
G0 F2400 X105.819 Y125.123
G1 F2400 X124.927 Y144.231 E245.7550
G0 F2400 X124.334 Y144.232
G1 F2400 X105.819 Y125.717 E247.0124
G0 F2400 X105.819 Y126.311
G1 F2400 X123.741 Y144.233 E248.2294
G0 F2400 X123.148 Y144.234
G1 F2400 X105.819 Y126.905 E249.4063
G0 F2400 X105.819 Y127.499
G1 F2400 X122.555 Y144.235 E250.5428
G0 F2400 X121.962 Y144.236
G1 F2400 X105.819 Y128.093 E251.6390
G0 F2400 X105.819 Y128.687
G1 F2400 X121.369 Y144.237 E252.6950
G0 F2400 X120.776 Y144.238
G1 F2400 X105.819 Y129.281 E253.7108
G0 F2400 X105.819 Y129.875
G1 F2400 X120.184 Y144.239 E254.6863
G0 F2400 X119.590 Y144.240
G1 F2400 X105.819 Y130.468 E255.6215
G0 F2400 X105.819 Y131.062
G1 F2400 X118.998 Y144.242 E256.5165
G0 F2400 X118.405 Y144.242
G1 F2400 X105.819 Y131.656 E257.3712
G0 F2400 X105.819 Y132.250
G1 F2400 X117.812 Y144.244 E258.1857
G0 F2400 X117.219 Y144.244
G1 F2400 X105.819 Y132.844 E258.9598
G0 F2400 X105.819 Y133.438
G1 F2400 X116.626 Y144.246 E259.6938
G0 F2400 X116.033 Y144.246
G1 F2400 X105.819 Y134.032 E260.3874
G0 F2400 X105.819 Y134.626
G1 F2400 X115.440 Y144.248 E261.0408
G0 F2400 X114.847 Y144.249
G1 F2400 X105.819 Y135.220 E261.6539
G0 F2400 X105.819 Y135.814
G1 F2400 X114.255 Y144.250 E262.2268
G0 F2400 X113.661 Y144.251
G1 F2400 X105.819 Y136.408 E262.7594
G0 F2400 X105.819 Y137.002
G1 F2400 X113.069 Y144.252 E263.2517
G0 F2400 X112.475 Y144.253
G1 F2400 X105.819 Y137.596 E263.7038
G0 F2400 X105.819 Y138.190
G1 F2400 X111.883 Y144.254 E264.1156
G0 F2400 X111.290 Y144.256
G1 F2400 X105.819 Y138.784 E264.4871
G0 F2400 X105.819 Y139.378
G1 F2400 X110.697 Y144.256 E264.8184
G0 F2400 X110.105 Y144.258
G1 F2400 X105.819 Y139.972 E265.1095
G0 F2400 X105.819 Y140.566
G1 F2400 X109.511 Y144.258 E265.3602
G0 F2400 X108.919 Y144.260
G1 F2400 X105.819 Y141.160 E265.5707
G0 F2400 X105.819 Y141.754
G1 F2400 X108.325 Y144.261 E265.7409
G0 F2400 X107.733 Y144.262
G1 F2400 X105.819 Y142.348 E265.8709
G0 F2400 X105.819 Y142.942
G1 F2400 X107.140 Y144.263 E265.9606
G0 F2400 X106.547 Y144.264
G1 F2400 X105.819 Y143.536 E266.0100
G0 F2400 X105.819 Y144.130
G1 F2400 X105.954 Y144.265 E266.0192
;PRINTING_TIME: 225
;REMAINING_TIME: 3152
;LAYER:1
;Z:0.800
;HEIGHT:0.300
;FLOW:100.0
;PRINTING: T??glalap.stl
;PRINTING_ID: 0
G1 F2400 E263.0192
G0 F300 Z0.800
G0 F3900 X105.954 Y144.265
G0 X105.730 Y105.724
G0 X105.210 Y105.294
;TYPE:WALL-OUTER
;WIDTH:0.420
G1 F1500 E266.0192
G1 F2100 X144.790 Y105.294 E268.0926
G1 X144.790 Y144.875 E270.1660
G1 X105.210 Y144.875 E272.2394
G1 X105.210 Y105.294 E274.3129
G0 F3900 X105.630 Y105.714
;TYPE:WALL-INNER
;WIDTH:0.420
;FLOW:90.0
G1 F2400 X144.370 Y105.714 E276.1393
G1 X144.370 Y144.455 E277.9658
G1 X105.630 Y144.455 E279.7922
G1 X105.630 Y105.714 E281.6187
G0 F3900 X105.819 Y106.524
;TYPE:SOLID-FILL
;WIDTH:0.420
;FLOW:95.0
G1 F2700 X106.441 Y105.902 E281.6625
G0 F2700 X107.035 Y105.902
G1 F2700 X105.819 Y107.118 E281.7481
G0 F2700 X105.819 Y107.712
G1 F2700 X107.629 Y105.902 E281.8755
G0 F2700 X108.223 Y105.902
G1 F2700 X105.819 Y108.306 E282.0447
G0 F2700 X105.819 Y108.900
G1 F2700 X108.817 Y105.902 E282.2557
G0 F2700 X109.411 Y105.902
G1 F2700 X105.819 Y109.494 E282.5085
G0 F2700 X105.819 Y110.088
G1 F2700 X110.005 Y105.902 E282.8031
G0 F2700 X110.599 Y105.902
G1 F2700 X105.819 Y110.682 E283.1395
G0 F2700 X105.819 Y111.276
G1 F2700 X111.193 Y105.902 E283.5177
G0 F2700 X111.787 Y105.902
G1 F2700 X105.819 Y111.870 E283.9377
G0 F2700 X105.819 Y112.464
G1 F2700 X112.381 Y105.902 E284.3996
G0 F2700 X112.975 Y105.902
G1 F2700 X105.819 Y113.058 E284.9032
G0 F2700 X105.819 Y113.652
G1 F2700 X113.569 Y105.902 E285.4486
G0 F2700 X114.163 Y105.902
G1 F2700 X105.819 Y114.246 E286.0359
G0 F2700 X105.819 Y114.840
G1 F2700 X114.757 Y105.902 E286.6649
G0 F2700 X115.351 Y105.902
G1 F2700 X105.819 Y115.434 E287.3358
G0 F2700 X105.819 Y116.028
G1 F2700 X115.945 Y105.902 E288.0484
G0 F2700 X116.538 Y105.902
G1 F2700 X105.819 Y116.622 E288.8028
G0 F2700 X105.819 Y117.216
G1 F2700 X117.132 Y105.902 E289.5991
G0 F2700 X117.726 Y105.902
G1 F2700 X105.819 Y117.810 E290.4371
G0 F2700 X105.819 Y118.404
G1 F2700 X118.320 Y105.902 E291.3170
G0 F2700 X118.914 Y105.902
G1 F2700 X105.819 Y118.998 E292.2386
G0 F2700 X105.819 Y119.592
G1 F2700 X119.508 Y105.902 E293.2021
G0 F2700 X120.102 Y105.902
G1 F2700 X105.819 Y120.186 E294.2073
G0 F2700 X105.819 Y120.780
G1 F2700 X120.696 Y105.902 E295.2544
