;Sliced by ideaMaker 5.1.0.8435, 2024-08-26 08:29:47 UTC+0200
;Slicer Version: 5.1.0.8430
;Dimension: 250.000 250.000 250.000 0.400
;Plate Shape: 0
;Origin Center: 0
;Extruder Offset #1: 25.000 0.000
;Filament Diameter #1: 1.750
;Filament Diameter #2: 1.750
;Filament Compensation #1: 94.000
;Filament Compensation #2: 90.000
;Filament Density #1: 1240.000
;Filament Density #2: 1240.000
;Filament Type #1: PLA
;Filament Type #2: 
;Filament Name #1: [Raise3D] Premium PLA 1.75mm
;Filament Name #2: 
;Printer Type: floppy
;Firmware: Klipper
;Bounding Box: 102.833 147.253 110.132 140.007 0.000 13.150
;Model Gap: 0.000
M221 T0 S94.00
M140 S50.00
M104 T0 S200.00
M109 T0 S200.00
T0
M190 S50.00
G21 ;metric values
G90 ;absolute positioning
M82 ;set extruder to absolute mode
M107 ;start with the fan off
G28 X0 Y0 ;move X/Y to min endstops
G28 Z0 ;move Z to min endstops
G1 Z15.0 F9000 ;move the platform down 15mm
G92 E0 ;zero the extruded length
G1 F200 E12 ;extrude 15mm of feed stock
G92 E0 ;zero the extruded length again
G0 X12 Y17 F2000
G92 X0 Y0 E0
G0 F9000 Z1
G1 F200 Z0
G1 Z15.0 F9000 ;move the platform down 15mm
G1 F9000
G92 E-3
M117 Printing...
M1001
;TOTAL_NUM: 1
;PRINTING_TIME: 0
;REMAINING_TIME: 911
;LAYER:0
;Z:0.550
;HEIGHT:0.550
M106 S0
;PRINTING: NON-OBJECT
;PRINTING_ID: -1
G1 F2400 E-3.0000
G0 F3900 X103.792 Y111.443
G0 F300 Z0.550
;TYPE:SKIRT
;WIDTH:0.420
;FLOW:55.0
G1 F1500 E0.0000
G1 F900 X105.553 Y110.132 E0.1160
G1 X110.481 Y110.168 E0.3763
G1 X112.393 Y111.265 E0.4927
G1 X113.204 Y113.188 E0.6030
G1 X113.385 Y122.137 E1.0757
G1 X113.978 Y122.843 E1.1244
G1 X114.787 Y125.018 E1.2470
G1 X113.664 Y128.084 E1.4195
G1 X113.724 Y128.669 E1.4506
G1 X116.254 Y128.315 E1.5855
G1 X118.333 Y128.869 E1.6991
G1 X120.127 Y129.941 E1.8095
G1 X130.285 Y129.941 E2.3461
G1 X132.270 Y128.766 E2.4679
G1 X134.479 Y128.287 E2.5873
G1 X136.630 Y128.774 E2.7038
G1 X136.694 Y128.228 E2.7329
G1 X135.888 Y126.414 E2.8377
G1 X135.773 Y124.007 E2.9650
G1 X135.910 Y123.676 E2.9839
G1 X139.785 Y120.147 E3.2608
G1 X142.443 Y119.378 E3.4069
G1 X143.084 Y119.468 E3.4411
G1 X146.243 Y122.328 E3.6662
G1 X147.253 Y125.347 E3.8344
G1 X146.606 Y126.614 E3.9095
G1 X146.733 Y127.575 E3.9607
G1 X146.016 Y134.633 E4.3354
G1 X144.471 Y137.727 E4.5181
G1 X140.097 Y140.007 E4.7786
G1 X138.109 Y139.968 E4.8837
G1 X136.029 Y139.553 E4.9957
G1 X134.495 Y138.774 E5.0866
G1 X132.273 Y139.671 E5.2132
G1 X106.679 Y139.638 E6.5651
G1 X104.024 Y138.540 E6.7168
G1 X102.908 Y135.891 E6.8687
G1 X102.833 Y113.408 E8.0562
G1 X103.792 Y111.443 E8.1717
G0 F3900 X104.048 Y111.776
G1 F900 X105.662 Y110.537 E8.2792
G1 X110.277 Y110.535 E8.5230
G1 X112.065 Y111.527 E8.6310
G1 X112.784 Y113.196 E8.7270
G1 X112.968 Y122.300 E9.2080
G1 X113.586 Y122.995 E9.2571
G1 X114.367 Y125.009 E9.3712
G1 X113.236 Y128.030 E9.5416
G1 X113.366 Y129.296 E9.6088
G1 X113.827 Y129.072 E9.6359
G1 X116.146 Y128.721 E9.7598
G1 X118.225 Y129.275 E9.8734
G1 X120.009 Y130.361 E9.9837
G1 X130.402 Y130.361 E10.5327
G1 X132.359 Y129.176 E10.6536
G1 X134.568 Y128.697 E10.7729
G1 X136.991 Y129.296 E10.9048
G1 X137.125 Y128.160 E10.9652
G1 X136.308 Y126.394 E11.0680
G1 X136.193 Y123.987 E11.1953
G1 X140.068 Y120.458 E11.4721
G1 X142.553 Y119.783 E11.6081
G1 X142.870 Y119.829 E11.6251
G1 X145.960 Y122.639 E11.8457
G1 X146.834 Y125.315 E11.9944
G1 X146.172 Y126.533 E12.0676
G1 X146.317 Y127.630 E12.1260
G1 X145.598 Y134.590 E12.4956
G1 X144.195 Y137.411 E12.6621
G1 X140.105 Y139.587 E12.9068
G1 X138.117 Y139.548 E13.0118
G1 X136.113 Y139.141 E13.1198
G1 X134.514 Y138.311 E13.2150
G1 X132.274 Y139.251 E13.3433
G1 X106.680 Y139.218 E14.6952
G1 X104.320 Y138.242 E14.8301
G1 X103.328 Y135.889 E14.9650
G1 X103.214 Y113.584 E16.1432
G1 X104.048 Y111.776 E16.2483
G0 F3900 X104.429 Y111.952
G1 F900 X105.768 Y110.943 E16.3369
G1 X110.276 Y110.955 E16.5750
G1 X111.734 Y111.785 E16.6636
G1 X112.364 Y113.204 E16.7456
G1 X112.551 Y122.471 E17.2352
G1 X113.197 Y123.153 E17.2849
G1 X113.947 Y125.006 E17.3904
G1 X112.808 Y127.973 E17.5583
G1 X113.013 Y129.967 E17.6642
G1 X113.896 Y129.486 E17.7173
G1 X116.038 Y129.127 E17.8320
G1 X118.117 Y129.681 E17.9457
G1 X119.888 Y130.781 E18.0558
G1 X130.519 Y130.781 E18.6173
G1 X132.577 Y129.535 E18.7444
G1 X134.653 Y129.108 E18.8564
G1 X136.528 Y129.513 E18.9577
G1 X137.334 Y129.980 E19.0069
G1 X137.556 Y128.088 E19.1075
G1 X136.727 Y126.368 E19.2084
G1 X136.590 Y124.123 E19.3272
G1 X140.348 Y120.771 E19.5932
G1 X142.656 Y120.190 E19.7189
G1 X145.677 Y122.949 E19.9350
G1 X146.415 Y125.280 E20.0642
G1 X145.735 Y126.449 E20.1356
G1 X145.899 Y127.587 E20.1963
G1 X145.180 Y134.547 E20.5659
G1 X143.918 Y137.095 E20.7161
G1 X140.113 Y139.167 E20.9450
G1 X138.125 Y139.128 E21.0500
G1 X136.198 Y138.730 E21.1539
G1 X134.532 Y137.845 E21.2536
G1 X132.275 Y138.831 E21.3837
G1 X106.681 Y138.798 E22.7356
G1 X104.616 Y137.944 E22.8536
G1 X103.748 Y135.886 E22.9716
G1 X103.595 Y113.760 E24.1403
G1 X104.429 Y111.952 E24.2455
G0 F3900 X104.688 Y112.283
G1 F900 X105.882 Y111.347 E24.3256
G1 X110.273 Y111.375 E24.5576
G1 X111.399 Y112.038 E24.6266
G1 X111.944 Y113.212 E24.6950
G1 X112.134 Y122.650 E25.1936
G1 X112.810 Y123.317 E25.2438
G1 X113.527 Y125.010 E25.3409
G1 X112.379 Y127.914 E25.5058
G1 X112.661 Y130.653 E25.6513
G1 X113.973 Y129.899 E25.7312
G1 X115.930 Y129.533 E25.8364
G1 X118.009 Y130.087 E25.9500
G1 X119.766 Y131.201 E26.0599
G1 X130.638 Y131.201 E26.6342
G1 X132.669 Y129.945 E26.7603
G1 X134.564 Y129.519 E26.8629
G1 X136.439 Y129.924 E26.9642
G1 X137.675 Y130.681 E27.0408
G1 X137.988 Y128.013 E27.1827
G1 X137.146 Y126.336 E27.2818
G1 X136.989 Y124.253 E27.3921
G1 X140.624 Y121.088 E27.6467
G1 X142.593 Y120.605 E27.7538
G1 X145.388 Y123.254 E27.9572
G1 X145.997 Y125.241 E28.0670
G1 X145.296 Y126.359 E28.1367
G1 X145.481 Y127.544 E28.2001
G1 X144.762 Y134.504 E28.5696
G1 X143.640 Y136.780 E28.7037
G1 X140.121 Y138.747 E28.9166
G1 X138.133 Y138.708 E29.0217
G1 X136.285 Y138.319 E29.1214
G1 X134.548 Y137.376 E29.2258
G1 X132.276 Y138.411 E29.3577
G1 X106.682 Y138.378 E30.7096
G1 X104.912 Y137.646 E30.8108
G1 X104.168 Y135.882 E30.9119
G1 X103.981 Y113.926 E32.0717
G1 X104.688 Y112.283 E32.1662
G0 F3900 X105.070 Y112.458
G1 F900 X105.991 Y111.753 E32.2274
G1 X110.069 Y111.742 E32.4428
G1 X111.070 Y112.299 E32.5033
G1 X111.561 Y113.385 E32.5663
G1 X111.717 Y122.838 E33.0657
G1 X112.426 Y123.487 E33.1164
G1 X113.107 Y125.021 E33.2051
G1 X111.950 Y127.852 E33.3666
G1 X112.311 Y131.351 E33.5524
G1 X114.059 Y130.310 E33.6599
G1 X115.826 Y129.940 E33.7553
G1 X117.784 Y130.442 E33.8620
G1 X119.643 Y131.621 E33.9783
G1 X130.757 Y131.621 E34.5654
G1 X132.890 Y130.302 E34.6978
G1 X134.651 Y129.930 E34.7929
G1 X136.342 Y130.333 E34.8847
G1 X138.014 Y131.394 E34.9893
G1 X138.420 Y127.933 E35.1734
G1 X137.564 Y126.298 E35.2709
G1 X137.390 Y124.377 E35.3728
G1 X140.895 Y121.408 E35.6154
G1 X142.527 Y121.020 E35.7040
G1 X145.093 Y123.553 E35.8945
G1 X145.579 Y125.198 E35.9851
G1 X144.854 Y126.263 E36.0531
G1 X145.063 Y127.501 E36.1194
G1 X144.344 Y134.461 E36.4890
G1 X143.265 Y136.590 E36.6151
G1 X140.129 Y138.327 E36.8045
G1 X138.141 Y138.288 E36.9095
G1 X136.373 Y137.908 E37.0050
G1 X134.563 Y136.904 E37.1143
G1 X132.277 Y137.991 E37.2480
G1 X106.683 Y137.958 E38.6000
G1 X105.208 Y137.348 E38.6843
G1 X104.588 Y135.878 E38.7685
G1 X104.401 Y113.922 E39.9283
G1 X105.070 Y112.458 E40.0133
G0 F3900 X105.447 Y112.643
G1 F900 X106.095 Y112.160 E40.0560
G1 X109.875 Y112.115 E40.2557
G1 X110.749 Y112.570 E40.3078
G1 X111.176 Y113.552 E40.3643
G1 X111.299 Y123.035 E40.8653
G1 X112.045 Y123.665 E40.9168
G1 X112.687 Y125.040 E40.9970
G1 X111.521 Y127.787 E41.1546
G1 X111.960 Y132.049 E41.3809
G1 X114.274 Y130.671 E41.5232
G1 X115.726 Y130.348 E41.6018
G1 X117.559 Y130.797 E41.7015
G1 X119.521 Y132.041 E41.8242
G1 X130.876 Y132.041 E42.4240
G1 X133.111 Y130.659 E42.5628
G1 X134.559 Y130.340 E42.6411
G1 X136.117 Y130.688 E42.7254
G1 X137.850 Y131.788 E42.8338
G1 X138.369 Y131.967 E42.8628
G1 X138.853 Y127.849 E43.0818
G1 X137.982 Y126.253 E43.1779
G1 X137.793 Y124.495 E43.2713
G1 X141.161 Y121.733 E43.5013
G1 X142.458 Y121.434 E43.5717
G1 X144.791 Y123.845 E43.7489
G1 X145.162 Y125.150 E43.8205
G1 X144.408 Y126.159 E43.8871
G1 X144.645 Y127.458 E43.9568
G1 X143.926 Y134.418 E44.3264
G1 X142.893 Y136.395 E44.4442
G1 X140.137 Y137.907 E44.6103
G1 X138.149 Y137.868 E44.7153
G1 X136.463 Y137.498 E44.8065
G1 X134.575 Y136.429 E44.9211
G1 X132.278 Y137.571 E45.0566
G1 X106.684 Y137.538 E46.4085
G1 X105.504 Y137.050 E46.4759
G1 X105.008 Y135.874 E46.5433
G1 X104.821 Y113.918 E47.7031
G1 X105.447 Y112.643 E47.7782
G0 F3900 X105.817 Y112.842
G1 F900 X106.324 Y112.512 E47.8101
G1 X109.693 Y112.494 E47.9881
G1 X110.437 Y112.851 E48.0317
G1 X110.787 Y113.710 E48.0807
G1 X110.881 Y123.242 E48.5842
G1 X111.668 Y123.851 E48.6367
G1 X112.268 Y125.068 E48.7084
G1 X111.092 Y127.719 E48.8616
G1 X111.582 Y132.486 E49.1147
G1 X112.007 Y132.484 E49.1372
G1 X112.629 Y132.227 E49.1727
G1 X114.501 Y131.024 E49.2903
G1 X115.631 Y130.757 E49.3516
G1 X117.334 Y131.152 E49.4439
G1 X119.398 Y132.461 E49.5730
G1 X130.995 Y132.461 E50.1856
G1 X133.332 Y131.016 E50.3307
G1 X134.642 Y130.752 E50.4013
G1 X136.015 Y131.095 E50.4761
G1 X137.664 Y132.168 E50.5800
G1 X138.725 Y132.535 E50.6393
G1 X139.286 Y127.762 E50.8931
G1 X138.399 Y126.200 E50.9880
G1 X138.198 Y124.605 E51.0729
G1 X141.421 Y122.063 E51.2898
G1 X142.386 Y121.848 E51.3420
G1 X144.482 Y124.129 E51.5056
G1 X144.745 Y125.097 E51.5586
G1 X143.957 Y126.043 E51.6236
G1 X144.227 Y127.415 E51.6975
G1 X143.508 Y134.375 E52.0671
G1 X142.524 Y136.195 E52.1764
G1 X140.145 Y137.487 E52.3194
G1 X138.157 Y137.448 E52.4244
G1 X136.555 Y137.088 E52.5111
G1 X134.585 Y135.950 E52.6313
G1 X132.279 Y137.151 E52.7686
G1 X106.685 Y137.118 E54.1205
G1 X105.800 Y136.752 E54.1711
G1 X105.428 Y135.870 E54.2217
G1 X105.241 Y113.914 E55.3815
G1 X105.817 Y112.842 E55.4458
G0 F3900 X106.515 Y112.886
G1 F900 X109.689 Y112.914 E55.6134
G1 X110.121 Y113.128 E55.6389
G1 X110.367 Y113.714 E55.6725
G1 X110.463 Y123.462 E56.1874
G1 X111.296 Y124.046 E56.2411
G1 X111.850 Y125.106 E56.3043
G1 X110.662 Y127.648 E56.4525
G1 X111.203 Y132.909 E56.7319
G1 X112.091 Y132.903 E56.7788
G1 X112.824 Y132.600 E56.8207
G1 X114.728 Y131.377 E56.9402
G1 X115.718 Y131.168 E56.9936
G1 X117.109 Y131.507 E57.0693
G1 X119.276 Y132.881 E57.2048
G1 X131.114 Y132.881 E57.8301
G1 X133.553 Y131.373 E57.9816
G1 X134.716 Y131.165 E58.0440
G1 X135.901 Y131.499 E58.1090
G1 X137.463 Y132.539 E58.2081
G1 X138.439 Y132.933 E58.2637
G1 X139.095 Y132.988 E58.2985
G1 X139.719 Y127.675 E58.5811
G1 X138.764 Y125.993 E58.6832
G1 X138.603 Y124.715 E58.7513
G1 X141.674 Y122.398 E58.9545
G1 X142.311 Y122.261 E58.9889
G1 X144.164 Y124.404 E59.1385
G1 X144.329 Y125.040 E59.1732
G1 X143.466 Y125.950 E59.2395
G1 X143.705 Y126.539 E59.2731
G1 X143.810 Y127.462 E59.3221
G1 X143.090 Y134.331 E59.6869
G1 X142.158 Y135.989 E59.7874
G1 X140.153 Y137.067 E59.9077
G1 X138.165 Y137.028 E60.0127
G1 X136.649 Y136.679 E60.0949
G1 X134.593 Y135.467 E60.2209
G1 X132.280 Y136.731 E60.3602
G1 X106.686 Y136.698 E61.7121
G1 X106.096 Y136.454 E61.7458
G1 X105.848 Y135.866 E61.7795
G1 X105.661 Y113.910 E62.9393
G1 X106.176 Y113.059 E62.9918
G1 X106.515 Y112.886 E63.0119
G0 F3900 X106.081 Y113.906
G1 F900 X106.516 Y113.306 E63.0511
G1 X109.528 Y113.302 E63.2102
G1 X109.824 Y113.425 E63.2271
G1 X109.947 Y113.718 E63.2439
G1 X110.045 Y123.696 E63.7710
G1 X110.929 Y124.251 E63.8261
G1 X111.433 Y125.155 E63.8808
G1 X110.232 Y127.570 E64.0232
G1 X110.824 Y133.332 E64.3292
G1 X112.175 Y133.322 E64.4006
G1 X113.019 Y132.973 E64.4488
G1 X114.955 Y131.730 E64.5703
G1 X115.792 Y131.581 E64.6152
G1 X116.884 Y131.862 E64.6748
G1 X119.153 Y133.301 E64.8167
G1 X131.233 Y133.301 E65.4548
G1 X133.774 Y131.730 E65.6126
G1 X134.778 Y131.580 E65.6662
G1 X135.668 Y131.849 E65.7153
G1 X137.262 Y132.910 E65.8165
G1 X138.344 Y133.347 E65.8781
G1 X139.465 Y133.441 E65.9375
G1 X140.152 Y127.588 E66.2488
G1 X139.129 Y125.786 E66.3583
G1 X139.008 Y124.825 E66.4094
G1 X141.919 Y122.739 E66.5986
G1 X142.233 Y122.674 E66.6155
G1 X143.837 Y124.667 E66.7507
G1 X143.914 Y124.978 E66.7676
G1 X142.960 Y125.843 E66.8356
G1 X143.288 Y126.586 E66.8785
G1 X143.393 Y127.509 E66.9276
G1 X142.672 Y134.287 E67.2876
G1 X141.796 Y135.776 E67.3789
G1 X140.161 Y136.647 E67.4767
G1 X138.173 Y136.608 E67.5817
G1 X136.746 Y136.270 E67.6592
G1 X134.598 Y134.980 E67.7916
G1 X132.281 Y136.311 E67.9327
G1 X106.687 Y136.278 E69.2846
G1 X106.392 Y136.156 E69.3015
G1 X106.268 Y135.862 E69.3183
G1 X106.081 Y113.906 E70.4781
G0 F3900 X106.501 Y113.902
G1 F900 X106.616 Y113.714 E70.4898
G1 X109.527 Y113.722 E70.6435
G1 X109.627 Y123.930 E71.1827
G1 X110.706 Y124.607 E71.2500
G1 X111.015 Y125.194 E71.2851
G1 X109.801 Y127.486 E71.4221
G1 X110.417 Y133.478 E71.7402
G1 X110.574 Y133.754 E71.7570
G1 X112.259 Y133.741 E71.8460
G1 X113.214 Y133.347 E71.9006
G1 X115.182 Y132.083 E72.0241
G1 X115.845 Y131.998 E72.0594
G1 X116.659 Y132.217 E72.1040
G1 X119.031 Y133.721 E72.2523
G1 X131.352 Y133.721 E72.9031
G1 X133.995 Y132.087 E73.0673
G1 X134.823 Y131.998 E73.1112
G1 X135.529 Y132.245 E73.1508
G1 X137.062 Y133.282 E73.2485
G1 X138.249 Y133.761 E73.3161
G1 X139.650 Y133.879 E73.3904
G1 X139.963 Y133.495 E73.4166
G1 X140.584 Y127.499 E73.7350
G1 X139.494 Y125.579 E73.8516
G1 X139.413 Y124.935 E73.8859
G1 X142.154 Y123.087 E74.0605
G1 X143.499 Y124.916 E74.1804
G1 X142.433 Y125.712 E74.2507
G1 X142.871 Y126.633 E74.3046
G1 X142.976 Y127.556 E74.3536
G1 X142.254 Y134.242 E74.7088
G1 X141.439 Y135.554 E74.7904
G1 X140.169 Y136.227 E74.8663
G1 X138.181 Y136.188 E74.9714
G1 X136.962 Y135.910 E75.0374
G1 X134.597 Y134.490 E75.1831
G1 X132.282 Y135.891 E75.3261
G1 X106.688 Y135.858 E76.6780
G1 X106.501 Y113.902 E77.8378
;PRINTING: T5_holder_angle 135.stl
;PRINTING_ID: 0
G1 F2400 E74.8378
G0 F3900 X106.922 Y114.111
;TYPE:WALL-OUTER
;WIDTH:0.420
G1 F1500 E77.8378
G1 F2400 X109.207 Y114.111 E77.9584
G1 X109.207 Y124.163 E78.4894
G1 X110.436 Y124.934 E78.5660
G1 X110.567 Y125.180 E78.5808
G1 X109.369 Y127.400 E78.7140
G1 X110.009 Y133.610 E79.0438
G1 X110.330 Y134.176 E79.0781
G1 X112.343 Y134.161 E79.1845
G1 X113.410 Y133.720 E79.2455
G1 X115.366 Y132.464 E79.3682
G1 X115.843 Y132.420 E79.3935
G1 X116.514 Y132.613 E79.4304
G1 X118.909 Y134.141 E79.5805
G1 X131.474 Y134.141 E80.2442
G1 X133.783 Y132.664 E80.3890
G1 X134.812 Y132.420 E80.4448
G1 X135.355 Y132.628 E80.4755
G1 X136.863 Y133.655 E80.5719
G1 X138.149 Y134.174 E80.6452
G1 X139.743 Y134.309 E80.7297
G1 X140.113 Y134.104 E80.7520
G1 X140.373 Y133.620 E80.7810
G1 X141.016 Y127.408 E81.1109
G1 X139.834 Y125.116 E81.2471
G1 X142.107 Y123.587 E81.3918
G1 X142.991 Y124.865 E81.4739
G1 X141.893 Y125.554 E81.5424
G1 X142.476 Y126.781 E81.6141
G1 X142.556 Y127.575 E81.6563
G1 X141.841 Y134.148 E82.0055
G1 X141.115 Y135.281 E82.0766
G1 X140.122 Y135.806 E82.1359
G1 X138.212 Y135.768 E82.2368
G1 X137.090 Y135.508 E82.2977
G1 X134.595 Y133.998 E82.4517
G1 X132.223 Y135.471 E82.5992
G1 X107.007 Y135.469 E83.9311
G1 X106.922 Y114.111 E85.0593
G0 F3900 X107.344 Y114.531
;TYPE:WALL-INNER
;WIDTH:0.420
G1 F2400 X108.787 Y114.531 E85.1355
G1 X108.787 Y124.395 E85.6566
G1 X110.077 Y125.204 E85.7370
G1 X108.938 Y127.314 E85.8636
G1 X109.600 Y133.741 E86.2049
G1 X110.086 Y134.598 E86.2570
G1 X112.428 Y134.580 E86.3807
G1 X113.605 Y134.094 E86.4479
G1 X115.507 Y132.873 E86.5673
G1 X115.803 Y132.845 E86.5830
G1 X116.339 Y133.000 E86.6125
G1 X118.786 Y134.561 E86.7658
G1 X131.597 Y134.561 E87.4425
G1 X133.949 Y133.056 E87.5900
G1 X134.783 Y132.859 E87.6353
G1 X136.664 Y134.028 E87.7522
G1 X138.050 Y134.587 E87.8312
G1 X139.835 Y134.738 E87.9258
G1 X140.425 Y134.412 E87.9614
G1 X140.782 Y133.746 E88.0013
G1 X141.447 Y127.327 E88.3422
G1 X140.379 Y125.256 E88.4653
G1 X141.997 Y124.167 E88.5683
G1 X142.396 Y124.743 E88.6053
G1 X141.353 Y125.397 E88.6703
G1 X142.065 Y126.896 E88.7580
G1 X142.134 Y127.573 E88.7939
G1 X141.434 Y134.004 E89.1356
G1 X140.821 Y134.961 E89.1957
G1 X140.022 Y135.384 E89.2434
