;Sliced by ideaMaker 5.1.4.8480, 2025-02-01 10:47:43 UTC+0100
;Slicer Version: 5.1.4.8480
;Dimension: 250.000 250.000 250.000 0.400
;Plate Shape: 0
;Origin Center: 0
;Extruder Offset #1: 25.000 0.000
;Filament Diameter #1: 1.750
;Filament Diameter #2: 1.750
;Filament Compensation #1: 94.000
;Filament Compensation #2: 90.000
;Filament Density #1: 1240.000
;Filament Density #2: 1240.000
;Filament Type #1: PLA
;Filament Type #2: 
;Filament Name #1: [Raise3D] Premium PLA 1.75mm
;Filament Name #2: 
;Printer Type: floppy
;Firmware: Klipper
;Bounding Box: 87.926 162.074 76.634 173.366 0.000 12.500
;Model Gap: 0.000
M221 T0 S94.00
M140 S50.00
M104 T0 S200.00
M109 T0 S200.00
T0
M190 S50.00
G21 ;metric values
G90 ;absolute positioning
M82 ;set extruder to absolute mode
M107 ;start with the fan off
G28 X0 Y0 ;move X/Y to min endstops
G28 Z0 ;move Z to min endstops
G1 Z15.0 F9000 ;move the platform down 15mm
G92 E0 ;zero the extruded length
G1 F200 E1 ;extrude 1mm of feed stock
G92 E0 ;zero the extruded length again
G0 X12 Y17 F2000
G92 X0 Y0 E0
G0 F9000 Z1
G1 F200 Z0
G1 Z15.0 F9000 ;move the platform down 15mm
G1 F9000
G92 E-3
M117 Printing...
M1001
;TOTAL_NUM: 1
;PRINTING_TIME: 0
;REMAINING_TIME: 4732
;LAYER:0
;Z:0.500
;HEIGHT:0.500
M106 S0
;PRINTING: pi4_cover_40mm_NoTopVents.stl
;PRINTING_ID: 0
G1 F2400 E-3.0000
G0 F3900 X98.517 Y77.734
G0 F300 Z0.500
;TYPE:WALL-OUTER
;WIDTH:0.420
;FLOW:55.0
G1 F1500 E0.0000
G1 F2400 X97.437 Y78.595 E0.0663
G1 X97.052 Y79.209 E0.1011
G1 X96.745 Y80.554 E0.1674
G1 X97.055 Y81.912 E0.2343
G1 X97.920 Y82.996 E0.3009
G1 X98.752 Y83.454 E0.3465
G1 X99.878 Y83.683 E0.4016
G1 X101.232 Y83.374 E0.4683
G1 X102.312 Y82.513 E0.5347
G1 X102.698 Y81.900 E0.5694
G1 X103.004 Y80.554 E0.6357
G1 X102.695 Y79.197 E0.7025
G1 X101.834 Y78.117 E0.7689
G1 X101.221 Y77.731 E0.8037
G1 X99.875 Y77.424 E0.8700
G1 X98.517 Y77.734 E0.9368
G1 F2400 E-2.0632
G0 F3900 X98.512 Y77.725
G0 X98.623 Y77.921
G0 X101.671 Y83.306
G0 X101.782 Y83.502
G0 X107.433 Y93.483
G0 X107.906 Y93.698
G1 F1500 E0.9368
G1 F2400 X107.638 Y94.291 E0.9681
G1 X107.614 Y94.941 E0.9993
G1 X107.842 Y95.551 E1.0306
G1 X108.287 Y96.027 E1.0619
G1 X108.931 Y96.311 E1.0957
G1 X109.585 Y96.311 E1.1271
G1 X110.140 Y96.088 E1.1558
G1 X110.614 Y95.646 E1.1869
G1 X110.882 Y95.054 E1.2181
G1 X110.905 Y94.404 E1.2494
G1 X110.678 Y93.792 E1.2807
G1 X110.192 Y93.283 E1.3145
G1 X109.637 Y93.049 E1.3434
G1 X108.937 Y93.032 E1.3771
G1 X108.379 Y93.256 E1.4059
G1 X107.906 Y93.698 E1.4370
G1 F2400 E-1.5630
G0 F3900 X107.433 Y93.483
G0 X107.027 Y94.148
G0 X107.307 Y95.881
G0 X108.651 Y96.821
G0 X111.394 Y96.727
G0 X111.795 Y97.057
G1 F1500 E1.4370
G1 F2400 X109.413 Y99.960 E1.6173
G1 X107.643 Y103.271 E1.7976
G1 X106.552 Y106.866 E1.9780
G1 X106.183 Y110.603 E2.1583
G1 X106.552 Y114.341 E2.3387
G1 X107.643 Y117.934 E2.5190
G1 X109.413 Y121.247 E2.6994
G1 X111.795 Y124.150 E2.8797
G1 X114.698 Y126.532 E3.0600
G1 X118.010 Y128.302 E3.2404
G1 X121.604 Y129.393 E3.4207
G1 X125.342 Y129.761 E3.6011
G1 X129.079 Y129.393 E3.7814
G1 X132.674 Y128.302 E3.9618
G1 X135.985 Y126.532 E4.1421
G1 X138.888 Y124.150 E4.3224
G1 X141.270 Y121.247 E4.5027
G1 X143.041 Y117.934 E4.6831
G1 X144.131 Y114.341 E4.8634
G1 X144.499 Y110.603 E5.0438
G1 X144.131 Y106.866 E5.2241
G1 X143.041 Y103.271 E5.4045
G1 X141.270 Y99.960 E5.5848
G1 X138.888 Y97.057 E5.7651
G1 X135.985 Y94.675 E5.9454
G1 X132.674 Y92.904 E6.1257
G1 X129.079 Y91.814 E6.3061
G1 X125.342 Y91.445 E6.4865
G1 X121.604 Y91.814 E6.6668
G1 X118.010 Y92.904 E6.8472
G1 X114.698 Y94.675 E7.0275
G1 X111.795 Y97.057 E7.2078
G1 F2400 E4.2078
G0 F3900 X111.394 Y96.727
G0 X115.784 Y87.670
G0 X116.043 Y87.660
G0 X116.232 Y88.143
G1 F1500 E7.2078
G1 F2400 X115.848 Y88.963 E7.2513
G1 X115.988 Y90.448 E7.3229
G1 X116.448 Y90.907 E7.3541
G1 X116.985 Y91.059 E7.3809
G1 X133.182 Y91.065 E8.1587
G1 X134.010 Y90.723 E8.2017
G1 X134.353 Y89.931 E8.2432
G1 X134.232 Y88.498 E8.3122
G1 X133.797 Y88.021 E8.3432
G1 X133.219 Y87.837 E8.3724
G1 X117.020 Y87.831 E9.1502
G1 X116.232 Y88.143 E9.1909
G1 F2400 E6.1909
G0 F3900 X116.043 Y87.660
G0 X116.905 Y87.215
G0 X133.315 Y87.220
G0 X133.781 Y87.370
G0 X139.750 Y93.293
G0 X140.227 Y93.499
G1 F1500 E9.1909
G1 F2400 X139.755 Y94.595 E9.2482
G1 X139.862 Y95.258 E9.2805
G1 X140.240 Y95.851 E9.3142
G1 X140.737 Y96.191 E9.3432
G1 X141.442 Y96.348 E9.3778
G1 X142.551 Y95.906 E9.4352
G1 X142.941 Y95.363 E9.4673
G1 X143.090 Y94.730 E9.4985
G1 X142.986 Y94.087 E9.5298
G1 X142.644 Y93.534 E9.5610
G1 X142.115 Y93.154 E9.5923
G1 X141.482 Y93.006 E9.6235
G1 X140.838 Y93.110 E9.6548
G1 X140.227 Y93.499 E9.6896
G1 F2400 E6.6896
G0 F3900 X139.750 Y93.293
G0 X140.613 Y92.523
G0 X143.573 Y91.655
G0 X146.398 Y91.030
G0 X146.398 Y91.550
G1 F1500 E9.6896
G1 F2400 X146.398 Y106.115 E10.3890
G1 X147.822 Y106.115 E10.4574
G1 X147.822 Y104.107 E10.5538
G1 X151.422 Y104.107 E10.7267
G1 X151.422 Y106.115 E10.8231
G1 X152.848 Y106.115 E10.8916
G1 X152.848 Y91.550 E11.5910
G1 X146.398 Y91.550 E11.9007
G1 F2400 E8.9007
G0 F3900 X146.398 Y91.261
G0 X146.715 Y80.490
G0 X146.996 Y80.554
G1 F1500 E11.9007
G1 F2400 X147.305 Y81.911 E11.9675
G1 X148.166 Y82.991 E12.0338
G1 X148.779 Y83.377 E12.0686
G1 X150.125 Y83.683 E12.1349
G1 X151.482 Y83.374 E12.2017
G1 X152.562 Y82.513 E12.2681
G1 X152.948 Y81.900 E12.3029
G1 X153.254 Y80.554 E12.3691
G1 X152.945 Y79.197 E12.4360
G1 X152.084 Y78.117 E12.5023
G1 X151.471 Y77.731 E12.5371
G1 X150.125 Y77.424 E12.6034
G1 X148.767 Y77.734 E12.6703
G1 X147.688 Y78.595 E12.7366
G1 X147.302 Y79.208 E12.7713
G1 X146.996 Y80.554 E12.8376
G1 F2400 E9.8376
G0 F3900 X146.715 Y80.490
G0 X146.068 Y91.220
G0 X146.068 Y106.445
G0 X146.398 Y106.411
G0 X146.398 Y106.700
G1 F1500 E12.8376
G1 F2400 X146.398 Y110.951 E13.0417
G1 X147.822 Y110.951 E13.1101
G1 X147.822 Y106.700 E13.3143
G1 X146.398 Y106.700 E13.3826
G1 F2400 E10.3826
G0 F3900 X146.398 Y111.536
G1 F1500 E13.3826
G1 F2400 X146.398 Y117.949 E13.6906
G1 X149.330 Y117.949 E13.8314
G1 X149.330 Y116.524 E13.8998
G1 X147.822 Y116.524 E13.9722
G1 X147.822 Y111.536 E14.2117
G1 X146.398 Y111.536 E14.2801
G1 F2400 E11.2801
G0 F3900 X151.422 Y111.536
G1 F1500 E14.2801
G1 F2400 X151.422 Y116.524 E14.5196
G1 X149.915 Y116.524 E14.5920
G1 X149.915 Y117.949 E14.6604
G1 X152.848 Y117.949 E14.8013
G1 X152.848 Y111.536 E15.1092
G1 X151.422 Y111.536 E15.1777
G1 F2400 E12.1777
G0 F3900 X151.422 Y106.700
G1 F1500 E15.1777
G1 F2400 X151.422 Y110.951 E15.3818
G1 X152.848 Y110.951 E15.4503
G1 X152.848 Y106.700 E15.6544
G1 X151.422 Y106.700 E15.7229
G1 F2400 E12.7229
G0 F3900 X150.861 Y106.574
G0 X149.897 Y115.024
G0 X149.915 Y118.534
G1 F1500 E15.7229
G1 F2400 X149.915 Y119.959 E15.7913
G1 X151.422 Y119.959 E15.8637
G1 X151.422 Y124.946 E16.1032
G1 X152.848 Y124.946 E16.1716
G1 X152.848 Y118.534 E16.4795
G1 X149.915 Y118.534 E16.6204
G1 F2400 E13.6204
G0 F3900 X146.398 Y118.534
G1 F1500 E16.6204
G1 F2400 X146.398 Y124.946 E16.9283
G1 X147.822 Y124.946 E16.9967
G1 X147.822 Y119.959 E17.2361
G1 X149.330 Y119.959 E17.3086
G1 X149.330 Y118.534 E17.3770
G1 X146.398 Y118.534 E17.5178
G1 F2400 E14.5178
G0 F3900 X145.837 Y118.408
G0 X145.837 Y125.072
G0 X146.398 Y125.531
G1 F1500 E17.5178
G1 F2400 X146.398 Y137.935 E18.1134
G1 X147.822 Y137.935 E18.1818
G1 X147.822 Y125.531 E18.7774
G1 X146.398 Y125.531 E18.8458
G1 F2400 E15.8458
G0 F3900 X151.422 Y125.531
G1 F1500 E18.8458
G1 F2400 X151.422 Y137.935 E19.4414
G1 X152.848 Y137.935 E19.5099
G1 X152.848 Y125.531 E20.1055
G1 X151.422 Y125.531 E20.1740
G1 F2400 E17.1740
G0 F3900 X148.440 Y125.548
G0 X148.383 Y138.061
G0 X145.837 Y138.061
G0 X143.357 Y125.578
G0 X142.766 Y124.873
G0 X140.990 Y124.478
G0 X140.158 Y125.026
G0 X139.558 Y125.601
G0 X140.036 Y125.804
G1 F1500 E20.1740
G1 F2400 X139.802 Y126.357 E20.2028
G1 X139.778 Y127.004 E20.2339
G1 X140.006 Y127.614 E20.2652
G1 X140.450 Y128.090 E20.2965
G1 X141.042 Y128.358 E20.3277
G1 X141.692 Y128.381 E20.3589
G1 X142.302 Y128.154 E20.3902
G1 X142.779 Y127.709 E20.4215
G1 X143.063 Y127.064 E20.4553
G1 X143.063 Y126.410 E20.4867
G1 X142.840 Y125.855 E20.5154
G1 X142.398 Y125.382 E20.5465
G1 X141.804 Y125.113 E20.5778
G1 X141.101 Y125.096 E20.6116
G1 X140.542 Y125.320 E20.6405
G1 X140.036 Y125.804 E20.6742
G1 F2400 E17.6742
G0 F3900 X139.558 Y125.601
G0 X139.158 Y127.104
G0 X144.567 Y135.978
G0 X146.398 Y138.520
G1 F1500 E20.6742
G1 F2400 X146.398 Y144.933 E20.9821
G1 X149.330 Y144.933 E21.1229
G1 X149.330 Y143.508 E21.1913
G1 X147.822 Y143.508 E21.2637
G1 X147.822 Y138.520 E21.5033
G1 X146.398 Y138.520 E21.5716
G1 F2400 E18.5716
G0 F3900 X151.422 Y138.520
G1 F1500 E21.5716
G1 F2400 X151.422 Y143.508 E21.8112
G1 X149.915 Y143.508 E21.8835
G1 X149.915 Y144.933 E21.9519
G1 X152.848 Y144.933 E22.0928
G1 X152.848 Y138.520 E22.4007
G1 X151.422 Y138.520 E22.4692
G1 F2400 E19.4692
G0 F3900 X145.837 Y138.394
G0 X132.011 Y154.814
G0 X131.491 Y154.814
G1 F1500 E22.4692
G1 F2400 X116.499 Y154.814 E23.1891
G1 X116.499 Y171.950 E24.0120
G1 X115.527 Y171.950 E24.0587
G1 X115.499 Y173.156 E24.1166
G1 X114.442 Y173.156 E24.1673
G1 X114.399 Y171.950 E24.2253
G1 X113.401 Y171.950 E24.2732
G1 X113.401 Y154.814 E25.0961
G1 X98.409 Y154.814 E25.8160
G1 X98.409 Y171.950 E26.6388
G1 X97.404 Y171.950 E26.6871
G1 X97.404 Y173.154 E26.7449
G1 X94.515 Y173.130 E26.8836
G1 X94.134 Y172.829 E26.9070
G1 X93.873 Y171.804 E26.9577
G1 X93.500 Y171.468 E26.9819
G1 X91.143 Y171.300 E27.0953
G1 X90.496 Y171.114 E27.1276
G1 X89.883 Y170.809 E27.1605
G1 X89.108 Y170.138 E27.2098
G1 X88.387 Y168.959 E27.2761
G1 X88.150 Y167.605 E27.3421
G1 X88.423 Y166.258 E27.4081
G1 X89.174 Y165.106 E27.4742
G1 X90.295 Y164.306 E27.5403
G1 X91.921 Y163.829 E27.6217
G1 X93.030 Y163.157 E27.6839
G1 X93.795 Y162.075 E27.7476
G1 X94.055 Y160.817 E27.8092
G1 X94.055 Y82.970 E31.5474
G1 X94.451 Y81.816 E31.6060
G1 X96.830 Y78.435 E31.8045
G1 X97.843 Y77.457 E31.8721
G1 X99.173 Y76.913 E31.9411
G1 X99.840 Y76.849 E31.9733
G1 X101.243 Y77.111 E32.0418
G1 X101.875 Y77.431 E32.0758
G1 X102.893 Y78.404 E32.1435
G1 X103.250 Y79.019 E32.1776
G1 X103.893 Y81.453 E32.2985
G1 X104.700 Y82.237 E32.3525
G1 X105.770 Y82.523 E32.4057
G1 X144.228 Y82.523 E34.2524
G1 X145.273 Y82.250 E34.3043
G1 X145.748 Y81.899 E34.3327
G1 X146.324 Y80.966 E34.3853
G1 X146.510 Y79.739 E34.4449
G1 X147.101 Y78.412 E34.5147
G1 X148.118 Y77.438 E34.5823
G1 X149.425 Y76.915 E34.6499
G1 X150.834 Y76.917 E34.7175
G1 X152.141 Y77.446 E34.7853
G1 X153.170 Y78.435 E34.8538
G1 X155.599 Y81.888 E35.0565
G1 X155.945 Y82.980 E35.1115
G1 X156.005 Y161.430 E38.8786
G1 X156.489 Y162.587 E38.9389
G1 X157.433 Y163.516 E39.0025
G1 X159.362 Y164.147 E39.0999
G1 X160.573 Y164.839 E39.1669
G1 X161.442 Y165.923 E39.2336
G1 X161.694 Y166.526 E39.2650
G1 X161.860 Y167.928 E39.3328
G1 X161.514 Y169.240 E39.3979
G1 X160.695 Y170.365 E39.4648
G1 X160.145 Y170.792 E39.4982
G1 X158.853 Y171.299 E39.5648
G1 X156.920 Y171.368 E39.6577
G1 X156.354 Y171.565 E39.6865
G1 X156.030 Y171.977 E39.7117
G1 X155.860 Y172.846 E39.7542
G1 X155.333 Y173.154 E39.7835
G1 X132.496 Y173.156 E40.8801
G1 X132.496 Y171.991 E40.9361
G1 X131.491 Y171.957 E40.9843
G1 X131.491 Y154.814 E41.8075
G1 F2400 E38.8075
G0 F3900 X132.011 Y154.814
G0 X155.808 Y164.886
G0 X156.214 Y165.211
G1 F1500 E41.8075
G1 F2400 X155.353 Y166.290 E41.8738
G1 X155.114 Y166.973 E41.9086
G1 X155.114 Y168.353 E41.9748
G1 X155.719 Y169.608 E42.0417
G1 X156.798 Y170.469 E42.1080
G1 X157.481 Y170.708 E42.1428
G1 X158.861 Y170.708 E42.2090
G1 X160.116 Y170.104 E42.2759
G1 X160.978 Y169.025 E42.3422
G1 X161.216 Y168.341 E42.3770
G1 X161.216 Y166.961 E42.4433
G1 X160.611 Y165.706 E42.5102
G1 X159.532 Y164.845 E42.5765
G1 X158.849 Y164.606 E42.6112
G1 X157.469 Y164.606 E42.6775
G1 X156.214 Y165.211 E42.7444
G1 F2400 E39.7444
G0 F3900 X155.808 Y164.886
G0 X117.779 Y129.033
G0 X111.072 Y125.518
G0 X110.691 Y125.872
G1 F1500 E42.7444
G1 F2400 X110.234 Y125.382 E42.7766
G1 X109.640 Y125.113 E42.8079
G1 X108.937 Y125.096 E42.8416
G1 X108.379 Y125.320 E42.8705
G1 X107.906 Y125.762 E42.9016
G1 X107.638 Y126.354 E42.9328
G1 X107.614 Y127.004 E42.9640
G1 X107.842 Y127.614 E42.9953
G1 X108.286 Y128.090 E43.0266
G1 X108.879 Y128.359 E43.0578
G1 X109.582 Y128.376 E43.0916
G1 X110.140 Y128.152 E43.1205
G1 X110.615 Y127.709 E43.1517
G1 X110.907 Y127.046 E43.1865
G1 X110.691 Y125.872 E43.2438
G1 F2400 E40.2438
G0 F3900 X111.072 Y125.518
G0 X117.779 Y129.033
G0 X118.232 Y130.101
G0 X117.973 Y132.100
G0 X117.329 Y132.727
G0 X116.514 Y132.948
G0 X100.109 Y132.939
G0 X99.249 Y132.462
G0 X99.456 Y131.985
G1 F1500 E43.2438
G1 F2400 X100.237 Y132.324 E43.2847
G1 X116.434 Y132.330 E44.0624
G1 X117.017 Y132.175 E44.0914
G1 X117.434 Y131.769 E44.1193
G1 X117.616 Y131.193 E44.1484
G1 X117.616 Y130.223 E44.1949
G1 X117.309 Y129.482 E44.2334
G1 X116.500 Y129.103 E44.2763
G1 X100.301 Y129.096 E45.0542
G1 X99.765 Y129.232 E45.0808
G1 X99.286 Y129.669 E45.1119
G1 X99.107 Y131.144 E45.1832
G1 X99.456 Y131.985 E45.2270
G1 F2400 E42.2270
G0 F3900 X99.249 Y132.462
G0 X94.480 Y150.057
G0 X94.422 Y150.275
G0 X90.705 Y163.991
G0 X90.647 Y164.209
G0 X90.477 Y164.837
G1 F1500 E45.2270
G1 F2400 X89.388 Y165.706 E45.2939
G1 X88.783 Y166.961 E45.3608
G1 X88.783 Y168.341 E45.4270
G1 X89.023 Y169.025 E45.4618
G1 X89.876 Y170.095 E45.5276
G1 X90.488 Y170.480 E45.5623
G1 X91.835 Y170.787 E45.6286
G1 X93.193 Y170.477 E45.6955
G1 X94.272 Y169.616 E45.7618
G1 X94.658 Y169.004 E45.7965
G1 X94.965 Y167.657 E45.8629
G1 X94.655 Y166.299 E45.9298
G1 X93.794 Y165.220 E45.9961
G1 X93.181 Y164.834 E46.0308
G1 X91.835 Y164.528 E46.0971
G1 X90.477 Y164.837 E46.1640
G1 F2400 E43.1640
G0 F3900 X90.625 Y164.216
G0 X90.676 Y163.997
G0 X94.427 Y148.224
G0 X94.520 Y147.835
G0 X107.027 Y94.148
G0 X107.463 Y93.416
G0 X107.558 Y93.448
;TYPE:WALL-INNER
;WIDTH:0.420
G1 F1500 E46.1640
G1 F2400 X107.221 Y94.193 E46.2033
G1 X107.191 Y95.009 E46.2425
G1 X107.478 Y95.777 E46.2818
G1 X108.039 Y96.377 E46.3213
G1 X108.843 Y96.731 E46.3635
G1 X109.666 Y96.731 E46.4030
G1 X110.369 Y96.449 E46.4394
G1 X110.962 Y95.896 E46.4783
G1 X111.299 Y95.152 E46.5175
G1 X111.328 Y94.336 E46.5567
G1 X111.042 Y93.565 E46.5962
G1 X110.436 Y92.930 E46.6384
G1 X109.727 Y92.631 E46.6753
G1 X108.861 Y92.610 E46.7169
G1 X108.150 Y92.895 E46.7537
G1 X107.558 Y93.448 E46.7926
G1 F2400 E43.7926
G0 F3900 X107.463 Y93.416
G0 X108.044 Y92.726
G0 X109.021 Y92.563
G0 X120.670 Y91.503
G0 X120.769 Y91.480
G1 F1500 E46.7926
G1 F2400 X120.790 Y91.622 E46.7995
G1 X117.848 Y92.514 E46.9471
G1 X114.464 Y94.324 E47.1314
G1 X111.497 Y96.759 E47.3157
G1 X109.062 Y99.726 E47.5000
G1 X107.253 Y103.109 E47.6842
G1 X106.138 Y106.784 E47.8686
G1 X105.761 Y110.603 E48.0529
G1 X106.138 Y114.423 E48.2372
G1 X107.253 Y118.096 E48.4216
G1 X109.062 Y121.481 E48.6059
G1 X111.497 Y124.448 E48.7902
G1 X114.464 Y126.883 E48.9745
G1 X117.848 Y128.692 E49.1588
G1 X121.522 Y129.807 E49.3431
G1 X125.342 Y130.183 E49.5274
G1 X129.161 Y129.807 E49.7117
G1 X132.836 Y128.692 E49.8961
G1 X136.219 Y126.883 E50.0803
G1 X139.186 Y124.448 E50.2647
G1 X141.621 Y121.481 E50.4490
G1 X143.431 Y118.096 E50.6333
G1 X144.545 Y114.423 E50.8176
G1 X144.921 Y110.603 E51.0019
G1 X144.545 Y106.784 E51.1862
G1 X143.431 Y103.109 E51.3706
G1 X141.621 Y99.726 E51.5548
G1 X139.186 Y96.759 E51.7391
G1 X136.219 Y94.324 E51.9235
G1 X132.836 Y92.514 E52.1077
G1 X129.905 Y91.625 E52.2548
G1 X129.926 Y91.484 E52.2616
G1 X133.265 Y91.485 E52.4220
G1 X134.328 Y91.046 E52.4772
G1 X134.780 Y90.001 E52.5318
G1 X134.639 Y88.320 E52.6129
G1 X134.032 Y87.655 E52.6561
G1 X133.284 Y87.417 E52.6938
G1 X116.940 Y87.411 E53.4786
G1 X115.922 Y87.814 E53.5312
G1 X115.419 Y88.889 E53.5882
G1 X115.584 Y90.638 E53.6725
G1 X116.229 Y91.281 E53.7163
G1 X116.927 Y91.479 E53.7511
G1 X120.769 Y91.480 E53.9356
G1 F2400 E50.9356
G0 F3900 X120.670 Y91.503
G0 X116.901 Y91.677
G0 X116.127 Y91.453
G0 X115.403 Y90.722
G0 X115.222 Y88.855
G0 X115.784 Y87.670
G0 X116.905 Y87.215
G0 X133.315 Y87.220
G0 X133.781 Y87.370
G0 X139.798 Y93.183
G0 X139.892 Y93.214
G1 F1500 E53.9356
G1 F2400 X139.321 Y94.541 E54.0050
G1 X139.461 Y95.411 E54.0473
