;Sliced by ideaMaker 5.1.1.8450, 2024-10-14 15:03:57 UTC+0200
;Slicer Version: 5.1.1.8450
;Dimension: 250.000 250.000 250.000 0.400
;Plate Shape: 0
;Origin Center: 0
;Extruder Offset #1: 25.000 0.000
;Filament Diameter #1: 1.750
;Filament Diameter #2: 1.750
;Filament Compensation #1: 94.000
;Filament Compensation #2: 90.000
;Filament Density #1: 1240.000
;Filament Density #2: 1240.000
;Filament Type #1: PLA
;Filament Type #2: 
;Filament Name #1: [Raise3D] Premium PLA 1.75mm
;Filament Name #2: 
;Printer Type: floppy
;Firmware: Klipper
;Bounding Box: 113.451 136.549 104.632 145.368 0.000 2.300
;Model Gap: 0.000
M221 T0 S94.00
M140 S50.00
M104 T0 S210.00
M109 T0 S210.00
T0
M190 S50.00
G21 ;metric values
G90 ;absolute positioning
M82 ;set extruder to absolute mode
M107 ;start with the fan off
G28 X0 Y0 ;move X/Y to min endstops
G28 Z0 ;move Z to min endstops
G1 Z15.0 F9000 ;move the platform down 15mm
G92 E0 ;zero the extruded length
G1 F200 E1 ;extrude 1mm of feed stock
G92 E0 ;zero the extruded length again
G0 X12 Y17 F2000
G92 X0 Y0 E0
G0 F9000 Z1
G1 F200 Z0
G1 Z15.0 F9000 ;move the platform down 15mm
G1 F9000
G92 E-3
M117 Printing...
M1001
;TOTAL_NUM: 1
;PRINTING_TIME: 0
;REMAINING_TIME: 333
;LAYER:0
;Z:0.500
;HEIGHT:0.500
M106 S0
;PRINTING: Bev??s??rl??_Coin_Cart_v2.STL
;PRINTING_ID: 0
G1 F2400 E-3.0000
G0 F3900 X122.730 Y108.692
G0 F300 Z0.500
;TYPE:WALL-OUTER
;WIDTH:0.420
;FLOW:55.0
G1 F1500 E0.0000
G1 F2400 X121.794 Y109.758 E0.0681
G1 X121.325 Y111.095 E0.1362
G1 X121.391 Y112.511 E0.2042
G1 X121.983 Y113.799 E0.2723
G1 X123.016 Y114.772 E0.3404
G1 X124.461 Y115.307 E0.4144
G1 X125.880 Y115.241 E0.4826
G1 X127.270 Y114.573 E0.5567
G1 X128.206 Y113.506 E0.6249
G1 X128.675 Y112.169 E0.6929
G1 X128.609 Y110.753 E0.7610
G1 X127.941 Y109.363 E0.8350
G1 X126.874 Y108.426 E0.9032
G1 X125.537 Y107.958 E0.9712
G1 X124.100 Y108.028 E1.0403
G1 X122.730 Y108.692 E1.1134
G1 F2400 E-1.8866
G0 F3900 X122.340 Y108.349
G0 X121.253 Y109.442
G0 X120.943 Y110.326
G0 X118.681 Y124.765
G0 X118.162 Y124.763
G1 F1500 E1.1134
G1 F2400 X118.225 Y111.200 E1.7647
G1 X118.464 Y109.796 E1.8331
G1 X118.989 Y108.478 E1.9012
G1 X119.776 Y107.297 E1.9694
G1 X120.794 Y106.304 E2.0377
G1 X121.989 Y105.548 E2.1056
G1 X123.091 Y105.119 E2.1624
G1 X124.494 Y104.863 E2.2308
G1 X125.669 Y104.877 E2.2873
G1 X127.066 Y105.166 E2.3558
G1 X128.154 Y105.622 E2.4124
G1 X129.337 Y106.409 E2.4806
G1 X130.177 Y107.241 E2.5374
G1 X130.975 Y108.411 E2.6054
G1 X131.514 Y109.722 E2.6735
G1 X131.789 Y111.610 E2.7651
G1 X131.790 Y124.723 E3.3948
G1 X133.553 Y126.377 E3.5109
G1 X134.913 Y128.316 E3.6246
G1 X135.838 Y130.489 E3.7380
G1 X136.292 Y132.808 E3.8515
G1 X136.202 Y135.572 E3.9843
G1 X135.851 Y137.109 E4.0600
G1 X135.293 Y138.577 E4.1354
G1 X133.834 Y140.925 E4.2681
G1 X131.862 Y142.845 E4.4003
G1 X129.834 Y144.076 E4.5142
G1 X127.605 Y144.855 E4.6276
G1 X125.260 Y145.154 E4.7411
G1 X123.289 Y145.028 E4.8360
G1 X120.999 Y144.429 E4.9496
G1 X119.225 Y143.578 E5.0441
G1 X117.622 Y142.429 E5.1388
G1 X115.996 Y140.710 E5.2524
G1 X114.762 Y138.690 E5.3661
G1 X113.974 Y136.460 E5.4797
G1 X113.666 Y134.117 E5.5931
G1 X113.786 Y132.145 E5.6880
G1 X114.376 Y129.858 E5.8014
G1 X115.223 Y128.077 E5.8961
G1 X116.630 Y126.171 E6.0099
G1 X118.162 Y124.763 E6.1098
G1 F2400 E3.1098
G0 F3900 X118.681 Y124.765
G0 X120.705 Y111.004
G0 X121.148 Y109.740
G0 X122.389 Y108.293
G0 X122.470 Y108.351
;TYPE:WALL-INNER
;WIDTH:0.420
G1 F1500 E6.1098
G1 F2400 X121.425 Y109.542 E6.1859
G1 X120.902 Y111.033 E6.2618
G1 X120.975 Y112.612 E6.3377
G1 X121.636 Y114.049 E6.4136
G1 X122.790 Y115.136 E6.4897
G1 X124.395 Y115.731 E6.5719
G1 X125.985 Y115.657 E6.6484
G1 X127.529 Y114.914 E6.7307
G1 X128.575 Y113.722 E6.8068
G1 X129.098 Y112.231 E6.8827
G1 X129.025 Y110.648 E6.9588
G1 X128.282 Y109.104 E7.0411
G1 X127.090 Y108.057 E7.1172
G1 X125.598 Y107.535 E7.1931
G1 X123.994 Y107.613 E7.2703
G1 X122.470 Y108.351 E7.3516
G1 F2400 E4.3516
G0 F3900 X122.389 Y108.293
G0 X121.253 Y109.442
G0 X120.943 Y110.326
G0 X118.681 Y124.938
G0 X118.581 Y124.948
G1 F1500 E7.3516
G1 F2400 X118.645 Y111.236 E8.0100
G1 X118.871 Y109.910 E8.0746
G1 X119.363 Y108.674 E8.1385
G1 X120.101 Y107.567 E8.2024
G1 X121.056 Y106.635 E8.2665
G1 X122.179 Y105.925 E8.3303
G1 X123.206 Y105.525 E8.3832
G1 X124.530 Y105.283 E8.4478
G1 X125.624 Y105.296 E8.5003
G1 X126.941 Y105.569 E8.5649
G1 X127.955 Y105.994 E8.6177
G1 X129.070 Y106.736 E8.6820
G1 X129.853 Y107.511 E8.7349
G1 X130.603 Y108.611 E8.7989
G1 X131.106 Y109.834 E8.8624
G1 X131.369 Y111.640 E8.9500
G1 X131.370 Y124.905 E9.5870
G1 X133.234 Y126.654 E9.7097
G1 X134.544 Y128.521 E9.8192
G1 X135.434 Y130.613 E9.9284
G1 X135.871 Y132.842 E10.0375
G1 X135.784 Y135.518 E10.1661
G1 X135.448 Y136.987 E10.2384
G1 X134.915 Y138.390 E10.3105
G1 X133.504 Y140.660 E10.4388
G1 X131.603 Y142.511 E10.5662
G1 X129.654 Y143.694 E10.6757
G1 X127.508 Y144.444 E10.7849
G1 X125.247 Y144.732 E10.8943
G1 X123.356 Y144.611 E10.9853
G1 X121.144 Y144.033 E11.0951
G1 X119.440 Y143.215 E11.1859
G1 X117.899 Y142.111 E11.2769
G1 X116.331 Y140.453 E11.3865
G1 X115.143 Y138.509 E11.4959
G1 X114.385 Y136.362 E11.6052
G1 X114.088 Y134.102 E11.7147
G1 X114.203 Y132.211 E11.8056
G1 X114.773 Y130.002 E11.9152
G1 X115.585 Y128.294 E12.0060
G1 X116.944 Y126.453 E12.1159
G1 X118.581 Y124.948 E12.2227
G1 F2400 E9.2227
G0 F3900 X118.681 Y124.938
G0 X115.865 Y139.326
;TYPE:SOLID-FILL
;WIDTH:0.420
G1 F1500 E12.2227
G1 F2400 X119.638 Y143.100 E12.4789
G0 F2400 X120.780 Y143.648
G1 F2400 X115.181 Y138.049 E12.8592
G0 F2400 X114.856 Y137.130
G1 F2400 X121.711 Y143.985 E13.3247
G0 F2400 X122.515 Y144.195
G1 F2400 X114.558 Y136.238 E13.8650
G0 F2400 X114.468 Y135.554
G1 F2400 X123.319 Y144.405 E14.4661
G0 F2400 X123.967 Y144.459
G1 F2400 X114.378 Y134.870 E15.1173
G0 F2400 X114.289 Y134.187
G1 F2400 X124.602 Y144.500 E15.8176
G0 F2400 X125.236 Y144.540
G1 F2400 X114.306 Y133.610 E16.5599
G0 F2400 X114.340 Y133.050
G1 F2400 X125.763 Y144.473 E17.3356
G0 F2400 X126.291 Y144.407
G1 F2400 X114.374 Y132.490 E18.1449
G0 F2400 X114.457 Y131.979
G1 F2400 X126.818 Y144.340 E18.9843
G0 F2400 X127.344 Y144.273
G1 F2400 X114.578 Y131.507 E19.8513
G0 F2400 X114.700 Y131.034
G1 F2400 X127.804 Y144.138 E20.7411
G0 F2400 X128.245 Y143.985
G1 F2400 X114.822 Y130.562 E21.6527
G0 F2400 X114.943 Y130.089
G1 F2400 X128.684 Y143.831 E22.5859
G0 F2400 X129.125 Y143.677
G1 F2400 X115.131 Y129.684 E23.5362
G0 F2400 X115.323 Y129.281
G1 F2400 X129.565 Y143.523 E24.5033
G0 F2400 X129.936 Y143.300
G1 F2400 X115.515 Y128.879 E25.4827
G0 F2400 X115.706 Y128.477
G1 F2400 X130.305 Y143.075 E26.4740
G0 F2400 X130.675 Y142.851
G1 F2400 X115.945 Y128.122 E27.4743
G0 F2400 X116.198 Y127.780
G1 F2400 X131.045 Y142.627 E28.4826
G0 F2400 X131.415 Y142.403
G1 F2400 X116.450 Y127.439 E29.4988
G0 F2400 X116.702 Y127.096
G1 F2400 X131.729 Y142.123 E30.5193
G0 F2400 X132.029 Y141.830
G1 F2400 X116.954 Y126.755 E31.5430
G0 F2400 X117.235 Y126.442
G1 F2400 X132.330 Y141.537 E32.5681
G0 F2400 X132.631 Y141.243
G1 F2400 X117.545 Y126.157 E33.5926
G0 F2400 X117.854 Y125.873
G1 F2400 X132.932 Y140.951 E34.6165
G0 F2400 X133.233 Y140.657
G1 F2400 X118.164 Y125.589 E35.6398
G0 F2400 X118.473 Y125.304
G1 F2400 X133.491 Y140.321 E36.6597
G0 F2400 X133.718 Y139.955
G1 F2400 X118.770 Y125.007 E37.6748
G0 F2400 X118.772 Y124.415
G1 F2400 X133.946 Y139.589 E38.7052
G0 F2400 X134.174 Y139.222
G1 F2400 X118.775 Y123.824 E39.7509
G0 F2400 X118.778 Y123.233
G1 F2400 X134.401 Y138.856 E40.8119
G0 F2400 X134.629 Y138.490
G1 F2400 X118.781 Y122.642 E41.8881
G0 F2400 X118.784 Y122.050
G1 F2400 X134.826 Y138.093 E42.9776
G0 F2400 X134.989 Y137.662
G1 F2400 X118.786 Y121.459 E44.0779
G0 F2400 X118.788 Y120.867
G1 F2400 X135.152 Y137.231 E45.1892
G0 F2400 X135.300 Y136.785
G1 F2400 X118.791 Y120.276 E46.3103
G0 F2400 X118.794 Y119.685
G1 F2400 X135.410 Y136.301 E47.4387
G0 F2400 X135.521 Y135.818
G1 F2400 X118.797 Y119.094 E48.5744
G0 F2400 X118.800 Y118.503
G1 F2400 X135.601 Y135.304 E49.7153
G0 F2400 X135.620 Y134.729
G1 F2400 X118.802 Y117.911 E50.8574
G0 F2400 X118.805 Y117.320
G1 F2400 X135.638 Y134.153 E52.0006
G0 F2400 X135.657 Y133.578
G1 F2400 X118.808 Y116.729 E53.1448
G0 F2400 X118.810 Y116.138
G1 F2400 X135.676 Y133.003 E54.2901
G0 F2400 X135.572 Y132.305
G1 F2400 X118.813 Y115.546 E55.4282
G0 F2400 X118.816 Y114.955
G1 F2400 X135.427 Y131.566 E56.5562
G0 F2400 X135.282 Y130.827
G1 F2400 X118.818 Y114.363 E57.6743
G0 F2400 X118.821 Y113.772
G1 F2400 X134.906 Y129.857 E58.7666
G0 F2400 X134.465 Y128.822
G1 F2400 X118.824 Y113.181 E59.8288
G0 F2400 X118.827 Y112.590
G1 F2400 X131.180 Y124.943 E60.6677
G0 F2400 X131.180 Y124.349
G1 F2400 X118.830 Y111.999 E61.5064
G0 F2400 X118.832 Y111.407
G1 F2400 X121.386 Y113.962 E61.6799
G0 F2400 X120.881 Y112.862
G1 F2400 X118.896 Y110.877 E61.8147
G0 F2400 X118.983 Y110.370
G1 F2400 X120.763 Y112.151 E61.9356
G0 F2400 X120.734 Y111.528
G1 F2400 X119.085 Y109.879 E62.0476
G0 F2400 X119.254 Y109.453
G1 F2400 X120.735 Y110.935 E62.1482
G0 F2400 X120.889 Y110.495
G1 F2400 X119.423 Y109.028 E62.2478
G0 F2400 X119.617 Y108.629
G1 F2400 X121.043 Y110.055 E62.3446
G0 F2400 X121.198 Y109.616
G1 F2400 X119.856 Y108.273 E62.4358
G0 F2400 X120.093 Y107.917
G1 F2400 X121.428 Y109.252 E62.5264
G0 F2400 X121.705 Y108.935
G1 F2400 X120.354 Y107.584 E62.6182
G0 F2400 X120.655 Y107.290
G1 F2400 X121.983 Y108.619 E62.7084
G0 F2400 X122.261 Y108.303
G1 F2400 X120.955 Y106.997 E62.7971
G0 F2400 X121.273 Y106.720
G1 F2400 X122.620 Y108.067 E62.8885
G0 F2400 X123.020 Y107.874
G1 F2400 X121.637 Y106.490 E62.9825
G0 F2400 X122.000 Y106.260
G1 F2400 X123.419 Y107.679 E63.0789
G0 F2400 X123.820 Y107.485
G1 F2400 X122.382 Y106.048 E63.1765
G0 F2400 X122.810 Y105.882
G1 F2400 X124.334 Y107.406 E63.2800
G0 F2400 X124.900 Y107.378
G1 F2400 X123.238 Y105.715 E63.3929
G0 F2400 X123.736 Y105.620
G1 F2400 X125.466 Y107.350 E63.5104
G0 F2400 X126.285 Y107.574
G1 F2400 X124.238 Y105.528 E63.6493
G0 F2400 X124.778 Y105.474
G1 F2400 X127.256 Y107.952 E63.8176
G0 F3900 X128.567 Y109.263
G1 F2400 X131.179 Y111.875 E63.9950
G0 F2400 X131.179 Y112.469
G1 F2400 X129.117 Y110.407 E64.1350
G0 F2400 X129.235 Y111.119
G1 F2400 X131.179 Y113.063 E64.2670
G0 F2400 X131.179 Y113.657
G1 F2400 X129.264 Y111.741 E64.3971
G0 F2400 X129.261 Y112.333
G1 F2400 X131.179 Y114.251 E64.5274
G0 F2400 X131.179 Y114.845
G1 F2400 X129.107 Y112.772 E64.6681
G0 F2400 X128.952 Y113.212
G1 F2400 X131.179 Y115.439 E64.8194
G0 F2400 X131.179 Y116.033
G1 F2400 X128.798 Y113.651 E64.9811
G0 F2400 X128.567 Y114.015
G1 F2400 X131.179 Y116.627 E65.1585
G0 F2400 X131.179 Y117.221
G1 F2400 X128.289 Y114.331 E65.3547
G0 F2400 X128.012 Y114.648
G1 F2400 X131.179 Y117.815 E65.5698
G0 F2400 X131.180 Y118.409
G1 F2400 X127.734 Y114.964 E65.8038
G0 F2400 X127.374 Y115.198
G1 F2400 X131.180 Y119.003 E66.0622
G0 F2400 X131.180 Y119.597
G1 F2400 X126.973 Y115.391 E66.3479
G0 F2400 X126.572 Y115.584
G1 F2400 X131.180 Y120.191 E66.6608
G0 F2400 X131.180 Y120.785
G1 F2400 X126.171 Y115.777 E67.0009
G0 F2400 X125.662 Y115.861
G1 F2400 X131.180 Y121.379 E67.3756
G0 F2400 X131.180 Y121.973
G1 F2400 X125.094 Y115.888 E67.7889
G0 F2400 X124.527 Y115.915
G1 F2400 X131.180 Y122.567 E68.2406
G0 F2400 X131.180 Y123.161
G1 F2400 X123.690 Y115.672 E68.7492
G0 F2400 X122.745 Y115.320
G1 F2400 X131.180 Y123.755 E69.3221
G0 F3900 X131.885 Y125.648
G1 F2400 X133.266 Y127.029 E69.4158
G1 F2400 E66.4158
G0 F3900 X131.187 Y124.984
G0 X131.115 Y111.217
G1 F1500 E69.4158
G1 F2400 X125.380 Y105.482 E69.8053
G0 F2400 X126.075 Y105.583
G1 F2400 X131.014 Y110.522 E70.1407
G0 F2400 X130.888 Y109.802
G1 F2400 X126.825 Y105.739 E70.4166
G0 F2400 X127.823 Y106.143
G1 F2400 X130.473 Y108.793 E70.5966
;PRINTING_TIME: 51
;REMAINING_TIME: 281
;LAYER:1
;Z:0.800
;HEIGHT:0.300
;FLOW:100.0
;PRINTING: Bev??s??rl??_Coin_Cart_v2.STL
;PRINTING_ID: 0
G1 F2400 E67.5966
G0 F300 Z0.800
G0 F3900 X130.473 Y108.793
G0 X125.611 Y107.333
G0 X124.260 Y107.404
G0 X122.324 Y108.363
G0 X122.715 Y108.704
;TYPE:WALL-OUTER
;WIDTH:0.420
G1 F300 Z0.500
G1 F1500 E70.5966
G1 F2100 X121.784 Y109.775 Z0.521 E70.6019
G1 X121.322 Y111.115 Z0.543 E70.6124
G1 X121.396 Y112.531 Z0.564 E70.6282
G1 X121.995 Y113.816 Z0.585 E70.6493
G1 X123.032 Y114.782 Z0.606 E70.6756
G1 X124.357 Y115.290 Z0.628 E70.7072
G1 X125.899 Y115.236 Z0.651 E70.7478
G1 X127.285 Y114.560 Z0.674 E70.7946
G1 X128.216 Y113.489 Z0.695 E70.8430
G1 X128.678 Y112.149 Z0.716 E70.8966
G1 X128.604 Y110.734 Z0.738 E70.9554
G1 X128.005 Y109.449 Z0.759 E71.0195
G1 X126.967 Y108.481 Z0.780 E71.0890
G1 X125.730 Y108.030 Z0.800 E71.1579
G1 X125.519 Y107.954 Z0.800 E71.1697
G1 X124.099 Y108.029 Z0.800 E71.2442
G1 X122.715 Y108.704 Z0.800 E71.3248
G1 X121.784 Y109.775 Z0.800 E71.3939
G1 X121.322 Y111.115 Z0.800 E71.4576
G1 X121.396 Y112.531 Z0.800 E71.5161
G1 X121.995 Y113.816 Z0.800 E71.5693
G1 X123.032 Y114.782 Z0.800 E71.6172
G1 X124.357 Y115.290 Z0.800 E71.6599
G1 X125.899 Y115.236 Z0.800 E71.7001
G1 X127.285 Y114.560 Z0.800 E71.7341
G1 X128.216 Y113.489 Z0.800 E71.7601
G1 X128.678 Y112.149 Z0.800 E71.7808
G1 X128.604 Y110.734 Z0.800 E71.7962
G1 X128.005 Y109.449 Z0.800 E71.8063
G1 X126.967 Y108.481 Z0.800 E71.8112
G1 X125.730 Y108.030 Z0.800 E71.8112
G1 F2400 E68.8112
G0 F3900 X125.908 Y107.544
G0 X123.942 Y107.421
G0 X122.333 Y108.206
G0 X121.241 Y109.461
G0 X120.936 Y110.348
G0 X118.640 Y124.797
G0 X118.120 Y124.793
G1 F1500 E71.8112
G1 F2100 X118.223 Y111.236 E72.5214
G1 X118.525 Y109.598 E72.6087
G1 X119.089 Y108.295 E72.6830
G1 X119.910 Y107.141 E72.7572
G1 X120.958 Y106.179 E72.8318
G1 X121.960 Y105.564 E72.8933
G1 X123.294 Y105.064 E72.9680
G1 X124.699 Y104.852 E73.0424
G1 X125.878 Y104.900 E73.1042
G1 X127.259 Y105.230 E73.1786
G1 X128.331 Y105.717 E73.2403
G1 X129.669 Y106.704 E73.3274
G1 X130.591 Y107.783 E73.4017
G1 X131.268 Y109.025 E73.4758
G1 X131.673 Y110.388 E73.5503
G1 X131.788 Y111.573 E73.6127
G1 X131.790 Y124.723 E74.3015
G1 X133.592 Y126.421 E74.4312
G1 X134.942 Y128.368 E74.5554
G1 X135.858 Y130.551 E74.6794
G1 X136.299 Y132.868 E74.8029
G1 X136.193 Y135.627 E74.9476
G1 X135.426 Y138.276 E75.0920
G1 X134.042 Y140.662 E75.2365
G1 X132.121 Y142.644 E75.3811
G1 X130.138 Y143.928 E75.5049
G1 X127.927 Y144.775 E75.6289
G1 X125.593 Y145.143 E75.7527
G1 X123.622 Y145.075 E75.8560
G1 X121.419 Y144.578 E75.9743
G1 X119.515 Y143.744 E76.0832
G1 X117.574 Y142.389 E76.2072
G1 X116.204 Y140.974 E76.3104
G1 X114.909 Y138.990 E76.4345
G1 X114.055 Y136.783 E76.5584
G1 X113.707 Y134.843 E76.6617
G1 X113.741 Y132.478 E76.7856
G1 X114.265 Y130.169 E76.9096
G1 X115.056 Y128.371 E77.0125
G1 X116.408 Y126.421 E77.1368
G1 X118.120 Y124.793 E77.2606
G1 F2400 E74.2606
G0 F3900 X118.640 Y124.797
G0 X120.700 Y111.028
G0 X121.137 Y109.760
G0 X122.373 Y108.306
G0 X122.454 Y108.364
;TYPE:WALL-INNER
;WIDTH:0.420
;FLOW:90.0
G1 F300 Z0.500
G1 F1500 E77.2606
G1 F2400 X121.414 Y109.561 Z0.524 E77.2665
G1 X120.898 Y111.055 Z0.547 E77.2783
G1 X120.981 Y112.634 Z0.571 E77.2960
G1 X121.649 Y114.068 Z0.595 E77.3196
G1 X122.805 Y115.145 Z0.619 E77.3491
G1 X124.286 Y115.713 Z0.642 E77.3846
G1 X126.003 Y115.653 Z0.668 E77.4300
G1 X127.546 Y114.900 Z0.694 E77.4823
G1 X128.586 Y113.703 Z0.718 E77.5366
G1 X129.102 Y112.209 Z0.741 E77.5965
G1 X129.019 Y110.631 Z0.765 E77.6624
G1 X128.351 Y109.198 Z0.789 E77.7342
G1 X127.808 Y108.691 Z0.800 E77.7692
G1 X127.191 Y108.116 Z0.800 E77.8090
G1 X125.582 Y107.530 Z0.800 E77.8897
G1 X123.992 Y107.614 Z0.800 E77.9648
G1 X122.454 Y108.364 Z0.800 E78.0454
G1 X121.414 Y109.561 Z0.800 E78.1143
G1 X120.898 Y111.055 Z0.800 E78.1770
G1 X120.981 Y112.634 Z0.800 E78.2338
G1 X121.649 Y114.068 Z0.800 E78.2848
G1 X122.805 Y115.145 Z0.800 E78.3298
G1 X124.286 Y115.713 Z0.800 E78.3691
G1 X126.003 Y115.653 Z0.800 E78.4047
G1 X127.546 Y114.900 Z0.800 E78.4333
G1 X128.586 Y113.703 Z0.800 E78.4538
G1 X129.102 Y112.209 Z0.800 E78.4684
G1 X129.019 Y110.631 Z0.800 E78.4770
G1 X128.351 Y109.198 Z0.800 E78.4798
G1 X127.808 Y108.691 Z0.800 E78.4798
G1 F2400 E75.4798
G0 F3900 X127.905 Y108.517
G0 X128.512 Y109.081
