;Sliced by ideaMaker 5.2.3.8580, 2025-04-29 19:11:15 UTC+0200
;Slicer Version: 5.2.3.8580
;Dimension: 250.000 250.000 250.000 0.400
;Plate Shape: 0
;Origin Center: 0
;Extruder Offset #1: 25.000 0.000
;Filament Diameter #1: 1.750
;Filament Diameter #2: 1.750
;Filament Compensation #1: 94.000
;Filament Compensation #2: 90.000
;Filament Density #1: 1240.000
;Filament Density #2: 1240.000
;Filament Type #1: PLA
;Filament Type #2: PLA
;Filament Name #1: [Raise3D] Premium PLA 1.75mm
;Filament Name #2: [Raise3D] Premium PLA 1.75mm
;Filament #1: PLA 1.75mm
;Filament #2: PLA 1.75mm
;Printer Type: floppy
;Firmware: Klipper
;Bounding Box: 109.481 140.515 100.724 149.337 0.000 2.400
;Model Gap: 0.000
M221 T0 S94.00
M140 S50.00
M104 T0 S190.00
M109 T0 S190.00
T0
M190 S50.00
G21 ;metric values
G90 ;absolute positioning
M82 ;set extruder to absolute mode
M107 ;start with the fan off
G28 X0 Y0 ;move X/Y to min endstops
G28 Z0 ;move Z to min endstops
G1 Z15.0 F9000 ;move the platform down 15mm
G92 E0 ;zero the extruded length
G0 X43 Y27 F2000  ;go to the edge of the bed
G92 X0 Y0 E0 ;set zero to edge of the bed
G0 F9000 Z1 ;Z up with 1mm
G1 F200 Z0 ;Z home slowly
G1 Z15.0 F9000 ;move the platform down 15mm
G1 F9000 ;speed setting
G92 E-3 ;retraction
M117 Printing...
M1001
;TOTAL_NUM: 1
;PRINTING_TIME: 0
;REMAINING_TIME: 458
;LAYER:0
;Z:0.300
;HEIGHT:0.300
;PRINTING: NON-OBJECT
;PRINTING_ID: -1
G1 F2400 E-3.0000
G0 F3900 X116.887 Y104.285
G0 F300 Z0.300
;TYPE:SKIRT
;WIDTH:0.420
G1 F1500 E0.0000
G1 F900 X119.443 Y102.203 E0.1727
G1 X122.614 Y100.952 E0.3513
G1 X126.012 Y100.724 E0.5297
G1 X128.822 Y101.362 E0.6806
G1 X131.388 Y102.732 E0.8330
G1 X133.379 Y104.578 E0.9752
G1 X134.936 Y107.023 E1.1271
G1 X135.630 Y108.906 E1.2322
G1 X135.948 Y110.848 E1.3353
G1 X135.989 Y122.946 E1.9690
G1 X136.780 Y123.718 E2.0269
G1 X138.822 Y126.777 E2.2196
G1 X140.109 Y130.296 E2.4159
G1 X140.515 Y133.626 E2.5916
G1 X140.213 Y136.880 E2.7628
G1 X139.431 Y139.541 E2.9081
G1 X137.957 Y142.360 E3.0747
G1 X136.239 Y144.529 E3.2197
G1 X133.815 Y146.591 E3.3864
G1 X130.987 Y148.136 E3.5552
G1 X128.342 Y148.981 E3.7007
G1 X125.192 Y149.337 E3.8667
G1 X122.445 Y149.133 E4.0110
G1 X119.375 Y148.285 E4.1779
G1 X116.501 Y146.805 E4.3472
G1 X113.997 Y144.764 E4.5164
G1 X111.981 Y142.267 E4.6846
G1 X110.669 Y139.788 E4.8315
G1 X109.848 Y137.210 E4.9732
G1 X109.481 Y134.061 E5.1393
G1 X109.869 Y130.398 E5.3322
G1 X110.930 Y127.274 E5.5051
G1 X112.596 Y124.493 E5.6749
G1 X114.010 Y122.993 E5.7829
G1 X114.014 Y111.382 E6.3911
G1 X114.190 Y109.721 E6.4786
G1 X115.005 Y107.160 E6.6194
G1 X116.887 Y104.285 E6.7994
G0 F3900 X117.154 Y104.609
G1 F900 X119.599 Y102.593 E6.9654
G1 X122.644 Y101.371 E7.1373
G1 X125.919 Y101.134 E7.3093
G1 X128.729 Y101.772 E7.4603
G1 X131.102 Y103.040 E7.6012
G1 X133.093 Y104.886 E7.7434
G1 X134.581 Y107.247 E7.8896
G1 X135.235 Y109.049 E7.9900
G1 X135.533 Y110.914 E8.0890
G1 X135.570 Y123.124 E8.7286
G1 X136.487 Y124.019 E8.7957
G1 X138.472 Y127.009 E8.9837
G1 X139.714 Y130.439 E9.1748
G1 X140.098 Y133.675 E9.3455
G1 X139.795 Y136.840 E9.5121
G1 X139.028 Y139.421 E9.6531
G1 X137.585 Y142.164 E9.8155
G1 X135.910 Y144.267 E9.9563
G1 X133.544 Y146.271 E10.1188
G1 X130.787 Y147.767 E10.2831
G1 X128.215 Y148.581 E10.4244
G1 X125.146 Y148.920 E10.5861
G1 X122.477 Y148.714 E10.7264
G1 X119.488 Y147.880 E10.8889
G1 X116.694 Y146.432 E11.0538
G1 X114.263 Y144.439 E11.2185
G1 X112.309 Y142.004 E11.3820
G1 X111.041 Y139.593 E11.5247
G1 X110.248 Y137.083 E11.6626
G1 X109.898 Y134.013 E11.8245
G1 X110.287 Y130.443 E12.0126
G1 X111.327 Y127.410 E12.1805
G1 X112.956 Y124.710 E12.3457
G1 X114.430 Y123.161 E12.4577
G1 X114.434 Y111.382 E13.0748
G1 X114.608 Y109.766 E13.1599
G1 X115.358 Y107.388 E13.2905
G1 X117.154 Y104.609 E13.4639
G0 F3900 X117.423 Y104.931
G1 F900 X119.758 Y102.982 E13.6232
G1 X122.677 Y101.790 E13.7884
G1 X125.828 Y101.544 E13.9539
G1 X128.533 Y102.144 E14.0991
G1 X130.816 Y103.348 E14.2343
G1 X132.807 Y105.194 E14.3765
G1 X134.225 Y107.469 E14.5170
G1 X134.839 Y109.190 E14.6127
G1 X135.118 Y110.979 E14.7075
G1 X135.150 Y123.301 E15.3530
G1 X136.194 Y124.320 E15.4294
G1 X138.077 Y127.152 E15.6076
G1 X139.319 Y130.582 E15.7987
G1 X139.681 Y133.723 E15.9643
G1 X139.377 Y136.799 E16.1262
G1 X138.626 Y139.300 E16.2630
G1 X137.214 Y141.967 E16.4211
G1 X135.582 Y144.004 E16.5578
G1 X133.273 Y145.950 E16.7160
G1 X130.588 Y147.397 E16.8758
G1 X128.089 Y148.180 E17.0130
G1 X125.101 Y148.502 E17.1704
G1 X122.510 Y148.295 E17.3066
G1 X119.602 Y147.476 E17.4648
G1 X116.888 Y146.060 E17.6252
G1 X114.530 Y144.115 E17.7853
G1 X112.637 Y141.742 E17.9443
G1 X111.413 Y139.399 E18.0828
G1 X110.649 Y136.958 E18.2168
G1 X110.315 Y133.966 E18.3745
G1 X110.704 Y130.490 E18.5577
G1 X111.724 Y127.548 E18.7209
G1 X113.315 Y124.928 E18.8814
G1 X114.850 Y123.330 E18.9975
G1 X114.854 Y111.382 E19.6234
G1 X115.026 Y109.812 E19.7061
G1 X115.712 Y107.614 E19.8267
G1 X117.423 Y104.931 E19.9934
G0 F3900 X117.694 Y105.252
G1 F900 X119.919 Y103.370 E20.1461
G1 X122.712 Y102.209 E20.3046
G1 X125.739 Y101.954 E20.4637
G1 X128.339 Y102.517 E20.6030
G1 X130.530 Y103.656 E20.7324
G1 X132.521 Y105.502 E20.8746
G1 X133.867 Y107.689 E21.0092
G1 X134.443 Y109.329 E21.1002
G1 X134.703 Y111.042 E21.1910
G1 X134.730 Y123.479 E21.8425
G1 X135.901 Y124.621 E21.9282
G1 X137.682 Y127.295 E22.0965
G1 X138.924 Y130.725 E22.2876
G1 X139.264 Y133.770 E22.4481
G1 X138.959 Y136.756 E22.6053
G1 X138.224 Y139.178 E22.7379
G1 X136.843 Y141.769 E22.8917
G1 X135.255 Y143.740 E23.0243
G1 X133.003 Y145.628 E23.1782
G1 X130.390 Y147.027 E23.3335
G1 X127.965 Y147.779 E23.4665
G1 X125.057 Y148.084 E23.6197
G1 X122.545 Y147.876 E23.7517
G1 X119.717 Y147.072 E23.9057
G1 X117.083 Y145.688 E24.0616
G1 X114.798 Y143.792 E24.2171
G1 X112.966 Y141.481 E24.3716
G1 X111.786 Y139.206 E24.5059
G1 X111.050 Y136.834 E24.6360
G1 X110.733 Y133.921 E24.7895
G1 X111.121 Y130.538 E24.9678
G1 X112.120 Y127.687 E25.1261
G1 X113.673 Y125.147 E25.2821
G1 X115.270 Y123.500 E25.4022
G1 X115.274 Y111.382 E26.0370
G1 X115.443 Y109.858 E26.1174
G1 X116.067 Y107.838 E26.2281
G1 X117.694 Y105.252 E26.3882
G0 F3900 X117.967 Y105.571
G1 F900 X120.083 Y103.757 E26.5342
G1 X122.750 Y102.627 E26.6859
G1 X125.652 Y102.365 E26.8385
G1 X128.145 Y102.890 E26.9720
G1 X130.336 Y104.029 E27.1013
G1 X132.234 Y105.808 E27.2376
G1 X133.508 Y107.907 E27.3662
G1 X134.046 Y109.466 E27.4526
G1 X134.287 Y111.103 E27.5393
G1 X134.310 Y123.657 E28.1970
G1 X135.608 Y124.922 E28.2919
G1 X137.287 Y127.438 E28.4503
G1 X138.529 Y130.868 E28.6414
G1 X138.846 Y133.815 E28.7967
G1 X138.541 Y136.712 E28.9493
G1 X137.822 Y139.055 E29.0777
G1 X136.473 Y141.571 E29.2272
G1 X134.929 Y143.476 E29.3557
G1 X132.734 Y145.305 E29.5054
G1 X130.193 Y146.656 E29.6561
G1 X127.842 Y147.377 E29.7849
G1 X125.014 Y147.666 E29.9339
G1 X122.581 Y147.458 E30.0618
G1 X119.833 Y146.668 E30.2116
G1 X117.279 Y145.317 E30.3629
G1 X115.067 Y143.470 E30.5139
G1 X113.296 Y141.221 E30.6638
G1 X112.159 Y139.014 E30.7939
G1 X111.451 Y136.711 E30.9201
G1 X111.151 Y133.877 E31.0694
G1 X111.538 Y130.587 E31.2429
G1 X112.516 Y127.827 E31.3963
G1 X114.031 Y125.367 E31.5477
G1 X115.690 Y123.671 E31.6719
G1 X115.694 Y111.382 E32.3157
G1 X115.860 Y109.905 E32.3936
G1 X116.424 Y108.059 E32.4947
G1 X117.967 Y105.571 E32.6480
G0 F3900 X118.242 Y105.888
G1 F900 X120.250 Y104.143 E32.7874
G1 X122.790 Y103.045 E32.9323
G1 X125.568 Y102.777 E33.0785
G1 X127.951 Y103.263 E33.2059
G1 X130.142 Y104.402 E33.3353
G1 X131.945 Y106.113 E33.4655
G1 X133.148 Y108.123 E33.5882
G1 X133.648 Y109.601 E33.6700
G1 X133.871 Y111.162 E33.7526
G1 X133.890 Y123.835 E34.4164
G1 X135.315 Y125.223 E34.5206
G1 X136.893 Y127.582 E34.6693
G1 X138.111 Y130.913 E34.8551
G1 X138.428 Y133.860 E35.0104
G1 X138.123 Y136.667 E35.1583
G1 X137.421 Y138.931 E35.2825
G1 X136.103 Y141.371 E35.4277
G1 X134.603 Y143.211 E35.5521
G1 X132.466 Y144.982 E35.6975
G1 X129.997 Y146.285 E35.8437
G1 X127.720 Y146.975 E35.9684
G1 X124.972 Y147.248 E36.1130
G1 X122.618 Y147.040 E36.2368
G1 X119.950 Y146.265 E36.3824
G1 X117.477 Y144.946 E36.5292
G1 X115.337 Y143.148 E36.6756
G1 X113.627 Y140.962 E36.8210
G1 X112.533 Y138.823 E36.9468
G1 X111.853 Y136.589 E37.0692
G1 X111.569 Y133.834 E37.2143
G1 X111.955 Y130.637 E37.3829
G1 X112.911 Y127.969 E37.5314
G1 X114.388 Y125.588 E37.6782
G1 X116.110 Y123.843 E37.8066
G1 X116.114 Y111.382 E38.4594
G1 X116.277 Y109.953 E38.5347
G1 X116.782 Y108.278 E38.6264
G1 X118.242 Y105.888 E38.7731
G0 F3900 X118.520 Y106.203
G1 F900 X120.419 Y104.527 E38.9058
G1 X122.833 Y103.463 E39.0440
G1 X125.487 Y103.189 E39.1837
G1 X127.760 Y103.637 E39.3051
G1 X129.855 Y104.708 E39.4283
G1 X131.585 Y106.329 E39.5525
G1 X132.788 Y108.339 E39.6752
G1 X133.249 Y109.733 E39.7522
G1 X133.455 Y111.220 E39.8308
G1 X133.470 Y124.013 E40.5010
G1 X135.022 Y125.524 E40.6144
G1 X136.543 Y127.814 E40.7584
G1 X137.693 Y130.958 E40.9338
G1 X138.010 Y133.905 E41.0891
G1 X137.706 Y136.620 E41.2322
G1 X137.020 Y138.805 E41.3522
G1 X135.734 Y141.170 E41.4932
G1 X134.278 Y142.945 E41.6134
G1 X132.199 Y144.658 E41.7546
G1 X129.802 Y145.913 E41.8963
G1 X127.599 Y146.573 E42.0168
G1 X124.932 Y146.830 E42.1571
G1 X122.656 Y146.622 E42.2768
G1 X120.068 Y145.862 E42.4181
G1 X117.676 Y144.576 E42.5604
G1 X115.608 Y142.827 E42.7023
G1 X113.959 Y140.704 E42.8431
G1 X112.907 Y138.633 E42.9648
G1 X112.255 Y136.468 E43.0832
G1 X111.987 Y133.792 E43.2241
G1 X112.372 Y130.689 E43.3879
G1 X113.306 Y128.112 E43.5315
G1 X114.744 Y125.811 E43.6736
G1 X116.530 Y124.016 E43.8063
G1 X116.534 Y111.382 E44.4681
G1 X116.694 Y110.001 E44.5409
G1 X117.142 Y108.494 E44.6233
G1 X118.520 Y106.203 E44.7633
G0 F3900 X118.800 Y106.516
G1 F900 X120.591 Y104.910 E44.8894
G1 X122.879 Y103.880 E45.0208
G1 X125.409 Y103.602 E45.1541
G1 X127.571 Y104.012 E45.2694
G1 X129.570 Y105.017 E45.3866
G1 X131.225 Y106.545 E45.5046
G1 X132.428 Y108.555 E45.6273
G1 X132.849 Y109.862 E45.6993
G1 X133.039 Y111.276 E45.7740
G1 X133.050 Y124.190 E46.4505
G1 X134.729 Y125.825 E46.5733
G1 X136.192 Y128.045 E46.7125
G1 X137.275 Y131.003 E46.8775
G1 X137.592 Y133.950 E47.0328
G1 X137.289 Y136.572 E47.1711
G1 X136.620 Y138.678 E47.2868
G1 X135.366 Y140.968 E47.4236
G1 X133.954 Y142.678 E47.5398
G1 X131.933 Y144.333 E47.6766
G1 X129.608 Y145.540 E47.8138
G1 X127.480 Y146.170 E47.9301
G1 X124.893 Y146.412 E48.0662
G1 X122.696 Y146.204 E48.1818
G1 X120.188 Y145.459 E48.3189
G1 X117.876 Y144.207 E48.4566
G1 X115.880 Y142.507 E48.5939
G1 X114.292 Y140.448 E48.7302
G1 X113.282 Y138.444 E48.8477
G1 X112.658 Y136.348 E48.9623
G1 X112.405 Y133.751 E49.0990
G1 X112.789 Y130.742 E49.2579
G1 X113.700 Y128.257 E49.3965
G1 X115.099 Y126.035 E49.5341
G1 X116.950 Y124.191 E49.6709
G1 X116.954 Y111.382 E50.3419
G1 X117.111 Y110.050 E50.4122
G1 X117.503 Y108.708 E50.4854
G1 X118.800 Y106.516 E50.6188
G0 F3900 X119.083 Y106.826
G1 F900 X120.767 Y105.292 E50.7382
G1 X122.928 Y104.297 E50.8628
G1 X125.334 Y104.015 E50.9897
G1 X127.385 Y104.389 E51.0989
G1 X129.288 Y105.328 E51.2101
G1 X130.865 Y106.761 E51.3217
G1 X132.068 Y108.771 E51.4444
G1 X132.448 Y109.987 E51.5112
G1 X132.622 Y111.330 E51.5821
G1 X132.630 Y124.367 E52.2650
G1 X134.436 Y126.126 E52.3971
G1 X135.840 Y128.275 E52.5316
G1 X136.857 Y131.048 E52.6863
G1 X137.174 Y133.995 E52.8416
G1 X136.872 Y136.522 E52.9749
G1 X136.220 Y138.549 E53.0864
G1 X134.998 Y140.765 E53.2190
G1 X133.631 Y142.410 E53.3310
G1 X131.668 Y144.007 E53.4636
G1 X129.416 Y145.167 E53.5963
G1 X127.362 Y145.767 E53.7084
G1 X124.855 Y145.994 E53.8403
G1 X122.737 Y145.786 E53.9517
G1 X120.309 Y145.057 E54.0845
G1 X118.077 Y143.838 E54.2178
G1 X116.153 Y142.188 E54.3505
G1 X114.625 Y140.193 E54.4822
G1 X113.658 Y138.256 E54.5956
G1 X113.061 Y136.229 E54.7063
G1 X112.823 Y133.711 E54.8388
G1 X113.205 Y130.797 E54.9927
G1 X114.094 Y128.403 E55.1265
G1 X115.454 Y126.260 E55.2595
G1 X117.370 Y124.366 E55.4006
G1 X117.374 Y111.382 E56.0808
G1 X117.528 Y110.100 E56.1484
G1 X117.906 Y108.828 E56.2179
G1 X119.083 Y106.826 E56.3396
G0 F3900 X119.444 Y107.041
G1 F900 X120.946 Y105.672 E56.4460
G1 X122.980 Y104.714 E56.5638
G1 X125.262 Y104.429 E56.6843
G1 X127.202 Y104.767 E56.7874
G1 X129.008 Y105.641 E56.8925
G1 X130.506 Y106.979 E56.9978
G1 X131.667 Y108.896 E57.1152
G1 X132.047 Y110.112 E57.1819
G1 X132.205 Y111.382 E57.2489
G1 X132.210 Y124.544 E57.9384
G1 X134.143 Y126.427 E58.0798
G1 X135.488 Y128.503 E58.2094
G1 X136.462 Y131.191 E58.3591
G1 X136.756 Y134.038 E58.5091
G1 X136.455 Y136.470 E58.6374
G1 X135.821 Y138.419 E58.7448
G1 X134.631 Y140.561 E58.8732
G1 X133.309 Y142.140 E58.9810
G1 X131.404 Y143.680 E59.1094
G1 X129.225 Y144.793 E59.2375
G1 X127.246 Y145.363 E59.3454
G1 X124.818 Y145.576 E59.4731
G1 X122.780 Y145.368 E59.5804
G1 X120.431 Y144.655 E59.7090
G1 X118.280 Y143.470 E59.8377
G1 X116.428 Y141.870 E59.9659
G1 X114.959 Y139.939 E60.0930
G1 X114.035 Y138.070 E60.2022
G1 X113.464 Y136.111 E60.3091
G1 X113.241 Y133.673 E60.4373
G1 X113.621 Y130.853 E60.5864
G1 X114.487 Y128.551 E60.7152
G1 X115.808 Y126.486 E60.8436
G1 X117.790 Y124.543 E60.9890
G1 X117.794 Y111.382 E61.6785
G1 X117.945 Y110.151 E61.7434
G1 X118.308 Y108.950 E61.8092
G1 X119.444 Y107.041 E61.9255
;PRINTING: Bev??s??rl??_Coin_Cart_v2.STL
;PRINTING_ID: 0
G1 F2400 E58.9255
G0 F3900 X122.327 Y109.053
;TYPE:WALL-OUTER
;WIDTH:0.420
G1 F1500 E61.9255
G1 F2400 X121.512 Y110.352 E62.0059
G1 X121.288 Y111.763 E62.0807
G1 X121.656 Y113.251 E62.1610
G1 X122.515 Y114.392 E62.2358
G1 X123.729 Y115.122 E62.3100
G1 X125.130 Y115.344 E62.3843
G1 X126.510 Y115.024 E62.4585
G1 X127.672 Y114.211 E62.5328
G1 X128.487 Y112.911 E62.6132
G1 X128.711 Y111.503 E62.6879
G1 X128.392 Y110.121 E62.7622
G1 X127.580 Y108.960 E62.8364
G1 X126.390 Y108.188 E62.9107
G1 X124.880 Y107.920 E62.9911
G1 X123.489 Y108.238 E63.0658
G1 X122.327 Y109.053 E63.1401
G1 F2400 E60.1401
G0 F3900 X122.031 Y108.627
G0 X120.924 Y110.131
G0 X118.814 Y124.975
G0 X118.570 Y125.094
G0 X118.210 Y124.721
G1 F1500 E63.1401
G1 F2400 X118.214 Y111.397 E63.8381
G1 X118.357 Y110.223 E63.9001
G1 X118.703 Y109.095 E63.9619
G1 X119.790 Y107.281 E64.0727
G1 X121.204 Y106.005 E64.1724
G1 X123.129 Y105.107 E64.2837
G1 X125.221 Y104.848 E64.3941
G1 X127.097 Y105.176 E64.4939
G1 X128.797 Y106.006 E64.5930
G1 X130.198 Y107.266 E64.6917
G1 X131.297 Y109.096 E64.8035
G1 X131.642 Y110.223 E64.8653
G1 X131.785 Y111.397 E64.9272
G1 X131.790 Y124.721 E65.6252
G1 X133.827 Y126.703 E65.7741
G1 X135.123 Y128.715 E65.8995
G1 X136.057 Y131.312 E66.0440
G1 X136.336 Y134.058 E66.1886
G1 X136.041 Y136.399 E66.3122
G1 X135.425 Y138.277 E66.4158
G1 X134.275 Y140.341 E66.5395
G1 X133.004 Y141.851 E66.6429
G1 X131.163 Y143.336 E66.7668
G1 X129.055 Y144.408 E66.8907
G1 X127.159 Y144.951 E66.9940
G1 X124.802 Y145.156 E67.1180
G1 X122.841 Y144.951 E67.2212
G1 X120.580 Y144.261 E67.3451
G1 X118.509 Y143.116 E67.4690
G1 X116.718 Y141.564 E67.5932
G1 X115.305 Y139.701 E67.7157
G1 X114.424 Y137.912 E67.8201
G1 X113.875 Y136.015 E67.9236
G1 X113.662 Y133.661 E68.0474
G1 X114.036 Y130.925 E68.1921
G1 X114.873 Y128.718 E68.3157
G1 X116.154 Y126.725 E68.4398
G1 X118.210 Y124.721 E68.5902
G1 F2400 E65.5902
G0 F3900 X118.570 Y125.094
G0 X118.814 Y124.975
G0 X120.924 Y110.131
G0 X121.927 Y108.713
G0 X122.016 Y108.758
;TYPE:WALL-INNER
;WIDTH:0.420
G1 F1500 E68.5902
G1 F2400 X121.111 Y110.201 E68.6795
G1 X120.860 Y111.781 E68.7633
G1 X121.269 Y113.435 E68.8525
G1 X122.229 Y114.710 E68.9361
G1 X123.583 Y115.524 E69.0189
G1 X125.145 Y115.772 E69.1017
G1 X126.684 Y115.415 E69.1845
G1 X127.983 Y114.506 E69.2675
G1 X128.888 Y113.062 E69.3568
G1 X129.139 Y111.488 E69.4403
G1 X128.783 Y109.947 E69.5232
G1 X127.877 Y108.652 E69.6060
G1 X126.547 Y107.789 E69.6890
G1 X124.869 Y107.492 E69.7783
G1 X123.315 Y107.847 E69.8618
G1 X122.016 Y108.758 E69.9449
G1 F2400 E66.9449
G0 F3900 X121.927 Y108.713
G0 X121.116 Y109.861
G0 X118.730 Y124.888
G0 X118.630 Y124.898
G1 F1500 E69.9449
G1 F2400 X118.634 Y111.423 E70.6508
G1 X119.090 Y109.267 E70.7662
G1 X120.118 Y107.551 E70.8710
G1 X121.439 Y106.359 E70.9642
