;Sliced by ideaMaker 5.1.1.8450, 2024-10-14 13:16:30 UTC+0200
;Slicer Version: 5.1.1.8450
;Dimension: 250.000 250.000 250.000 0.400
;Plate Shape: 0
;Origin Center: 0
;Extruder Offset #1: 25.000 0.000
;Filament Diameter #1: 1.750
;Filament Diameter #2: 1.750
;Filament Compensation #1: 94.000
;Filament Compensation #2: 90.000
;Filament Density #1: 1240.000
;Filament Density #2: 1240.000
;Filament Type #1: PLA
;Filament Type #2: 
;Filament Name #1: [Raise3D] Premium PLA 1.75mm
;Filament Name #2: 
;Printer Type: floppy
;Firmware: Klipper
;Bounding Box: 114.998 135.002 114.998 135.002 0.000 20.000
;Model Gap: 0.000
M221 T0 S94.00
M140 S50.00
M104 T0 S210.00
M109 T0 S210.00
T0
M190 S50.00
G21 ;metric values
G90 ;absolute positioning
M82 ;set extruder to absolute mode
M107 ;start with the fan off
G28 X0 Y0 ;move X/Y to min endstops
G28 Z0 ;move Z to min endstops
G1 Z15.0 F9000 ;move the platform down 15mm
G92 E0 ;zero the extruded length
G1 F200 E12 ;extrude 15mm of feed stock
G92 E0 ;zero the extruded length again
G0 X12 Y17 F2000
G92 X0 Y0 E0
G0 F9000 Z1
G1 F200 Z0
G1 Z15.0 F9000 ;move the platform down 15mm
G1 F9000
G92 E-3
M117 Printing...
M1001
;TOTAL_NUM: 1
;PRINTING_TIME: 0
;REMAINING_TIME: 1474
;LAYER:0
;Z:0.500
;HEIGHT:0.500
M106 S0
;PRINTING: sides_6_standard.stl
;PRINTING_ID: 0
G1 F2400 E-3.0000
G0 F3900 X115.208 Y116.585
G0 F300 Z0.500
;TYPE:WALL-OUTER
;WIDTH:0.420
;FLOW:55.0
G1 F1500 E0.0000
G1 F2400 X116.595 Y115.208 E0.0939
G1 X133.413 Y115.208 E0.9014
G1 X134.792 Y116.586 E0.9951
G1 X134.792 Y133.406 E1.8027
G1 X133.416 Y134.792 E1.8965
G1 X116.590 Y134.792 E2.7045
G1 X115.208 Y133.410 E2.7983
G1 X115.208 Y116.585 E3.6063
G1 F2400 E0.6063
G0 F3900 X115.705 Y116.823
G0 X127.278 Y118.423
G0 X128.417 Y119.235
G0 X129.488 Y121.197
G0 X129.026 Y121.433
G1 F1500 E3.6063
G1 F2400 X128.208 Y119.841 E3.6922
G1 X127.036 Y119.005 E3.7613
G1 X125.436 Y118.732 E3.8393
G1 X124.154 Y118.920 E3.9015
G1 X123.077 Y119.488 E3.9600
G1 X122.218 Y120.428 E4.0211
G1 X121.602 Y121.697 E4.0889
G1 X121.237 Y123.267 E4.1663
G1 X121.117 Y125.136 E4.2562
G1 X121.233 Y126.862 E4.3393
G1 X121.585 Y128.306 E4.4106
G1 X122.182 Y129.466 E4.4733
G1 X123.015 Y130.318 E4.5305
G1 X124.067 Y130.831 E4.5867
G1 X125.318 Y130.999 E4.6473
G1 X126.445 Y130.877 E4.7017
G1 X127.406 Y130.506 E4.7512
G1 X128.196 Y129.885 E4.7995
G1 X128.779 Y129.050 E4.8484
G1 X129.126 Y128.044 E4.8995
G1 X129.239 Y126.873 E4.9560
G1 X129.132 Y125.786 E5.0084
G1 X128.803 Y124.846 E5.0562
G1 X128.249 Y124.060 E5.1024
G1 X127.506 Y123.470 E5.1480
G1 X126.609 Y123.117 E5.1943
G1 X125.559 Y123.000 E5.2450
G1 X123.812 Y123.405 E5.3311
G1 X123.081 Y124.004 E5.3765
G1 X123.292 Y122.270 E5.4604
G1 X123.653 Y121.421 E5.5047
G1 X124.134 Y120.817 E5.5417
G1 X124.719 Y120.463 E5.5746
G1 X125.416 Y120.345 E5.6085
G1 X126.193 Y120.485 E5.6464
G1 X126.746 Y120.894 E5.6795
G1 X127.196 Y121.763 E5.7265
G1 X129.026 Y121.433 E5.8157
G1 F2400 E2.8157
G0 F3900 X129.488 Y121.197
G0 X128.685 Y119.427
G0 X127.546 Y118.615
G0 X115.705 Y116.823
G0 X115.628 Y116.760
;TYPE:WALL-INNER
;WIDTH:0.420
G1 F1500 E5.8157
G1 F2400 X116.768 Y115.628 E5.8929
G1 X133.239 Y115.628 E6.6838
G1 X134.372 Y116.760 E6.7607
G1 X134.372 Y133.233 E7.5517
G1 X133.241 Y134.372 E7.6288
G1 X116.764 Y134.372 E8.4200
G1 X115.628 Y133.236 E8.4972
G1 X115.628 Y116.760 E9.2884
G1 F2400 E6.2884
G0 F3900 X115.705 Y116.823
G0 X127.278 Y118.423
G0 X128.417 Y119.235
G0 X129.659 Y121.746
G1 F1500 E9.2884
G1 F2400 X128.535 Y119.558 E9.4065
G1 X127.202 Y118.607 E9.4851
G1 X125.441 Y118.307 E9.5709
G1 X124.022 Y118.515 E9.6397
G1 X122.816 Y119.151 E9.7052
G1 X121.867 Y120.190 E9.7728
G1 X121.204 Y121.556 E9.8457
G1 X120.820 Y123.206 E9.9271
G1 X120.696 Y125.137 E10.0200
G1 X120.816 Y126.926 E10.1061
G1 X121.189 Y128.454 E10.1816
G1 X121.837 Y129.714 E10.2496
G1 X122.766 Y130.664 E10.3134
G1 X123.944 Y131.238 E10.3764
G1 X125.313 Y131.422 E10.4427
G1 X126.545 Y131.289 E10.5022
G1 X127.616 Y130.875 E10.5573
G1 X128.505 Y130.177 E10.6116
G1 X129.157 Y129.242 E10.6663
G1 X129.539 Y128.134 E10.7226
G1 X129.661 Y126.873 E10.7835
G1 X129.545 Y125.695 E10.8403
G1 X129.180 Y124.652 E10.8934
G1 X128.557 Y123.769 E10.9453
G1 X127.718 Y123.102 E10.9967
G1 X126.711 Y122.706 E11.0487
G1 X125.534 Y122.575 E11.1055
G1 X123.624 Y123.017 E11.1997
G1 X123.702 Y122.380 E11.2305
G1 X124.416 Y121.137 E11.2993
G1 X124.868 Y120.864 E11.3247
G1 X125.414 Y120.771 E11.3513
G1 X126.022 Y120.881 E11.3810
G1 X126.418 Y121.174 E11.4046
G1 X126.966 Y122.231 E11.4618
G1 X129.659 Y121.746 E11.5932
G0 F3900 X127.495 Y122.446
;TYPE:GAP-FILL
;WIDTH:0.420
;WIDTH:0.191
G1 F2400 X127.245 Y122.494 E11.5987
;WIDTH:0.241
G1 X126.842 Y122.387 E11.6102
;WIDTH:0.420
G1 X126.598 Y122.144 E11.6268
G0 F3900 X126.614 Y122.159
;TYPE:SOLID-FILL
;WIDTH:0.420
G1 F2400 X125.419 Y120.964 E11.7079
G0 F2400 X124.979 Y121.118
G1 F2400 X126.334 Y122.473 E11.7999
G0 F2400 X125.665 Y122.398
G1 F2400 X124.549 Y121.282 E11.8757
G0 F2400 X124.356 Y121.683
G1 F2400 X125.143 Y122.470 E11.9292
G0 F2400 X124.661 Y122.582
;WIDTH:0.444
G1 F2400 X124.066 Y122.284 E11.9630
;WIDTH:0.420
G1 X124.179 Y122.694 E11.9834
G1 F2400 E8.9834
G0 F3900 X129.838 Y121.835
G0 X132.745 Y115.817
G1 F1500 E11.9834
G1 F2400 X134.181 Y117.253 E12.0809
G0 F2400 X134.181 Y117.847
G1 F2400 X132.151 Y115.817 E12.2187
G0 F2400 X131.557 Y115.817
G1 F2400 X134.181 Y118.441 E12.3969
G0 F2400 X134.181 Y119.035
G1 F2400 X130.963 Y115.817 E12.6155
G0 F2400 X130.369 Y115.817
G1 F2400 X134.181 Y119.629 E12.8743
G0 F2400 X134.181 Y120.223
G1 F2400 X129.775 Y115.817 E13.1736
G0 F2400 X129.181 Y115.817
G1 F2400 X134.181 Y120.817 E13.5131
G0 F2400 X134.181 Y121.411
G1 F2400 X128.587 Y115.817 E13.8930
G0 F2400 X127.993 Y115.817
G1 F2400 X134.181 Y122.005 E14.3132
G0 F2400 X134.181 Y122.599
G1 F2400 X127.399 Y115.817 E14.7738
G0 F2400 X126.805 Y115.817
G1 F2400 X134.181 Y123.193 E15.2747
G0 F2400 X134.181 Y123.787
G1 F2400 X126.211 Y115.817 E15.8159
G0 F2400 X125.617 Y115.817
G1 F2400 X134.181 Y124.381 E16.3975
G0 F2400 X134.181 Y124.975
G1 F2400 X128.725 Y119.519 E16.7680
G0 F2400 X128.526 Y119.320
G1 F2400 X125.023 Y115.817 E17.0059
G0 F2400 X124.429 Y115.817
G1 F2400 X126.992 Y118.379 E17.1799
G0 F2400 X126.276 Y118.257
G1 F2400 X123.835 Y115.817 E17.3456
G0 F2400 X123.241 Y115.817
G1 F2400 X125.560 Y118.135 E17.5031
G0 F2400 X125.009 Y118.178
G1 F2400 X122.647 Y115.817 E17.6635
G0 F2400 X122.053 Y115.817
G1 F2400 X124.491 Y118.254 E17.8290
G0 F2400 X123.972 Y118.330
G1 F2400 X121.459 Y115.817 E17.9997
G0 F2400 X120.865 Y115.817
G1 F2400 X123.581 Y118.533 E18.1841
G0 F2400 X123.192 Y118.738
G1 F2400 X120.271 Y115.817 E18.3825
G0 F2400 X119.677 Y115.817
G1 F2400 X122.804 Y118.943 E18.5948
G0 F2400 X122.492 Y119.225
G1 F2400 X119.083 Y115.817 E18.8262
G0 F2400 X118.489 Y115.817
G1 F2400 X122.209 Y119.536 E19.0788
G0 F2400 X121.925 Y119.846
G1 F2400 X117.895 Y115.817 E19.3525
G0 F2400 X117.301 Y115.817
G1 F2400 X121.662 Y120.177 E19.6486
G0 F2400 X121.468 Y120.577
G1 F2400 X116.776 Y115.885 E19.9672
G0 F2400 X116.478 Y116.181
G1 F2400 X121.274 Y120.977 E20.2929
G0 F2400 X121.080 Y121.377
G1 F2400 X116.180 Y116.477 E20.6257
G0 F2400 X115.882 Y116.773
G1 F2400 X120.944 Y121.835 E20.9694
G0 F2400 X120.832 Y122.317
G1 F2400 X115.817 Y117.301 E21.3100
G0 F2400 X115.817 Y117.895
G1 F2400 X120.720 Y122.798 E21.6430
G0 F2400 X120.624 Y123.297
G1 F2400 X115.817 Y118.489 E21.9695
G0 F2400 X115.817 Y119.083
G1 F2400 X120.589 Y123.856 E22.2936
G0 F2400 X120.553 Y124.414
G1 F2400 X115.817 Y119.677 E22.6152
G0 F2400 X115.817 Y120.271
G1 F2400 X120.517 Y124.972 E22.9344
G0 F2400 X120.537 Y125.586
G1 F2400 X115.817 Y120.865 E23.2550
G0 F2400 X115.817 Y121.459
G1 F2400 X120.580 Y126.222 E23.5785
G0 F2400 X120.622 Y126.859
G1 F2400 X115.817 Y122.053 E23.9048
G0 F2400 X115.817 Y122.647
G1 F2400 X120.792 Y127.622 E24.2426
G0 F2400 X120.983 Y128.408
G1 F2400 X115.817 Y123.241 E24.5935
G0 F2400 X115.817 Y123.835
G1 F2400 X121.553 Y129.571 E24.9830
G0 F3900 X122.941 Y130.959
G1 F2400 X126.163 Y134.181 E25.2018
G0 F2400 X125.569 Y134.181
G1 F2400 X115.817 Y124.429 E25.8641
G0 F2400 X115.817 Y125.023
G1 F2400 X124.975 Y134.181 E26.4860
G0 F2400 X124.381 Y134.181
G1 F2400 X115.817 Y125.617 E27.0676
G0 F2400 X115.817 Y126.211
G1 F2400 X123.787 Y134.181 E27.6088
G0 F2400 X123.193 Y134.181
G1 F2400 X115.817 Y126.805 E28.1097
G0 F2400 X115.817 Y127.399
G1 F2400 X122.599 Y134.181 E28.5703
G0 F2400 X122.005 Y134.181
G1 F2400 X115.817 Y127.993 E28.9905
G0 F2400 X115.817 Y128.587
G1 F2400 X121.411 Y134.181 E29.3704
G0 F2400 X120.817 Y134.181
G1 F2400 X115.817 Y129.181 E29.7099
G0 F2400 X115.817 Y129.775
G1 F2400 X120.223 Y134.181 E30.0092
G0 F2400 X119.629 Y134.181
G1 F2400 X115.817 Y130.369 E30.2680
G0 F2400 X115.817 Y130.963
G1 F2400 X119.035 Y134.181 E30.4866
G0 F2400 X118.441 Y134.181
G1 F2400 X115.817 Y131.557 E30.6648
G0 F2400 X115.817 Y132.151
G1 F2400 X117.847 Y134.181 E30.8026
G0 F2400 X117.253 Y134.181
G1 F2400 X115.817 Y132.745 E30.9001
G1 F2400 E27.9001
G0 F3900 X124.012 Y131.437
G1 F1500 E30.9001
G1 F2400 X126.757 Y134.181 E31.0865
G0 F2400 X127.351 Y134.181
G1 F2400 X124.699 Y131.530 E31.2666
G0 F2400 X125.370 Y131.606
G1 F2400 X127.945 Y134.181 E31.4414
G0 F2400 X128.539 Y134.181
G1 F2400 X125.906 Y131.548 E31.6202
G0 F2400 X126.442 Y131.490
G1 F2400 X129.133 Y134.181 E31.8030
G0 F2400 X129.727 Y134.181
G1 F2400 X126.899 Y131.354 E31.9950
G0 F2400 X127.328 Y131.188
G1 F2400 X130.321 Y134.181 E32.1983
G0 F2400 X130.915 Y134.181
G1 F2400 X127.746 Y131.013 E32.4134
G0 F2400 X128.078 Y130.751
G1 F2400 X131.509 Y134.181 E32.6464
G0 F2400 X132.103 Y134.181
G1 F2400 X128.411 Y130.490 E32.8971
G0 F2400 X128.716 Y130.201
G1 F2400 X132.697 Y134.181 E33.1674
G0 F2400 X133.227 Y134.118
G1 F2400 X128.960 Y129.851 E33.4572
G0 F2400 X129.205 Y129.502
G1 F2400 X133.522 Y133.819 E33.7503
G0 F2400 X133.819 Y133.522
G1 F2400 X129.402 Y129.105 E34.0503
G0 F2400 X129.555 Y128.664
G1 F2400 X134.114 Y133.223 E34.3599
G0 F2400 X134.181 Y132.697
G1 F2400 X129.707 Y128.222 E34.6637
G0 F2400 X129.770 Y127.691
G1 F2400 X134.181 Y132.103 E34.9633
G0 F2400 X134.181 Y131.509
G1 F2400 X129.822 Y127.149 E35.2594
G0 F2400 X129.818 Y126.551
G1 F2400 X134.181 Y130.915 E35.5557
G0 F2400 X134.181 Y130.321
G1 F2400 X129.753 Y125.892 E35.8564
G0 F2400 X129.526 Y125.071
G1 F2400 X134.181 Y129.727 E36.1726
G0 F2400 X134.181 Y129.133
G1 F2400 X128.715 Y123.666 E36.5438
G0 F2400 X128.668 Y123.619
G1 F2400 X127.475 Y122.426 E36.6248
G0 F2400 X127.897 Y122.254
G1 F2400 X134.181 Y128.539 E37.0516
G0 F2400 X134.181 Y127.945
G1 F2400 X128.400 Y122.164 E37.4442
G0 F2400 X128.904 Y122.073
G1 F2400 X134.181 Y127.351 E37.8026
G0 F2400 X134.181 Y126.757
G1 F2400 X129.406 Y121.982 E38.1269
G0 F2400 X129.910 Y121.891
G1 F2400 X134.181 Y126.163 E38.4169
G0 F2400 X134.181 Y125.569
G1 F2400 X129.353 Y120.741 E38.7448
G1 F2400 E35.7448
G0 F3900 X126.366 Y129.106
;TYPE:WALL-OUTER
;WIDTH:0.420
G1 F1500 E38.7448
G1 F2400 X125.260 Y129.395 E38.7997
G1 X124.690 Y129.312 E38.8274
G1 X124.201 Y129.066 E38.8536
G1 X123.409 Y128.045 E38.9157
G1 X123.210 Y127.389 E38.9486
G1 X123.207 Y125.978 E39.0164
G1 X123.387 Y125.510 E39.0404
G1 X124.128 Y124.801 E39.0897
G1 X125.234 Y124.556 E39.1441
G1 X125.843 Y124.623 E39.1735
G1 X126.435 Y124.893 E39.2048
G1 X127.082 Y125.637 E39.2521
G1 X127.263 Y126.205 E39.2807
G1 X127.264 Y127.678 E39.3515
G1 X127.084 Y128.261 E39.3808
G1 X126.366 Y129.106 E39.4340
G0 F3900 X126.132 Y128.733
;TYPE:WALL-INNER
;WIDTH:0.420
G1 F2400 X125.236 Y128.967 E39.4785
G1 X124.818 Y128.906 E39.4988
G1 X124.475 Y128.734 E39.5172
G1 X123.788 Y127.849 E39.5710
G1 X123.630 Y127.326 E39.5972
G1 X123.627 Y126.056 E39.6582
G1 X123.745 Y125.748 E39.6740
G1 X124.334 Y125.186 E39.7131
G1 X125.257 Y124.981 E39.7585
G1 X125.730 Y125.033 E39.7814
G1 X126.178 Y125.237 E39.8050
G1 X126.708 Y125.847 E39.8438
G1 X126.843 Y126.270 E39.8651
G1 X126.844 Y127.615 E39.9297
G1 X126.708 Y128.055 E39.9518
G1 X126.132 Y128.733 E39.9946
G0 F3900 X124.849 Y128.710
;TYPE:SOLID-FILL
;WIDTH:0.420
G1 F2400 X124.165 Y128.026 E40.0410
G0 F2400 X123.907 Y127.174
G1 F2400 X125.387 Y128.653 E40.1415
G0 F2400 X125.908 Y128.581
G1 F2400 X123.851 Y126.524 E40.2812
G0 F2400 X123.902 Y125.981
G1 F2400 X126.238 Y128.317 E40.4398
G0 F2400 X126.510 Y127.995
G1 F2400 X124.173 Y125.658 E40.5985
G0 F2400 X124.462 Y125.353
G1 F2400 X126.652 Y127.542 E40.7472
G0 F2400 X126.607 Y126.904
G1 F2400 X124.996 Y125.293 E40.8566
G0 F2400 X125.530 Y125.233
G1 F2400 X126.562 Y126.265 E40.9267
;PRINTING_TIME: 37
;REMAINING_TIME: 1437
;LAYER:1
;Z:0.800
;HEIGHT:0.300
;FLOW:100.0
;PRINTING: sides_6_standard.stl
;PRINTING_ID: 0
G1 F2400 E37.9267
G0 F300 Z0.800
G0 F3900 X115.208 Y116.286
;TYPE:WALL-OUTER
;WIDTH:0.420
G1 F1500 E40.9267
G1 F2100 X116.294 Y115.208 E41.0069
G1 X133.710 Y115.208 E41.9192
G1 X134.792 Y116.289 E41.9993
G1 X134.792 Y133.707 E42.9117
G1 X133.715 Y134.792 E42.9918
G1 X116.287 Y134.792 E43.9048
G1 X115.208 Y133.713 E43.9847
G1 X115.208 Y116.286 E44.8976
G1 F2400 E41.8976
G0 F3900 X115.474 Y116.428
G0 X127.186 Y118.642
G0 X128.507 Y119.583
G0 X129.490 Y121.662
G0 X127.004 Y122.153
G0 X123.670 Y122.370
G0 X123.422 Y123.384
G0 X123.450 Y123.459
G0 X123.426 Y123.562
G0 X123.081 Y124.004
G1 F1500 E44.8976
G1 F2100 X123.292 Y122.270 E44.9891
G1 X123.653 Y121.421 E45.0375
G1 X124.134 Y120.817 E45.0779
G1 X124.719 Y120.463 E45.1137
G1 X125.416 Y120.345 E45.1508
G1 X126.193 Y120.485 E45.1921
G1 X126.746 Y120.894 E45.2282
G1 X127.196 Y121.763 E45.2794
G1 X129.026 Y121.433 E45.3768
G1 X128.208 Y119.841 E45.4706
G1 X127.036 Y119.005 E45.5460
G1 X125.436 Y118.732 E45.6310
G1 X124.154 Y118.920 E45.6989
G1 X123.077 Y119.488 E45.7627
G1 X122.218 Y120.428 E45.8294
G1 X121.602 Y121.697 E45.9033
G1 X121.237 Y123.267 E45.9877
G1 X121.117 Y125.136 E46.0858
G1 X121.233 Y126.862 E46.1765
G1 X121.585 Y128.306 E46.2543
G1 X122.182 Y129.466 E46.3227
G1 X123.015 Y130.318 E46.3851
G1 X124.067 Y130.831 E46.4464
G1 X125.318 Y130.999 E46.5125
G1 X126.445 Y130.877 E46.5719
G1 X127.406 Y130.506 E46.6258
G1 X128.196 Y129.885 E46.6785
G1 X128.779 Y129.050 E46.7318
G1 X129.126 Y128.044 E46.7876
G1 X129.239 Y126.873 E46.8492
G1 X129.132 Y125.786 E46.9064
G1 X128.803 Y124.846 E46.9586
G1 X128.249 Y124.060 E47.0090
G1 X127.506 Y123.470 E47.0587
G1 X126.609 Y123.117 E47.1092
G1 X125.559 Y123.000 E47.1645
G1 X123.812 Y123.405 E47.2585
G1 X123.081 Y124.004 E47.3080
G1 F2400 E44.3080
G0 F3900 X123.426 Y123.562
G0 X123.450 Y123.459
G0 X123.422 Y123.384
G0 X126.445 Y121.148
G0 X127.004 Y122.153
G0 X129.490 Y121.662
G0 X128.507 Y119.583
G0 X127.438 Y118.822
G0 X115.628 Y116.461
;TYPE:WALL-INNER
;WIDTH:0.420
;FLOW:90.0
G1 F1500 E47.3080
G1 F2400 X116.467 Y115.628 E47.3637
G1 X133.536 Y115.628 E48.1684
G1 X134.372 Y116.463 E48.2242
G1 X134.372 Y133.534 E49.0290
G1 X133.540 Y134.372 E49.0847
G1 X116.461 Y134.372 E49.8899
G1 X115.628 Y133.539 E49.9454
G1 X115.628 Y116.461 E50.7506
G1 F2400 E47.7506
G0 F3900 X127.186 Y118.642
G0 X128.507 Y119.583
G0 X129.490 Y121.662
G0 X123.624 Y123.017
G1 F1500 E50.7506
G1 F2400 X123.702 Y122.380 E50.7808
G1 X124.416 Y121.137 E50.8484
G1 X124.868 Y120.864 E50.8733
G1 X125.414 Y120.771 E50.8994
G1 X126.022 Y120.881 E50.9286
G1 X126.418 Y121.174 E50.9518
G1 X126.966 Y122.231 E51.0079
G1 X129.659 Y121.746 E51.1369
G1 X128.535 Y119.558 E51.2529
G1 X127.202 Y118.607 E51.3301
G1 X125.441 Y118.307 E51.4143
G1 X124.022 Y118.515 E51.4819
G1 X122.816 Y119.151 E51.5462
G1 X121.867 Y120.190 E51.6125
G1 X121.204 Y121.556 E51.6841
G1 X120.820 Y123.206 E51.7640
G1 X120.696 Y125.137 E51.8552
G1 X120.816 Y126.926 E51.9398
G1 X121.189 Y128.454 E52.0139
G1 X121.837 Y129.714 E52.0807
G1 X122.766 Y130.664 E52.1434
G1 X123.944 Y131.238 E52.2051
G1 X125.313 Y131.422 E52.2703
G1 X126.545 Y131.289 E52.3287
G1 X127.616 Y130.875 E52.3828
G1 X128.505 Y130.177 E52.4361
G1 X129.157 Y129.242 E52.4899
G1 X129.539 Y128.134 E52.5451
G1 X129.661 Y126.873 E52.6048
G1 X129.545 Y125.695 E52.6606
G1 X129.180 Y124.652 E52.7127
G1 X128.557 Y123.769 E52.7637
G1 X127.718 Y123.102 E52.8142
