;Sliced by ideaMaker 5.1.1.8450, 2024-11-10 17:14:50 UTC+0100
;Slicer Version: 5.1.1.8450
;Dimension: 250.000 250.000 250.000 0.400
;Plate Shape: 0
;Origin Center: 0
;Extruder Offset #1: 25.000 0.000
;Filament Diameter #1: 1.750
;Filament Diameter #2: 1.750
;Filament Compensation #1: 94.000
;Filament Compensation #2: 90.000
;Filament Density #1: 1240.000
;Filament Density #2: 1240.000
;Filament Type #1: PLA
;Filament Type #2: 
;Filament Name #1: [Raise3D] Premium PLA 1.75mm
;Filament Name #2: 
;Printer Type: floppy
;Firmware: Klipper
;Bounding Box: 82.185 167.815 87.560 162.440 0.000 65.900
;Model Gap: 0.000
M221 T0 S94.00
M140 S50.00
M104 T0 S200.00
M109 T0 S200.00
T0
M190 S50.00
G21 ;metric values
G90 ;absolute positioning
M82 ;set extruder to absolute mode
M107 ;start with the fan off
G28 X0 Y0 ;move X/Y to min endstops
G28 Z0 ;move Z to min endstops
G1 Z15.0 F9000 ;move the platform down 15mm
G92 E0 ;zero the extruded length
G1 F200 E1 ;extrude 1mm of feed stock
G92 E0 ;zero the extruded length again
G0 X12 Y17 F2000
G92 X0 Y0 E0
G0 F9000 Z1
G1 F200 Z0
G1 Z15.0 F9000 ;move the platform down 15mm
G1 F9000
G92 E-3
M117 Printing...
M1001
;TOTAL_NUM: 1
;PRINTING_TIME: 0
;REMAINING_TIME: 9802
;LAYER:0
;Z:0.500
;HEIGHT:0.500
M106 S0
;PRINTING: phone_tablet_stand_shorter_-_32mm_cable.stl
;PRINTING_ID: 0
G1 F2400 E-3.0000
G0 F3900 X161.426 Y118.291
G0 F300 Z0.500
;TYPE:WALL-OUTER
;WIDTH:0.420
;FLOW:55.0
G1 F1500 E0.0000
G1 F2400 X162.202 Y117.674 E0.0476
G1 X163.011 Y117.573 E0.0868
G1 X163.774 Y117.873 E0.1261
G1 X164.304 Y118.508 E0.1658
G1 X164.731 Y120.201 E0.2497
G1 X164.843 Y121.690 E0.3214
G1 X164.735 Y123.183 E0.3933
G1 X164.405 Y124.649 E0.4654
G1 X163.861 Y126.055 E0.5378
G1 X163.122 Y127.352 E0.6095
G1 X162.194 Y128.534 E0.6817
G1 X161.102 Y129.563 E0.7537
G1 X159.434 Y130.666 E0.8497
G1 X158.070 Y131.261 E0.9212
G1 X156.614 Y131.653 E0.9936
G1 X155.123 Y131.823 E1.0657
G1 X153.628 Y131.775 E1.1375
G1 X152.145 Y131.502 E1.2099
G1 X150.724 Y131.015 E1.2820
G1 X149.401 Y130.328 E1.3536
G1 X147.447 Y128.759 E1.4739
G1 X146.202 Y127.195 E1.5699
G1 X126.382 Y92.910 E3.4716
G1 X125.786 Y92.356 E3.5107
G1 X125.200 Y92.110 E3.5412
G1 X124.382 Y92.069 E3.5805
G1 X123.766 Y92.259 E3.6115
G1 X122.895 Y93.068 E3.6685
G1 X86.695 Y155.767 E7.1451
G1 X86.416 Y156.849 E7.1987
G1 X86.696 Y157.848 E7.2486
G1 X87.419 Y158.590 E7.2983
G1 X88.386 Y158.888 E7.3469
G1 X166.078 Y158.899 E11.0776
G1 X167.006 Y159.289 E11.1260
G1 X167.483 Y159.953 E11.1652
G1 X167.587 Y160.767 E11.2046
G1 X167.288 Y161.530 E11.2440
G1 X166.653 Y162.062 E11.2838
G1 X166.005 Y162.227 E11.3159
G1 X86.680 Y162.225 E15.1250
G1 X84.936 Y161.781 E15.2114
G1 X83.674 Y160.875 E15.2860
G1 X82.708 Y159.380 E15.3715
G1 X82.398 Y157.847 E15.4466
G1 X82.563 Y156.526 E15.5105
G1 X83.052 Y155.398 E15.5696
G1 X120.794 Y90.027 E19.1942
G1 X121.636 Y88.969 E19.2592
G1 X122.736 Y88.219 E19.3231
G1 X124.241 Y87.796 E19.3982
G1 X125.795 Y87.910 E19.4730
G1 X127.214 Y88.550 E19.5477
G1 X128.336 Y89.645 E19.6230
G1 X148.840 Y125.109 E21.5901
G1 X149.840 Y126.432 E21.6698
G1 X150.869 Y127.302 E21.7345
G1 X152.667 Y128.180 E21.8305
G1 X154.648 Y128.495 E21.9269
G1 X156.636 Y128.218 E22.0233
G1 X158.454 Y127.374 E22.1195
G1 X160.154 Y125.772 E22.2317
G1 X161.210 Y123.687 E22.3439
G1 X161.506 Y121.698 E22.4405
G1 X161.146 Y119.057 E22.5685
G1 X161.426 Y118.291 E22.6076
G0 F3900 X161.780 Y118.546
;TYPE:WALL-INNER
;WIDTH:0.420
G1 F2400 X162.371 Y118.076 E22.6439
G1 X162.957 Y118.003 E22.6722
G1 X163.520 Y118.225 E22.7013
G1 X163.920 Y118.704 E22.7313
G1 X164.315 Y120.269 E22.8088
G1 X164.422 Y121.691 E22.8772
G1 X164.318 Y123.121 E22.9461
G1 X164.002 Y124.526 E23.0152
G1 X163.481 Y125.874 E23.0846
G1 X162.772 Y127.117 E23.1534
G1 X161.883 Y128.250 E23.2225
G1 X160.840 Y129.233 E23.2913
G1 X159.233 Y130.296 E23.3839
G1 X157.931 Y130.864 E23.4521
G1 X156.535 Y131.239 E23.5215
G1 X155.106 Y131.402 E23.5905
G1 X153.673 Y131.356 E23.6594
G1 X152.252 Y131.095 E23.7288
G1 X150.890 Y130.628 E23.7979
G1 X149.632 Y129.974 E23.8660
G1 X147.746 Y128.461 E23.9821
G1 X146.550 Y126.958 E24.0743
G1 X126.714 Y92.645 E25.9775
G1 X126.017 Y91.998 E26.0232
G1 X125.295 Y91.694 E26.0608
G1 X124.329 Y91.646 E26.1073
G1 X123.550 Y91.886 E26.1464
G1 X122.563 Y92.803 E26.2111
G1 X86.303 Y155.607 E29.6934
G1 X85.981 Y156.854 E29.7553
G1 X86.320 Y158.064 E29.8156
G1 X87.193 Y158.960 E29.8757
G1 X88.323 Y159.308 E29.9325
G1 X165.993 Y159.319 E33.6621
G1 X166.734 Y159.630 E33.7007
G1 X167.080 Y160.112 E33.7292
G1 X167.157 Y160.714 E33.7584
G1 X166.936 Y161.277 E33.7874
G1 X166.457 Y161.679 E33.8174
G1 X165.952 Y161.807 E33.8424
G1 X86.733 Y161.805 E37.6465
G1 X85.116 Y161.394 E37.7266
G1 X83.984 Y160.580 E37.7936
G1 X83.104 Y159.219 E37.8714
G1 X82.823 Y157.831 E37.9394
G1 X82.972 Y156.638 E37.9971
G1 X83.428 Y155.587 E38.0521
G1 X121.142 Y90.264 E41.6742
G1 X121.925 Y89.280 E41.7345
G1 X122.916 Y88.605 E41.7921
G1 X124.284 Y88.220 E41.8604
G1 X125.690 Y88.323 E41.9281
G1 X126.974 Y88.902 E41.9957
G1 X128.001 Y89.905 E42.0646
G1 X148.489 Y125.342 E44.0302
G1 X149.533 Y126.723 E44.1133
G1 X150.638 Y127.656 E44.1828
G1 X152.539 Y128.585 E44.2844
G1 X154.644 Y128.920 E44.3867
G1 X156.756 Y128.625 E44.4891
G1 X158.693 Y127.726 E44.5917
G1 X160.495 Y126.027 E44.7106
G1 X161.615 Y123.816 E44.8296
G1 X161.930 Y121.701 E44.9323
G1 X161.576 Y119.103 E45.0582
G1 X161.780 Y118.546 E45.0867
G0 F3900 X163.111 Y118.267
;TYPE:SOLID-FILL
;WIDTH:0.420
G1 F2400 X163.783 Y118.938 E45.1323
G0 F2400 X163.984 Y119.733
G1 F2400 X162.501 Y118.250 E45.2330
G0 F2400 X162.150 Y118.493
G1 F2400 X164.141 Y120.484 E45.3682
G0 F2400 X164.189 Y121.126
G1 F2400 X161.880 Y118.817 E45.5250
G0 F2400 X161.795 Y119.327
G1 F2400 X164.227 Y121.758 E45.6902
G0 F2400 X164.187 Y122.312
G1 F2400 X161.889 Y120.015 E45.8462
G0 F2400 X161.984 Y120.703
G1 F2400 X164.147 Y122.866 E45.9931
G0 F2400 X164.066 Y123.379
G1 F2400 X162.077 Y121.390 E46.1281
G0 F2400 X162.078 Y121.985
G1 F2400 X163.957 Y123.864 E46.2557
G0 F2400 X163.847 Y124.348
G1 F2400 X162.000 Y122.502 E46.3811
G0 F2400 X161.923 Y123.018
G1 F2400 X163.696 Y124.791 E46.5015
G0 F2400 X163.531 Y125.220
G1 F2400 X161.846 Y123.535 E46.6160
G0 F2400 X161.727 Y124.010
G1 F2400 X163.365 Y125.648 E46.7272
G0 F2400 X163.166 Y126.043
G1 F2400 X161.527 Y124.404 E46.8385
G0 F2400 X161.327 Y124.798
G1 F2400 X162.950 Y126.421 E46.9487
G0 F2400 X162.734 Y126.799
G1 F2400 X161.128 Y125.193 E47.0578
G0 F2400 X160.928 Y125.587
G1 F2400 X162.499 Y127.158 E47.1645
G0 F2400 X162.238 Y127.491
G1 F2400 X160.728 Y125.981 E47.2670
G0 F2400 X160.467 Y126.314
G1 F2400 X161.977 Y127.824 E47.3696
G0 F2400 X161.711 Y128.151
G1 F2400 X160.161 Y126.602 E47.4748
G0 F2400 X159.855 Y126.890
G1 F2400 X161.405 Y128.440 E47.5800
G0 F2400 X161.099 Y128.728
G1 F2400 X159.550 Y127.178 E47.6853
G0 F2400 X159.243 Y127.466
G1 F2400 X160.793 Y129.015 E47.7905
G0 F2400 X160.448 Y129.264
G1 F2400 X158.938 Y127.755 E47.8930
G0 F2400 X158.577 Y127.988
G1 F2400 X160.091 Y129.501 E47.9958
G0 F2400 X159.733 Y129.737
G1 F2400 X158.172 Y128.176 E48.1018
G0 F2400 X157.766 Y128.364
G1 F2400 X159.376 Y129.974 E48.2111
G0 F2400 X158.999 Y130.191
G1 F2400 X157.360 Y128.553 E48.3224
G0 F2400 X156.955 Y128.741
G1 F2400 X158.584 Y130.371 E48.4331
G0 F2400 X158.171 Y130.551
G1 F2400 X156.474 Y128.855 E48.5483
G0 F2400 X155.953 Y128.928
G1 F2400 X157.743 Y130.717 E48.6698
G0 F2400 X157.275 Y130.843
G1 F2400 X155.432 Y129.001 E48.7949
G0 F2400 X154.910 Y129.073
G1 F2400 X156.807 Y130.969 E48.9237
G0 F2400 X156.317 Y131.073
G1 F2400 X154.299 Y129.056 E49.0607
G0 F2400 X153.593 Y128.943
G1 F2400 X155.784 Y131.134 E49.2095
G0 F2400 X155.250 Y131.195
G1 F2400 X152.886 Y128.830 E49.3701
G0 F2400 X151.986 Y128.525
G1 F2400 X154.660 Y131.198 E49.5516
G0 F2400 X154.046 Y131.178
G1 F2400 X150.826 Y127.958 E49.7703
G0 F3900 X149.626 Y129.728
G1 F2400 X146.647 Y126.749 E49.9726
G0 F2400 X145.833 Y125.341
G1 F2400 X150.922 Y130.430 E50.3182
G0 F2400 X151.838 Y130.752
G1 F2400 X145.019 Y123.933 E50.7813
G0 F2400 X144.205 Y122.526
G1 F2400 X152.656 Y130.976 E51.3551
G0 F2400 X153.384 Y131.111
G1 F2400 X143.392 Y121.118 E52.0337
G0 F2400 X142.578 Y119.710
G1 F2400 X148.382 Y125.514 E52.4279
G0 F2400 X147.539 Y124.077
G1 F2400 X141.764 Y118.302 E52.8200
G0 F2400 X140.950 Y116.894
G1 F2400 X146.725 Y122.669 E53.2122
G0 F2400 X145.911 Y121.261
G1 F2400 X140.135 Y115.486 E53.6044
G0 F2400 X139.321 Y114.078
G1 F2400 X145.097 Y119.853 E53.9966
G0 F2400 X144.283 Y118.446
G1 F2400 X138.508 Y112.670 E54.3889
G0 F2400 X137.694 Y111.262
G1 F2400 X143.469 Y117.038 E54.7811
G0 F2400 X142.655 Y115.629
G1 F2400 X136.880 Y109.854 E55.1732
G0 F2400 X136.066 Y108.446
G1 F2400 X141.841 Y114.221 E55.5654
G0 F2400 X141.027 Y112.813
G1 F2400 X135.252 Y107.038 E55.9576
G0 F2400 X134.438 Y105.631
G1 F2400 X140.213 Y111.406 E56.3498
G0 F2400 X139.399 Y109.998
G1 F2400 X133.624 Y104.223 E56.7420
G0 F2400 X132.810 Y102.815
G1 F2400 X138.585 Y108.590 E57.1341
G0 F2400 X137.771 Y107.182
G1 F2400 X131.996 Y101.406 E57.5263
G0 F2400 X131.182 Y99.999
G1 F2400 X136.958 Y105.774 E57.9186
G0 F2400 X136.143 Y104.366
G1 F2400 X130.368 Y98.591 E58.3107
G0 F2400 X129.554 Y97.183
G1 F2400 X135.329 Y102.958 E58.7029
G0 F2400 X134.515 Y101.550
G1 F2400 X128.740 Y95.775 E59.0951
G0 F2400 X127.926 Y94.367
G1 F2400 X133.701 Y100.142 E59.4873
G0 F2400 X132.887 Y98.734
G1 F2400 X127.113 Y92.959 E59.8794
G0 F3900 X125.893 Y91.740
G1 F2400 X122.958 Y88.805 E60.0787
G0 F2400 X122.605 Y89.045
G1 F2400 X125.051 Y91.491 E60.2448
G0 F2400 X124.426 Y91.460
G1 F2400 X122.252 Y89.287 E60.3924
G0 F2400 X121.938 Y89.567
G1 F2400 X123.938 Y91.567 E60.5283
G0 F2400 X123.484 Y91.707
G1 F2400 X121.674 Y89.897 E60.6512
G0 F2400 X121.411 Y90.228
G1 F2400 X123.165 Y91.982 E60.7703
G0 F2400 X122.858 Y92.268
G1 F2400 X121.174 Y90.585 E60.8846
G0 F2400 X120.956 Y90.961
G1 F2400 X122.550 Y92.554 E60.9928
G0 F2400 X122.293 Y92.891
G1 F2400 X120.739 Y91.338 E61.0983
G0 F2400 X120.522 Y91.714
G1 F2400 X122.076 Y93.268 E61.2039
G0 F2400 X121.858 Y93.644
G1 F2400 X120.305 Y92.091 E61.3093
G0 F2400 X120.087 Y92.467
G1 F2400 X121.641 Y94.021 E61.4149
G0 F2400 X121.423 Y94.398
G1 F2400 X119.870 Y92.844 E61.5203
G0 F2400 X119.652 Y93.220
G1 F2400 X121.206 Y94.774 E61.6259
G0 F2400 X120.988 Y95.151
G1 F2400 X119.435 Y93.597 E61.7314
G0 F2400 X119.217 Y93.973
G1 F2400 X120.771 Y95.528 E61.8369
G0 F2400 X120.554 Y95.904
G1 F2400 X119.000 Y94.350 E61.9425
G0 F2400 X118.782 Y94.726
G1 F2400 X120.336 Y96.281 E62.0480
G0 F2400 X120.119 Y96.657
G1 F2400 X118.565 Y95.103 E62.1536
G0 F2400 X118.348 Y95.480
G1 F2400 X119.901 Y97.034 E62.2591
G0 F2400 X119.684 Y97.411
G1 F2400 X118.130 Y95.856 E62.3646
G0 F2400 X117.913 Y96.233
G1 F2400 X119.467 Y97.787 E62.4702
G0 F2400 X119.250 Y98.164
G1 F2400 X117.695 Y96.609 E62.5758
G0 F2400 X117.478 Y96.986
G1 F2400 X119.032 Y98.540 E62.6813
G0 F2400 X118.815 Y98.917
G1 F2400 X117.260 Y97.362 E62.7869
G0 F2400 X117.043 Y97.739
G1 F2400 X118.597 Y99.293 E62.8924
G0 F2400 X118.380 Y99.670
G1 F2400 X116.826 Y98.116 E62.9980
G0 F2400 X116.608 Y98.492
G1 F2400 X118.162 Y100.046 E63.1035
G0 F2400 X117.945 Y100.423
G1 F2400 X116.391 Y98.869 E63.2090
G0 F2400 X116.174 Y99.245
G1 F2400 X117.728 Y100.800 E63.3146
G0 F2400 X117.510 Y101.176
G1 F2400 X115.956 Y99.622 E63.4201
G0 F2400 X115.739 Y99.999
G1 F2400 X117.293 Y101.553 E63.5257
G0 F2400 X117.075 Y101.929
G1 F2400 X115.522 Y100.375 E63.6311
G0 F2400 X115.304 Y100.752
G1 F2400 X116.858 Y102.306 E63.7367
G0 F2400 X116.640 Y102.682
G1 F2400 X115.087 Y101.128 E63.8422
G0 F2400 X114.869 Y101.505
G1 F2400 X116.423 Y103.059 E63.9477
G0 F2400 X116.205 Y103.435
G1 F2400 X114.652 Y101.882 E64.0532
G0 F2400 X114.434 Y102.258
G1 F2400 X115.988 Y103.812 E64.1587
G0 F2400 X115.771 Y104.188
G1 F2400 X114.217 Y102.635 E64.2642
G0 F2400 X113.999 Y103.011
G1 F2400 X115.553 Y104.565 E64.3697
G0 F2400 X115.336 Y104.941
G1 F2400 X113.782 Y103.388 E64.4752
G0 F2400 X113.564 Y103.764
G1 F2400 X115.119 Y105.318 E64.5808
G0 F2400 X114.902 Y105.695
G1 F2400 X113.347 Y104.141 E64.6864
G0 F2400 X113.130 Y104.518
G1 F2400 X114.684 Y106.071 E64.7919
G0 F2400 X114.467 Y106.448
G1 F2400 X112.912 Y104.894 E64.8974
G0 F2400 X112.695 Y105.271
G1 F2400 X114.249 Y106.824 E65.0029
G0 F2400 X114.032 Y107.201
G1 F2400 X112.478 Y105.647 E65.1085
G0 F2400 X112.260 Y106.024
G1 F2400 X113.814 Y107.577 E65.2140
G0 F2400 X113.597 Y107.954
G1 F2400 X112.043 Y106.400 E65.3195
G0 F2400 X111.826 Y106.777
G1 F2400 X113.379 Y108.330 E65.4249
G0 F2400 X113.162 Y108.707
G1 F2400 X111.608 Y107.153 E65.5305
G0 F2400 X111.391 Y107.530
G1 F2400 X112.944 Y109.083 E65.6359
G0 F2400 X112.727 Y109.460
G1 F2400 X111.173 Y107.906 E65.7415
G0 F2400 X110.956 Y108.283
G1 F2400 X112.509 Y109.837 E65.8470
G0 F2400 X112.292 Y110.213
G1 F2400 X110.738 Y108.659 E65.9525
G0 F2400 X110.521 Y109.036
G1 F2400 X112.075 Y110.590 E66.0580
G0 F2400 X111.857 Y110.966
G1 F2400 X110.304 Y109.413 E66.1635
G0 F2400 X110.086 Y109.789
G1 F2400 X111.640 Y111.343 E66.2690
G0 F2400 X111.423 Y111.720
G1 F2400 X109.869 Y110.166 E66.3746
G0 F2400 X109.651 Y110.542
G1 F2400 X111.205 Y112.096 E66.4801
G0 F2400 X110.988 Y112.473
G1 F2400 X109.434 Y110.919 E66.5856
G0 F2400 X109.216 Y111.295
G1 F2400 X110.771 Y112.849 E66.6912
G0 F2400 X110.553 Y113.226
G1 F2400 X108.999 Y111.672 E66.7967
G0 F2400 X108.782 Y112.048
G1 F2400 X110.336 Y113.603 E66.9023
G0 F2400 X110.118 Y113.979
G1 F2400 X108.564 Y112.425 E67.0078
G0 F2400 X108.347 Y112.801
G1 F2400 X109.901 Y114.356 E67.1134
G0 F2400 X109.683 Y114.732
G1 F2400 X108.130 Y113.178 E67.2189
G0 F2400 X107.912 Y113.554
G1 F2400 X109.466 Y115.109 E67.3244
G0 F2400 X109.249 Y115.486
G1 F2400 X107.695 Y113.931 E67.4300
G0 F2400 X107.478 Y114.308
G1 F2400 X109.031 Y115.862 E67.5355
G0 F2400 X108.814 Y116.239
G1 F2400 X107.260 Y114.684 E67.6411
G0 F2400 X107.043 Y115.061
G1 F2400 X108.596 Y116.615 E67.7466
G0 F2400 X108.379 Y116.992
G1 F2400 X106.825 Y115.438 E67.8521
G0 F2400 X106.608 Y115.814
G1 F2400 X108.161 Y117.368 E67.9576
G0 F2400 X107.944 Y117.745
G1 F2400 X106.390 Y116.191 E68.0631
G0 F2400 X106.173 Y116.567
G1 F2400 X107.727 Y118.121 E68.1687
G0 F2400 X107.509 Y118.498
G1 F2400 X105.955 Y116.944 E68.2742
G0 F2400 X105.738 Y117.321
G1 F2400 X107.292 Y118.874 E68.3797
G0 F2400 X107.075 Y119.251
G1 F2400 X105.520 Y117.697 E68.4853
G0 F2400 X105.303 Y118.074
G1 F2400 X106.857 Y119.628 E68.5908
G0 F2400 X106.640 Y120.004
G1 F2400 X105.085 Y118.450 E68.6964
G0 F2400 X104.868 Y118.827
G1 F2400 X106.423 Y120.381 E68.8019
G0 F2400 X106.205 Y120.757
G1 F2400 X104.651 Y119.204 E68.9074
G0 F2400 X104.434 Y119.580
G1 F2400 X105.988 Y121.134 E69.0129
G0 F2400 X105.770 Y121.510
G1 F2400 X104.216 Y119.957 E69.1184
G0 F2400 X103.999 Y120.333
G1 F2400 X105.553 Y121.887 E69.2240
G0 F2400 X105.335 Y122.263
G1 F2400 X103.782 Y120.710 E69.3294
G0 F2400 X103.564 Y121.086
G1 F2400 X105.118 Y122.640 E69.4350
G0 F2400 X104.900 Y123.016
G1 F2400 X103.347 Y121.463 E69.5404
G0 F2400 X103.129 Y121.839
G1 F2400 X104.683 Y123.393 E69.6460
G0 F2400 X104.465 Y123.769
G1 F2400 X102.912 Y122.216 E69.7514
G0 F2400 X102.694 Y122.592
G1 F2400 X104.248 Y124.146 E69.8570
G0 F2400 X104.031 Y124.523
G1 F2400 X102.477 Y122.969 E69.9625
G0 F2400 X102.259 Y123.345
G1 F2400 X103.813 Y124.899 E70.0680
G0 F2400 X103.596 Y125.276
G1 F2400 X102.042 Y123.722 E70.1736
G0 F2400 X101.825 Y124.099
G1 F2400 X103.379 Y125.652 E70.2791
G0 F2400 X103.161 Y126.029
G1 F2400 X101.607 Y124.475 E70.3846
G0 F2400 X101.390 Y124.852
G1 F2400 X102.944 Y126.405 E70.4901
G0 F2400 X102.727 Y126.782
G1 F2400 X101.172 Y125.228 E70.5956
G0 F2400 X100.955 Y125.605
G1 F2400 X102.509 Y127.159 E70.7012
G0 F2400 X102.292 Y127.535
G1 F2400 X100.737 Y125.981 E70.8067
G0 F2400 X100.520 Y126.358
G1 F2400 X102.074 Y127.912 E70.9123
G0 F2400 X101.857 Y128.288
G1 F2400 X100.303 Y126.734 E71.0178
G0 F2400 X100.086 Y127.111
G1 F2400 X101.639 Y128.665 E71.1233
G0 F2400 X101.422 Y129.042
G1 F2400 X99.868 Y127.487 E71.2289
G0 F2400 X99.651 Y127.864
G1 F2400 X101.205 Y129.418 E71.3344
