;Sliced by ideaMaker 5.2.3.8580, 2025-04-27 11:39:34 UTC+0200
;Slicer Version: 5.2.3.8580
;Dimension: 250.000 250.000 250.000 0.400
;Plate Shape: 0
;Origin Center: 0
;Extruder Offset #1: 25.000 0.000
;Filament Diameter #1: 1.750
;Filament Diameter #2: 1.750
;Filament Compensation #1: 94.000
;Filament Compensation #2: 90.000
;Filament Density #1: 1240.000
;Filament Density #2: 1240.000
;Filament Type #1: PLA
;Filament Type #2: PLA
;Filament Name #1: [Raise3D] Premium PLA 1.75mm
;Filament Name #2: [Raise3D] Premium PLA 1.75mm
;Filament #1: PLA 1.75mm
;Filament #2: PLA 1.75mm
;Printer Type: floppy
;Firmware: Klipper
;Bounding Box: 31.302 218.701 31.277 218.697 0.000 0.600
;Model Gap: 0.000
M221 T0 S94.00
M140 S50.00
M104 T0 S190.00
M109 T0 S190.00
T0
M190 S50.00
G21 ;metric values
G90 ;absolute positioning
M82 ;set extruder to absolute mode
M107 ;start with the fan off
G28 X0 Y0 ;move X/Y to min endstops
G28 Z0 ;move Z to min endstops
G1 Z15.0 F9000 ;move the platform down 15mm
G92 E0 ;zero the extruded length
G0 X43 Y27 F2000  ;go to the edge of the bed
G92 X0 Y0 E0 ;set zero to edge of the bed
G0 F9000 Z1 ;Z up with 1mm
G1 F200 Z0 ;Z home slowly
G1 Z15.0 F9000 ;move the platform down 15mm
G1 F9000 ;speed setting
G92 E-3 ;retraction
M117 Printing...
M1001
;TOTAL_NUM: 1
;PRINTING_TIME: 0
;REMAINING_TIME: 3500
;LAYER:0
;Z:0.300
;HEIGHT:0.300
;PRINTING: NON-OBJECT
;PRINTING_ID: -1
G1 F2400 E-3.0000
G0 F3900 X31.302 Y86.283
G0 F300 Z0.300
;TYPE:SKIRT
;WIDTH:0.420
G1 F1500 E0.0000
G1 F900 X86.292 Y31.300 E4.0736
G1 X163.305 Y31.277 E8.1079
G1 X165.089 Y32.188 E8.2128
G1 X218.701 Y86.318 E12.2038
G1 X218.635 Y163.863 E16.2660
G1 X163.859 Y218.641 E20.3240
G1 X86.300 Y218.697 E24.3869
G1 X31.363 Y163.854 E28.4534
G1 X31.302 Y86.283 E32.5169
G0 F3900 X31.690 Y86.443
G1 F900 X86.453 Y31.688 E36.5736
G1 X163.305 Y31.697 E40.5995
G1 X164.791 Y32.484 E40.6876
G1 X218.313 Y86.478 E44.6702
G1 X218.247 Y163.703 E48.7156
G1 X163.698 Y218.253 E52.7568
G1 X86.460 Y218.309 E56.8029
G1 X31.751 Y163.692 E60.8525
G1 X31.690 Y86.443 E64.8991
G0 F3900 X32.078 Y86.603
G1 F900 X86.614 Y32.076 E68.9390
G1 X163.113 Y32.070 E72.9464
G1 X164.493 Y32.780 E73.0277
G1 X217.925 Y86.638 E77.0019
G1 X217.859 Y163.543 E81.0306
G1 X163.537 Y217.865 E85.0549
G1 X86.620 Y217.921 E89.0842
G1 X32.139 Y163.530 E93.1170
G1 X32.078 Y86.603 E97.1468
G0 F3900 X32.466 Y86.763
G1 F900 X86.775 Y32.464 E101.1698
G1 X162.926 Y32.446 E105.1589
G1 X164.195 Y33.076 E105.2332
G1 X217.537 Y86.798 E109.1990
G1 X217.471 Y163.383 E113.2109
G1 X163.376 Y217.477 E117.2184
G1 X86.780 Y217.533 E121.2308
G1 X32.527 Y163.368 E125.2468
G1 X32.466 Y86.763 E129.2597
G0 F3900 X32.854 Y86.923
G1 F900 X86.936 Y32.852 E133.2659
G1 X162.746 Y32.825 E137.2372
G1 X163.897 Y33.372 E137.3039
G1 X217.149 Y86.958 E141.2614
G1 X217.083 Y163.223 E145.2565
G1 X163.215 Y217.089 E149.2472
G1 X86.940 Y217.145 E153.2428
G1 X32.915 Y163.206 E157.2420
G1 X32.854 Y86.923 E161.2380
G0 F3900 X33.242 Y87.083
G1 F900 X87.097 Y33.240 E165.2273
G1 X162.746 Y33.245 E169.1902
G1 X163.599 Y33.668 E169.2401
G1 X216.761 Y87.118 E173.1892
G1 X216.695 Y163.063 E177.1675
G1 X163.054 Y216.701 E181.1413
G1 X87.100 Y216.757 E185.1201
G1 X33.303 Y163.044 E189.1025
G1 X33.242 Y87.083 E193.0817
G0 F3900 X33.630 Y87.243
G1 F900 X87.258 Y33.628 E197.0541
G1 X162.570 Y33.626 E200.9993
G1 X163.301 Y33.964 E201.0415
G1 X216.373 Y87.279 E204.9823
G1 X216.307 Y162.903 E208.9438
G1 X162.893 Y216.313 E212.9007
G1 X87.260 Y216.369 E216.8628
G1 X33.691 Y162.882 E220.8283
G1 X33.630 Y87.243 E224.7906
G0 F3900 X34.018 Y87.403
G1 F900 X87.419 Y34.016 E228.7462
G1 X162.409 Y34.014 E232.6745
G1 X163.003 Y34.260 E232.7082
G1 X215.985 Y87.440 E236.6406
G1 X215.919 Y162.743 E240.5854
G1 X162.732 Y215.925 E244.5254
G1 X87.420 Y215.981 E248.4706
G1 X34.079 Y162.720 E252.4193
G1 X34.018 Y87.403 E256.3648
G0 F3900 X34.406 Y87.563
G1 F900 X87.580 Y34.404 E260.3035
G1 X162.409 Y34.434 E264.2234
G1 X162.706 Y34.557 E264.2403
G1 X215.597 Y87.601 E268.1643
G1 X215.531 Y162.583 E272.0922
G1 X162.571 Y215.537 E276.0154
G1 X87.580 Y215.593 E279.9438
G1 X34.467 Y162.558 E283.8757
G1 X34.406 Y87.563 E287.8043
G0 F3900 X34.794 Y87.723
G1 F900 X87.741 Y34.792 E291.7262
G1 X162.409 Y34.854 E295.6376
G1 X215.209 Y87.762 E299.5532
G1 X215.143 Y162.423 E303.4643
G1 X162.410 Y215.149 E307.3707
G1 X87.740 Y215.205 E311.2823
G1 X34.855 Y162.396 E315.1973
G1 X34.794 Y87.723 E319.1091
;PRINTING: First_Layer_Test.stl
;PRINTING_ID: 0
G1 F2400 E316.1091
G0 F3900 X35.214 Y87.810
;TYPE:WALL-OUTER
;WIDTH:0.420
G1 F1500 E319.1091
G1 F2400 X87.827 Y35.212 E323.0062
G1 X162.173 Y35.212 E326.9008
G1 X214.789 Y87.848 E330.7995
G1 X214.785 Y162.187 E334.6938
G1 X162.175 Y214.790 E338.5910
G1 X87.827 Y214.785 E342.4857
G1 X35.214 Y162.161 E346.3839
G1 X35.214 Y87.810 E350.2787
G0 F3900 X35.634 Y87.984
;TYPE:WALL-INNER
;WIDTH:0.420
G1 F2400 X88.001 Y35.632 E354.1577
G1 X161.999 Y35.632 E358.0340
G1 X214.369 Y88.022 E361.9145
G1 X214.365 Y162.013 E365.7905
G1 X162.001 Y214.370 E369.6696
G1 X88.001 Y214.365 E373.5460
G1 X35.634 Y161.987 E377.4259
G1 X35.634 Y87.984 E381.3026
G1 F2400 E378.3026
G0 F3900 X35.711 Y88.047
G0 X35.822 Y161.447
;TYPE:SOLID-FILL
;WIDTH:0.420
G1 F1500 E381.3026
G1 F2400 X88.550 Y214.175 E385.2088
G0 F2400 X89.144 Y214.175
G1 F2400 X35.822 Y160.853 E389.1591
G0 F2400 X35.822 Y160.259
G1 F2400 X89.738 Y214.175 E393.1534
G0 F2400 X90.332 Y214.175
G1 F2400 X35.822 Y159.665 E397.1916
G0 F2400 X35.822 Y159.071
G1 F2400 X90.926 Y214.175 E401.2739
G0 F2400 X91.520 Y214.175
G1 F2400 X35.822 Y158.477 E405.4002
G0 F2400 X35.822 Y157.883
G1 F2400 X92.114 Y214.175 E409.5705
G0 F2400 X92.708 Y214.175
G1 F2400 X35.822 Y157.289 E413.7848
G0 F2400 X35.822 Y156.695
G1 F2400 X93.302 Y214.175 E418.0431
G0 F2400 X93.896 Y214.175
G1 F2400 X35.822 Y156.101 E422.3454
G0 F2400 X35.822 Y155.507
G1 F2400 X94.490 Y214.175 E426.6917
G0 F2400 X95.084 Y214.175
G1 F2400 X35.822 Y154.913 E431.0820
G0 F2400 X35.822 Y154.319
G1 F2400 X95.678 Y214.175 E435.5163
G0 F2400 X96.272 Y214.175
G1 F2400 X35.822 Y153.725 E439.9947
G0 F2400 X35.822 Y153.131
G1 F2400 X96.866 Y214.175 E444.5170
G0 F2400 X97.460 Y214.175
G1 F2400 X35.822 Y152.537 E449.0833
G0 F2400 X35.822 Y151.943
G1 F2400 X98.054 Y214.175 E453.6937
G0 F2400 X98.648 Y214.175
G1 F2400 X35.822 Y151.349 E458.3480
G0 F2400 X35.822 Y150.755
G1 F2400 X99.242 Y214.175 E463.0464
G0 F2400 X99.836 Y214.175
G1 F2400 X35.822 Y150.161 E467.7887
G0 F2400 X35.822 Y149.567
G1 F2400 X100.431 Y214.176 E472.5752
G0 F2400 X101.025 Y214.176
G1 F2400 X35.822 Y148.973 E477.4056
G0 F2400 X35.822 Y148.379
G1 F2400 X101.619 Y214.176 E482.2801
G0 F2400 X102.212 Y214.176
G1 F2400 X35.822 Y147.786 E487.1985
G0 F2400 X35.822 Y147.192
G1 F2400 X102.806 Y214.176 E492.1609
G0 F2400 X103.400 Y214.176
G1 F2400 X35.822 Y146.598 E497.1672
G0 F2400 X35.822 Y146.004
G1 F2400 X103.994 Y214.176 E502.2176
G0 F2400 X104.588 Y214.176
G1 F2400 X35.822 Y145.410 E507.3120
G0 F2400 X35.822 Y144.816
G1 F2400 X105.182 Y214.176 E512.4505
G0 F2400 X105.776 Y214.176
G1 F2400 X35.822 Y144.222 E517.6329
G0 F2400 X35.822 Y143.628
G1 F2400 X106.370 Y214.176 E522.8593
G0 F2400 X106.964 Y214.176
G1 F2400 X35.822 Y143.034 E528.1297
G0 F2400 X35.822 Y142.440
G1 F2400 X107.558 Y214.176 E533.4441
G0 F2400 X108.152 Y214.176
G1 F2400 X35.822 Y141.846 E538.8026
G0 F2400 X35.822 Y141.252
G1 F2400 X108.746 Y214.176 E544.2050
G0 F2400 X109.340 Y214.176
G1 F2400 X35.822 Y140.658 E549.6515
G0 F2400 X35.822 Y140.064
G1 F2400 X109.934 Y214.176 E555.1419
G0 F2400 X110.528 Y214.176
G1 F2400 X35.822 Y139.470 E560.6764
G0 F2400 X35.822 Y138.876
G1 F2400 X111.122 Y214.176 E566.2548
G0 F2400 X111.716 Y214.176
G1 F2400 X35.822 Y138.282 E571.8773
G0 F2400 X35.822 Y137.688
G1 F2400 X112.310 Y214.176 E577.5438
G0 F2400 X112.905 Y214.176
G1 F2400 X35.822 Y137.094 E583.2543
G0 F2400 X35.822 Y136.500
G1 F2400 X113.499 Y214.176 E589.0088
G0 F2400 X114.093 Y214.176
G1 F2400 X35.822 Y135.906 E594.8073
G0 F2400 X35.822 Y135.312
G1 F2400 X114.687 Y214.176 E600.6499
G0 F2400 X115.281 Y214.176
G1 F2400 X35.822 Y134.718 E606.5364
G0 F2400 X35.822 Y134.124
G1 F2400 X115.875 Y214.176 E612.4670
G0 F2400 X116.468 Y214.176
G1 F2400 X35.822 Y133.530 E618.4415
G0 F2400 X35.822 Y132.936
G1 F2400 X117.062 Y214.176 E624.4600
G0 F2400 X117.656 Y214.176
G1 F2400 X35.822 Y132.342 E630.5225
G0 F2400 X35.822 Y131.748
G1 F2400 X118.250 Y214.176 E636.6290
G0 F2400 X118.844 Y214.176
G1 F2400 X35.822 Y131.154 E642.7796
G0 F2400 X35.822 Y130.560
G1 F2400 X119.438 Y214.176 E648.9741
G0 F2400 X120.032 Y214.176
G1 F2400 X35.822 Y129.966 E655.2126
G0 F2400 X35.822 Y129.372
G1 F2400 X120.626 Y214.176 E661.4952
G0 F2400 X121.220 Y214.176
G1 F2400 X35.822 Y128.778 E667.8218
G0 F2400 X35.822 Y128.185
G1 F2400 X121.814 Y214.176 E674.1923
G0 F2400 X122.408 Y214.176
G1 F2400 X35.822 Y127.591 E680.6068
G0 F2400 X35.822 Y126.997
G1 F2400 X123.002 Y214.176 E687.0653
G0 F2400 X123.596 Y214.176
G1 F2400 X35.822 Y126.403 E693.5679
G0 F2400 X35.822 Y125.809
G1 F2400 X124.190 Y214.176 E700.1144
G0 F2400 X124.784 Y214.176
G1 F2400 X35.822 Y125.215 E706.7050
G0 F2400 X35.822 Y124.621
G1 F2400 X125.379 Y214.177 E713.3396
G0 F2400 X125.973 Y214.177
G1 F2400 X35.822 Y124.027 E720.0182
G0 F2400 X35.822 Y123.433
G1 F2400 X126.567 Y214.177 E726.7409
G0 F2400 X127.161 Y214.177
G1 F2400 X35.822 Y122.839 E733.5075
G0 F2400 X35.822 Y122.245
G1 F2400 X127.755 Y214.177 E740.3182
G0 F2400 X128.349 Y214.177
G1 F2400 X35.822 Y121.651 E747.1728
G0 F2400 X35.822 Y121.057
G1 F2400 X128.943 Y214.177 E754.0715
G0 F2400 X129.537 Y214.177
G1 F2400 X35.822 Y120.463 E761.0142
G0 F2400 X35.822 Y119.869
G1 F2400 X130.130 Y214.177 E768.0008
G0 F2400 X130.724 Y214.177
G1 F2400 X35.822 Y119.275 E775.0314
G0 F2400 X35.822 Y118.681
G1 F2400 X131.318 Y214.177 E782.1061
G0 F2400 X131.912 Y214.177
G1 F2400 X35.822 Y118.087 E789.2247
G0 F2400 X35.822 Y117.493
G1 F2400 X132.506 Y214.177 E796.3874
G0 F2400 X133.100 Y214.177
G1 F2400 X35.822 Y116.899 E803.5941
G0 F2400 X35.822 Y116.305
G1 F2400 X133.694 Y214.177 E810.8447
G0 F2400 X134.288 Y214.177
G1 F2400 X35.822 Y115.711 E818.1394
G0 F2400 X35.822 Y115.117
G1 F2400 X134.882 Y214.177 E825.4781
G0 F2400 X135.476 Y214.177
G1 F2400 X35.822 Y114.523 E832.8608
G0 F2400 X35.822 Y113.929
G1 F2400 X136.070 Y214.177 E840.2875
G0 F2400 X136.664 Y214.177
G1 F2400 X35.822 Y113.335 E847.7581
G0 F2400 X35.822 Y112.741
G1 F2400 X137.258 Y214.177 E855.2728
G0 F2400 X137.853 Y214.178
G1 F2400 X35.822 Y112.147 E862.8316
G0 F2400 X35.822 Y111.553
G1 F2400 X138.447 Y214.178 E870.4344
G0 F2400 X139.041 Y214.178
G1 F2400 X35.822 Y110.959 E878.0812
G0 F2400 X35.822 Y110.365
G1 F2400 X139.635 Y214.178 E885.7720
G0 F2400 X140.229 Y214.178
G1 F2400 X35.822 Y109.771 E893.5068
G0 F2400 X35.822 Y109.177
G1 F2400 X140.823 Y214.178 E901.2856
G0 F2400 X141.417 Y214.178
G1 F2400 X35.822 Y108.584 E909.1084
G0 F2400 X35.822 Y107.990
G1 F2400 X142.011 Y214.178 E916.9752
G0 F2400 X142.605 Y214.178
G1 F2400 X35.822 Y107.396 E924.8859
G0 F2400 X35.822 Y106.802
G1 F2400 X143.199 Y214.178 E932.8407
G0 F2400 X143.792 Y214.178
G1 F2400 X35.822 Y106.208 E940.8395
G0 F2400 X35.822 Y105.614
G1 F2400 X144.386 Y214.178 E948.8823
G0 F2400 X144.980 Y214.178
G1 F2400 X35.822 Y105.020 E956.9690
G0 F2400 X35.822 Y104.426
G1 F2400 X145.574 Y214.178 E965.0998
G0 F2400 X146.168 Y214.178
G1 F2400 X35.822 Y103.832 E973.2746
G0 F2400 X35.822 Y103.238
G1 F2400 X146.762 Y214.178 E981.4934
G0 F2400 X147.356 Y214.178
G1 F2400 X35.822 Y102.644 E989.7562
G0 F2400 X35.822 Y102.050
G1 F2400 X147.950 Y214.178 E998.0630
G0 F2400 X148.544 Y214.178
G1 F2400 X35.822 Y101.456 E1006.4138
G0 F2400 X35.822 Y100.862
G1 F2400 X149.138 Y214.178 E1014.8086
G0 F2400 X149.733 Y214.179
G1 F2400 X35.822 Y100.268 E1023.2475
G0 F2400 X35.822 Y99.674
G1 F2400 X150.327 Y214.179 E1031.7304
G0 F2400 X150.921 Y214.179
G1 F2400 X35.822 Y99.080 E1040.2573
G0 F2400 X35.822 Y98.486
G1 F2400 X151.515 Y214.179 E1048.8282
G0 F2400 X152.109 Y214.179
G1 F2400 X35.822 Y97.892 E1057.4431
G0 F2400 X35.822 Y97.298
G1 F2400 X152.703 Y214.179 E1066.1020
G0 F2400 X153.297 Y214.179
G1 F2400 X35.822 Y96.704 E1074.8049
G0 F2400 X35.822 Y96.110
G1 F2400 X153.891 Y214.179 E1083.5518
G0 F2400 X154.485 Y214.179
G1 F2400 X35.822 Y95.516 E1092.3428
G0 F2400 X35.822 Y94.922
G1 F2400 X155.079 Y214.179 E1101.1777
G0 F2400 X155.673 Y214.179
G1 F2400 X35.822 Y94.328 E1110.0567
G0 F2400 X35.822 Y93.734
G1 F2400 X156.267 Y214.179 E1118.9796
G0 F2400 X156.861 Y214.179
G1 F2400 X35.822 Y93.140 E1127.9466
G0 F2400 X35.822 Y92.546
G1 F2400 X157.455 Y214.179 E1136.9575
G0 F2400 X158.048 Y214.179
G1 F2400 X35.822 Y91.952 E1146.0124
G0 F2400 X35.822 Y91.358
G1 F2400 X158.642 Y214.179 E1155.1114
G0 F2400 X159.236 Y214.179
G1 F2400 X35.822 Y90.764 E1164.2543
G0 F2400 X35.822 Y90.170
G1 F2400 X159.830 Y214.179 E1173.4412
G0 F2400 X160.424 Y214.179
G1 F2400 X35.822 Y89.576 E1182.6722
G0 F2400 X35.822 Y88.983
G1 F2400 X161.018 Y214.179 E1191.9471
G0 F2400 X161.612 Y214.179
G1 F2400 X35.822 Y88.389 E1201.2660
G0 F2400 X35.956 Y87.928
G1 F2400 X162.065 Y214.037 E1210.6086
G0 F2400 X162.362 Y213.740
G1 F2400 X36.253 Y87.631 E1219.9511
G0 F2400 X36.550 Y87.334
G1 F2400 X162.659 Y213.443 E1229.2937
G0 F2400 X162.956 Y213.146
G1 F2400 X36.847 Y87.037 E1238.6363
G0 F2400 X37.144 Y86.740
G1 F2400 X163.253 Y212.849 E1247.9788
G0 F2400 X163.550 Y212.552
G1 F2400 X37.441 Y86.443 E1257.3214
G0 F2400 X37.738 Y86.146
G1 F2400 X163.847 Y212.255 E1266.6639
G0 F2400 X164.144 Y211.958
G1 F2400 X38.035 Y85.849 E1276.0065
G0 F2400 X38.332 Y85.552
G1 F2400 X164.441 Y211.661 E1285.3490
G0 F2400 X164.738 Y211.364
G1 F2400 X38.629 Y85.255 E1294.6916
G0 F2400 X38.926 Y84.958
G1 F2400 X165.035 Y211.067 E1304.0341
G0 F2400 X165.332 Y210.770
G1 F2400 X39.223 Y84.661 E1313.3767
G0 F2400 X39.520 Y84.364
G1 F2400 X165.629 Y210.473 E1322.7192
G0 F2400 X165.926 Y210.176
G1 F2400 X39.817 Y84.067 E1332.0618
G0 F2400 X40.114 Y83.770
G1 F2400 X166.223 Y209.879 E1341.4044
G0 F2400 X166.520 Y209.582
G1 F2400 X40.411 Y83.473 E1350.7469
G0 F2400 X40.708 Y83.177
G1 F2400 X166.817 Y209.285 E1360.0894
G0 F2400 X167.114 Y208.988
G1 F2400 X41.005 Y82.880 E1369.4319
G0 F2400 X41.302 Y82.583
G1 F2400 X167.411 Y208.691 E1378.7745
G0 F2400 X167.708 Y208.394
G1 F2400 X41.599 Y82.286 E1388.1170
G0 F2400 X41.896 Y81.989
G1 F2400 X168.005 Y208.097 E1397.4595
G0 F2400 X168.302 Y207.801
G1 F2400 X42.193 Y81.692 E1406.8021
G0 F2400 X42.490 Y81.395
G1 F2400 X168.599 Y207.504 E1416.1446
G0 F2400 X168.895 Y207.207
G1 F2400 X42.787 Y81.098 E1425.4871
G0 F2400 X43.084 Y80.801
G1 F2400 X169.192 Y206.910 E1434.8296
G0 F2400 X169.489 Y206.613
G1 F2400 X43.381 Y80.504 E1444.1722
G0 F2400 X43.678 Y80.207
G1 F2400 X169.786 Y206.316 E1453.5147
G0 F2400 X170.083 Y206.019
G1 F2400 X43.975 Y79.910 E1462.8572
G0 F2400 X44.272 Y79.613
G1 F2400 X170.380 Y205.722 E1472.1997
G0 F2400 X170.677 Y205.425
G1 F2400 X44.569 Y79.316 E1481.5422
G0 F2400 X44.866 Y79.019
G1 F2400 X170.974 Y205.128 E1490.8847
G0 F2400 X171.271 Y204.831
G1 F2400 X45.163 Y78.722 E1500.2273
G0 F2400 X45.461 Y78.426
G1 F2400 X171.568 Y204.534 E1509.5697
G0 F2400 X171.865 Y204.237
G1 F2400 X45.758 Y78.129 E1518.9122
G0 F2400 X46.055 Y77.832
G1 F2400 X172.162 Y203.940 E1528.2546
G0 F2400 X172.460 Y203.643
G1 F2400 X46.352 Y77.535 E1537.5971
G0 F2400 X46.649 Y77.238
G1 F2400 X172.757 Y203.346 E1546.9396
G0 F2400 X173.054 Y203.049
G1 F2400 X46.946 Y76.941 E1556.2820
G0 F2400 X47.243 Y76.644
G1 F2400 X173.351 Y202.752 E1565.6245
G0 F2400 X173.648 Y202.455
G1 F2400 X47.540 Y76.347 E1574.9670
G0 F2400 X47.837 Y76.050
G1 F2400 X173.945 Y202.159 E1584.3095
G0 F2400 X174.242 Y201.862
G1 F2400 X48.134 Y75.753 E1593.6520
G0 F2400 X48.431 Y75.456
G1 F2400 X174.539 Y201.565 E1602.9946
G0 F2400 X174.836 Y201.268
G1 F2400 X48.728 Y75.159 E1612.3371
G0 F2400 X49.025 Y74.862
G1 F2400 X175.133 Y200.971 E1621.6796
G0 F2400 X175.430 Y200.674
G1 F2400 X49.322 Y74.565 E1631.0221
G0 F2400 X49.619 Y74.268
G1 F2400 X175.727 Y200.377 E1640.3646
G0 F2400 X176.024 Y200.080
