;Sliced by ideaMaker 5.1.0.8435, 2024-08-30 06:56:56 UTC+0200
;Slicer Version: 5.1.0.8430
;Dimension: 250.000 250.000 250.000 0.400
;Plate Shape: 0
;Origin Center: 0
;Extruder Offset #1: 25.000 0.000
;Filament Diameter #1: 1.750
;Filament Diameter #2: 1.750
;Filament Compensation #1: 94.000
;Filament Compensation #2: 90.000
;Filament Density #1: 1240.000
;Filament Density #2: 1240.000
;Filament Type #1: PLA
;Filament Type #2: 
;Filament Name #1: [Raise3D] Premium PLA 1.75mm
;Filament Name #2: 
;Printer Type: floppy
;Firmware: Klipper
;Bounding Box: 104.000 146.000 109.000 141.000 0.000 2.650
;Model Gap: 0.000
M221 T0 S94.00
M140 S50.00
M104 T0 S200.00
M109 T0 S200.00
T0
M190 S50.00
G21 ;metric values
G90 ;absolute positioning
M82 ;set extruder to absolute mode
M107 ;start with the fan off
G28 X0 Y0 ;move X/Y to min endstops
G28 Z0 ;move Z to min endstops
G1 Z15.0 F9000 ;move the platform down 15mm
G92 E0 ;zero the extruded length
G1 F200 E12 ;extrude 15mm of feed stock
G92 E0 ;zero the extruded length again
G0 X12 Y17 F2000
G92 X0 Y0 E0
G0 F9000 Z1
G1 F200 Z0
G1 Z15.0 F9000 ;move the platform down 15mm
G1 F9000
G92 E-3
M117 Printing...
M1001
;TOTAL_NUM: 1
;PRINTING_TIME: 0
;REMAINING_TIME: 745
;LAYER:0
;Z:0.550
;HEIGHT:0.550
M106 S0
;PRINTING: tavtarto_??lmos.stl
;PRINTING_ID: 0
G1 F2400 E-3.0000
G0 F3900 X105.137 Y109.932
G0 F300 Z0.550
;TYPE:WALL-OUTER
;WIDTH:0.420
;FLOW:55.0
G1 F1500 E0.0000
G1 F2400 X105.782 Y109.498 E0.0411
G1 X106.959 Y109.214 E0.1050
G1 X142.976 Y109.210 E2.0075
G1 X144.106 Y109.447 E2.0685
G1 X144.772 Y109.853 E2.1097
G1 X145.503 Y110.789 E2.1724
G1 X145.785 Y111.958 E2.2359
G1 X145.790 Y137.976 E3.6102
G1 X145.553 Y139.106 E3.6712
G1 X145.147 Y139.772 E3.7124
G1 X144.211 Y140.503 E3.7751
G1 X143.042 Y140.785 E3.8387
G1 X107.024 Y140.790 E5.7412
G1 X105.894 Y140.553 E5.8022
G1 X105.228 Y140.147 E5.8434
G1 X104.497 Y139.211 E5.9061
G1 X104.215 Y138.042 E5.9696
G1 X104.210 Y112.024 E7.3439
G1 X104.445 Y110.901 E7.4045
G1 X105.137 Y109.932 E7.4674
G1 F2400 E4.4674
G0 F3900 X107.105 Y111.428
G1 F1500 E7.4674
G1 F2400 X106.689 Y112.150 E7.5114
G1 X106.537 Y113.039 E7.5591
G1 X106.830 Y114.165 E7.6205
G1 X107.354 Y114.833 E7.6654
G1 X108.440 Y115.399 E7.7301
G1 X109.289 Y115.447 E7.7750
G1 X110.431 Y115.006 E7.8396
G1 X111.021 Y114.406 E7.8841
G1 X111.373 Y113.653 E7.9280
G1 X111.457 Y112.815 E7.9725
G1 X111.064 Y111.656 E8.0371
G1 X110.490 Y111.040 E8.0816
G1 X109.752 Y110.656 E8.1255
G1 X108.920 Y110.538 E8.1699
G1 X107.744 Y110.880 E8.2346
G1 X107.105 Y111.428 E8.2791
G1 F2400 E5.2791
G0 F3900 X106.656 Y111.169
G0 X107.445 Y110.327
G0 X108.602 Y109.990
G0 X120.656 Y111.169
G0 X121.105 Y111.428
G1 F1500 E8.2791
G1 F2400 X120.689 Y112.150 E8.3231
G1 X120.537 Y113.039 E8.3707
G1 X120.830 Y114.165 E8.4322
G1 X121.354 Y114.833 E8.4770
G1 X122.440 Y115.399 E8.5417
G1 X123.289 Y115.447 E8.5866
G1 X124.431 Y115.006 E8.6513
G1 X125.021 Y114.406 E8.6958
G1 X125.373 Y113.653 E8.7397
G1 X125.457 Y112.815 E8.7842
G1 X125.064 Y111.656 E8.8488
G1 X124.490 Y111.040 E8.8933
G1 X123.752 Y110.656 E8.9372
G1 X122.920 Y110.538 E8.9816
G1 X121.744 Y110.880 E9.0463
G1 X121.105 Y111.428 E9.0908
G1 F2400 E6.0908
G0 F3900 X120.656 Y111.169
G0 X121.445 Y110.327
G0 X122.602 Y109.990
G0 X138.656 Y111.169
G0 X139.105 Y111.428
G1 F1500 E9.0908
G1 F2400 X138.689 Y112.150 E9.1348
G1 X138.537 Y113.039 E9.1824
G1 X138.830 Y114.165 E9.2439
G1 X139.354 Y114.833 E9.2887
G1 X140.440 Y115.399 E9.3534
G1 X141.289 Y115.447 E9.3983
G1 X142.431 Y115.006 E9.4630
G1 X143.021 Y114.406 E9.5074
G1 X143.373 Y113.653 E9.5513
G1 X143.457 Y112.815 E9.5958
G1 X143.064 Y111.656 E9.6605
G1 X142.490 Y111.040 E9.7049
G1 X141.752 Y110.656 E9.7489
G1 X140.920 Y110.538 E9.7933
G1 X139.744 Y110.880 E9.8580
G1 X139.105 Y111.428 E9.9024
G1 F2400 E6.9024
G0 F3900 X138.656 Y111.169
G0 X138.100 Y111.938
G0 X138.047 Y112.257
G0 X138.656 Y135.169
G0 X139.105 Y135.428
G1 F1500 E9.9024
G1 F2400 X138.689 Y136.150 E9.9464
G1 X138.537 Y137.039 E9.9941
G1 X138.830 Y138.165 E10.0555
G1 X139.354 Y138.833 E10.1004
G1 X140.440 Y139.399 E10.1651
G1 X141.289 Y139.447 E10.2100
G1 X142.431 Y139.006 E10.2746
G1 X143.021 Y138.406 E10.3191
G1 X143.373 Y137.653 E10.3630
G1 X143.457 Y136.815 E10.4075
G1 X143.064 Y135.656 E10.4721
G1 X142.490 Y135.040 E10.5166
G1 X141.752 Y134.656 E10.5605
G1 X140.920 Y134.538 E10.6049
G1 X139.744 Y134.880 E10.6696
G1 X139.105 Y135.428 E10.7141
G1 F2400 E7.7141
G0 F3900 X138.656 Y135.169
G0 X122.875 Y133.910
G0 X121.718 Y134.247
G0 X120.656 Y135.169
G0 X121.105 Y135.428
G1 F1500 E10.7141
G1 F2400 X120.689 Y136.150 E10.7581
G1 X120.537 Y137.039 E10.8057
G1 X120.830 Y138.165 E10.8672
G1 X121.354 Y138.833 E10.9120
G1 X122.440 Y139.399 E10.9767
G1 X123.289 Y139.447 E11.0217
G1 X124.431 Y139.006 E11.0863
G1 X125.021 Y138.406 E11.1308
G1 X125.373 Y137.653 E11.1747
G1 X125.457 Y136.815 E11.2192
G1 X125.064 Y135.656 E11.2838
G1 X124.490 Y135.040 E11.3283
G1 X123.752 Y134.656 E11.3722
G1 X122.920 Y134.538 E11.4166
G1 X121.744 Y134.880 E11.4813
G1 X121.105 Y135.428 E11.5258
G1 F2400 E8.5258
G0 F3900 X120.656 Y135.169
G0 X108.875 Y133.910
G0 X107.406 Y134.486
G0 X107.744 Y134.880
G1 F1500 E11.5258
G1 F2400 X107.105 Y135.428 E11.5702
G1 X106.689 Y136.150 E11.6142
G1 X106.537 Y137.039 E11.6619
G1 X106.830 Y138.165 E11.7233
G1 X107.354 Y138.833 E11.7682
G1 X108.440 Y139.399 E11.8329
G1 X109.289 Y139.447 E11.8778
G1 X110.431 Y139.006 E11.9424
G1 X111.021 Y138.406 E11.9869
G1 X111.373 Y137.653 E12.0308
G1 X111.457 Y136.815 E12.0753
G1 X111.064 Y135.656 E12.1399
G1 X110.490 Y135.040 E12.1844
G1 X109.752 Y134.656 E12.2284
G1 X108.920 Y134.538 E12.2727
G1 X107.744 Y134.880 E12.3374
G0 F3900 X107.540 Y134.502
;TYPE:WALL-INNER
;WIDTH:0.420
G1 F2400 X106.777 Y135.156 E12.3905
G1 X106.288 Y136.005 E12.4423
G1 X106.108 Y137.057 E12.4986
G1 X106.446 Y138.355 E12.5695
G1 X107.079 Y139.164 E12.6237
G1 X108.326 Y139.813 E12.6980
G1 X109.356 Y139.871 E12.7525
G1 X110.667 Y139.365 E12.8267
G1 X111.371 Y138.649 E12.8798
G1 X111.784 Y137.766 E12.9313
G1 X111.884 Y136.766 E12.9843
G1 X111.433 Y135.436 E13.0585
G1 X110.748 Y134.701 E13.1116
G1 X109.882 Y134.250 E13.1632
G1 X108.889 Y134.109 E13.2161
G1 X107.540 Y134.502 E13.2904
G0 F3900 X104.635 Y137.992
G1 F2400 X104.630 Y112.067 E14.6597
G1 X104.838 Y111.073 E14.7134
G1 X105.435 Y110.238 E14.7676
G1 X105.954 Y109.889 E14.8006
G1 X107.009 Y109.634 E14.8580
G1 X142.932 Y109.630 E16.7555
G1 X143.949 Y109.843 E16.8104
G1 X144.488 Y110.172 E16.8437
G1 X145.116 Y110.976 E16.8976
G1 X145.365 Y112.008 E16.9537
G1 X145.370 Y137.932 E18.3230
G1 X145.157 Y138.949 E18.3779
G1 X144.828 Y139.488 E18.4113
G1 X144.024 Y140.116 E18.4651
G1 X142.992 Y140.365 E18.5212
G1 X107.068 Y140.370 E20.4188
G1 X106.051 Y140.157 E20.4737
G1 X105.512 Y139.828 E20.5070
G1 X104.884 Y139.024 E20.5609
G1 X104.635 Y137.992 E20.6170
G1 F2400 E17.6170
G0 F3900 X104.735 Y137.982
G0 X108.274 Y140.005
G0 X108.903 Y140.039
G0 X120.014 Y137.091
G0 X120.108 Y137.057
G1 F1500 E20.6170
G1 F2400 X120.446 Y138.355 E20.6878
G1 X121.079 Y139.164 E20.7421
G1 X122.326 Y139.813 E20.8163
G1 X123.356 Y139.871 E20.8708
G1 X124.667 Y139.365 E20.9451
G1 X125.371 Y138.649 E20.9981
G1 X125.784 Y137.766 E21.0496
G1 X125.884 Y136.766 E21.1027
G1 X125.433 Y135.436 E21.1769
G1 X124.748 Y134.701 E21.2299
G1 X123.882 Y134.250 E21.2815
G1 X122.889 Y134.109 E21.3345
G1 X121.540 Y134.502 E21.4087
G1 X120.777 Y135.156 E21.4618
G1 X120.288 Y136.005 E21.5135
G1 X120.108 Y137.057 E21.5699
G1 F2400 E18.5699
G0 F3900 X120.014 Y137.091
G0 X120.267 Y138.443
G0 X120.952 Y139.317
G0 X122.274 Y140.005
G0 X122.588 Y140.022
G0 X138.014 Y137.091
G0 X138.108 Y137.057
G1 F1500 E21.5699
G1 F2400 X138.446 Y138.355 E21.6408
G1 X139.079 Y139.164 E21.6950
G1 X140.326 Y139.813 E21.7693
G1 X141.356 Y139.871 E21.8238
G1 X142.667 Y139.365 E21.8980
G1 X143.371 Y138.649 E21.9510
G1 X143.784 Y137.766 E22.0025
G1 X143.884 Y136.766 E22.0556
G1 X143.433 Y135.436 E22.1298
G1 X142.748 Y134.701 E22.1829
G1 X141.882 Y134.250 E22.2344
G1 X140.889 Y134.109 E22.2874
G1 X139.540 Y134.502 E22.3616
G1 X138.777 Y135.156 E22.4147
G1 X138.288 Y136.005 E22.4665
G1 X138.108 Y137.057 E22.5228
G1 F2400 E19.5228
G0 F3900 X138.014 Y137.091
G0 X140.330 Y115.912
G0 X140.326 Y115.813
G1 F1500 E22.5228
G1 F2400 X141.356 Y115.871 E22.5773
G1 X142.667 Y115.365 E22.6515
G1 X143.371 Y114.649 E22.7046
G1 X143.784 Y113.766 E22.7561
G1 X143.884 Y112.766 E22.8092
G1 X143.433 Y111.436 E22.8833
G1 X142.748 Y110.701 E22.9364
G1 X141.882 Y110.250 E22.9880
G1 X140.889 Y110.109 E23.0410
G1 X139.540 Y110.502 E23.1152
G1 X138.777 Y111.156 E23.1683
G1 X138.288 Y112.005 E23.2200
G1 X138.108 Y113.057 E23.2764
G1 X138.446 Y114.355 E23.3472
G1 X139.079 Y115.164 E23.4015
G1 X140.326 Y115.813 E23.4758
G1 F2400 E20.4758
G0 F3900 X140.330 Y115.912
G0 X125.883 Y113.766
G0 X125.784 Y113.766
G1 F1500 E23.4758
G1 F2400 X125.884 Y112.766 E23.5288
G1 X125.433 Y111.436 E23.6030
G1 X124.748 Y110.701 E23.6561
G1 X123.882 Y110.250 E23.7077
G1 X122.889 Y110.109 E23.7606
G1 X121.540 Y110.502 E23.8349
G1 X120.777 Y111.156 E23.8879
G1 X120.288 Y112.005 E23.9397
G1 X120.108 Y113.057 E23.9961
G1 X120.446 Y114.355 E24.0669
G1 X121.079 Y115.164 E24.1212
G1 X122.326 Y115.813 E24.1954
G1 X123.356 Y115.871 E24.2499
G1 X124.667 Y115.365 E24.3242
G1 X125.371 Y114.649 E24.3772
G1 X125.784 Y113.766 E24.4287
G1 F2400 E21.4287
G0 F3900 X125.883 Y113.766
G0 X125.535 Y114.763
G0 X124.776 Y115.532
G0 X123.387 Y116.068
G0 X123.073 Y116.051
G0 X111.975 Y112.725
G0 X111.884 Y112.766
G1 F1500 E24.4287
G1 F2400 X111.433 Y111.436 E24.5029
G1 X110.748 Y110.701 E24.5559
G1 X109.882 Y110.250 E24.6075
G1 X108.889 Y110.109 E24.6605
G1 X107.540 Y110.502 E24.7347
G1 X106.777 Y111.156 E24.7878
G1 X106.288 Y112.005 E24.8395
G1 X106.108 Y113.057 E24.8959
G1 X106.446 Y114.355 E24.9668
G1 X107.079 Y115.164 E25.0210
G1 X108.326 Y115.813 E25.0953
G1 X109.356 Y115.871 E25.1498
G1 X110.667 Y115.365 E25.2240
G1 X111.371 Y114.649 E25.2770
G1 X111.784 Y113.766 E25.3285
G1 X111.884 Y112.766 E25.3816
G1 F2400 E22.3816
G0 F3900 X111.975 Y112.725
G0 X111.975 Y113.344
G0 X104.955 Y138.514
;TYPE:SOLID-FILL
;WIDTH:0.420
G1 F1500 E25.3816
G1 F2400 X106.464 Y140.023 E25.4943
G0 F2400 X107.149 Y140.114
G1 F2400 X104.822 Y137.788 E25.6681
G0 F2400 X104.822 Y137.194
G1 F2400 X107.685 Y140.056 E25.8820
G0 F3900 X110.305 Y139.707
G1 F2400 X110.778 Y140.179 E25.9173
G0 F2400 X111.372 Y140.179
G1 F2400 X110.733 Y139.541 E25.9649
G0 F2400 X111.039 Y139.253
G1 F2400 X111.966 Y140.179 E26.0342
G0 F2400 X112.560 Y140.179
G1 F2400 X111.334 Y138.954 E26.1257
G0 F2400 X111.593 Y138.619
G1 F2400 X113.154 Y140.179 E26.2423
G0 F2400 X113.748 Y140.179
G1 F2400 X111.782 Y138.213 E26.3891
G0 F2400 X111.968 Y137.806
G1 F2400 X114.341 Y140.178 E26.5664
G0 F2400 X114.935 Y140.178
G1 F2400 X112.023 Y137.267 E26.7839
G0 F2400 X112.066 Y136.716
G1 F2400 X115.529 Y140.178 E27.0425
G0 F2400 X116.123 Y140.178
G1 F2400 X111.761 Y135.816 E27.3683
G0 F3900 X110.087 Y134.143
G1 F2400 X104.821 Y128.877 E27.7617
G0 F2400 X104.821 Y129.471
G1 F2400 X109.330 Y133.980 E28.0985
G0 F2400 X108.717 Y133.961
G1 F2400 X104.821 Y130.065 E28.3896
G0 F2400 X104.822 Y130.659
G1 F2400 X108.257 Y134.095 E28.6462
G0 F2400 X107.797 Y134.229
G1 F2400 X104.822 Y131.253 E28.8685
G0 F2400 X104.822 Y131.847
G1 F2400 X107.371 Y134.396 E29.0589
G0 F2400 X107.051 Y134.670
G1 F2400 X104.822 Y132.441 E29.2254
G0 F2400 X104.822 Y133.035
G1 F2400 X106.731 Y134.944 E29.3680
G0 F2400 X106.481 Y135.289
G1 F2400 X104.822 Y133.629 E29.4920
G0 F2400 X104.822 Y134.223
G1 F2400 X106.264 Y135.665 E29.5997
G0 F2400 X106.083 Y136.079
G1 F2400 X104.822 Y134.818 E29.6939
G0 F2400 X104.822 Y135.412
G1 F2400 X105.997 Y136.586 E29.7816
G0 F2400 X105.927 Y137.110
G1 F2400 X104.822 Y136.006 E29.8641
G0 F2400 X104.822 Y136.600
G1 F2400 X106.135 Y137.912 E29.9622
G1 F2400 E26.9622
G0 F3900 X104.821 Y128.283
G1 F1500 E29.9622
G1 F2400 X116.717 Y140.178 E30.8508
G0 F2400 X117.311 Y140.178
G1 F2400 X104.821 Y127.689 E31.7837
G0 F2400 X104.821 Y127.095
G1 F2400 X117.904 Y140.178 E32.7611
G0 F2400 X118.498 Y140.178
G1 F2400 X104.820 Y126.500 E33.7828
G0 F2400 X104.820 Y125.906
G1 F2400 X119.092 Y140.178 E34.8489
G0 F2400 X119.686 Y140.178
G1 F2400 X104.820 Y125.312 E35.9594
G0 F2400 X104.820 Y124.718
G1 F2400 X120.280 Y140.178 E37.1143
G0 F2400 X120.874 Y140.178
G1 F2400 X104.820 Y124.124 E38.3135
G0 F2400 X104.820 Y123.530
G1 F2400 X121.468 Y140.178 E39.5572
G0 F2400 X121.731 Y139.848
G1 F2400 X121.457 Y139.573 E39.5777
G0 F3900 X120.254 Y138.370
G1 F2400 X104.820 Y122.936 E40.7306
G0 F2400 X104.820 Y122.342
G1 F2400 X120.045 Y137.567 E41.8679
G0 F2400 X119.947 Y136.876
G1 F2400 X104.820 Y121.748 E42.9979
G0 F2400 X104.820 Y121.154
G1 F2400 X120.034 Y136.369 E44.1345
G0 F2400 X120.140 Y135.881
G1 F2400 X104.820 Y120.560 E45.2789
G0 F2400 X104.820 Y119.966
G1 F2400 X120.358 Y135.504 E46.4396
G0 F2400 X120.575 Y135.127
G1 F2400 X104.819 Y119.371 E47.6166
G0 F2400 X104.819 Y118.777
G1 F2400 X120.869 Y134.827 E48.8155
G0 F2400 X121.188 Y134.553
G1 F2400 X104.819 Y118.183 E50.0384
G0 F2400 X104.819 Y117.589
G1 F2400 X121.535 Y134.305 E51.2870
G0 F2400 X121.995 Y134.172
G1 F2400 X104.819 Y116.995 E52.5701
G0 F2400 X104.819 Y116.401
G1 F2400 X122.455 Y134.037 E53.8876
G0 F2400 X122.936 Y133.924
G1 F2400 X104.819 Y115.807 E55.2409
G0 F2400 X104.818 Y115.213
G1 F2400 X123.627 Y134.021 E56.6459
G0 F2400 X124.619 Y134.419
G1 F2400 X104.818 Y114.619 E58.1250
G0 F2400 X104.818 Y114.025
G1 F2400 X130.970 Y140.176 E60.0786
G0 F2400 X130.376 Y140.176
G1 F2400 X125.630 Y135.431 E60.4330
G0 F2400 X125.935 Y136.329
G1 F2400 X129.782 Y140.176 E60.7204
G0 F2400 X129.188 Y140.176
G1 F2400 X126.046 Y137.034 E60.9551
G0 F2400 X125.991 Y137.573
G1 F2400 X128.594 Y140.176 E61.1496
G0 F2400 X128.001 Y140.177
G1 F2400 X125.863 Y138.039 E61.3093
G0 F2400 X125.674 Y138.445
G1 F2400 X127.407 Y140.177 E61.4387
G0 F2400 X126.813 Y140.177
G1 F2400 X125.461 Y138.825 E61.5397
G0 F2400 X125.167 Y139.125
G1 F2400 X126.219 Y140.177 E61.6183
G0 F2400 X125.625 Y140.177
G1 F2400 X124.872 Y139.424 E61.6745
G0 F2400 X124.489 Y139.635
;WIDTH:0.541
G1 F2400 X124.734 Y140.177 E61.7150
;WIDTH:0.420
G1 X124.310 Y140.050 E61.7384
G1 F2400 E58.7384
G0 F3900 X131.564 Y140.176
G1 F1500 E61.7384
G1 F2400 X104.818 Y113.431 E63.7363
G0 F2400 X104.818 Y112.837
G1 F2400 X106.220 Y114.239 E63.8410
G0 F2400 X106.011 Y113.436
G1 F2400 X104.818 Y112.243 E63.9301
G0 F2400 X104.893 Y111.724
G1 F2400 X105.962 Y112.792 E64.0099
G0 F2400 X106.049 Y112.285
G1 F2400 X104.996 Y111.233 E64.0886
G0 F2400 X105.219 Y110.862
G1 F2400 X106.176 Y111.819 E64.1601
G0 F2400 X106.393 Y111.442
G1 F2400 X105.467 Y110.516 E64.2292
G0 F2400 X105.779 Y110.234
G1 F2400 X106.611 Y111.065 E64.2913
G0 F2400 X106.938 Y110.799
G1 F2400 X106.179 Y110.039 E64.3481
G0 F2400 X106.692 Y109.959
;WIDTH:0.393
G1 F2400 X107.445 Y110.415 E64.3916
;WIDTH:0.420
G1 X107.205 Y109.878 E64.4227
G0 F3900 X110.375 Y110.078
G1 F2400 X110.824 Y110.527 E64.4562
G0 F2400 X111.128 Y110.831
G1 F2400 X138.108 Y137.811 E66.4716
G0 F2400 X137.921 Y137.030
G1 F2400 X110.714 Y109.823 E68.5040
G0 F2400 X111.308 Y109.823
G1 F2400 X138.008 Y136.523 E70.4985
G0 F2400 X138.094 Y136.015
G1 F2400 X111.902 Y109.823 E72.4551
G0 F2400 X112.496 Y109.823
G1 F2400 X138.291 Y135.618 E74.3820
G0 F2400 X138.508 Y135.241
G1 F2400 X113.090 Y109.823 E76.2807
G0 F2400 X113.683 Y109.822
G1 F2400 X138.771 Y134.910 E78.1548
G0 F2400 X139.091 Y134.636
G1 F2400 X114.277 Y109.822 E80.0084
G0 F2400 X114.871 Y109.822
G1 F2400 X139.411 Y134.363 E81.8416
G0 F2400 X139.855 Y134.213
G1 F2400 X120.954 Y115.312 E83.2535
G1 X115.465 Y109.822 E83.6636
G0 F2400 X116.058 Y109.822
G1 F2400 X120.129 Y113.892 E83.9676
G0 F2400 X119.921 Y113.090
G1 F2400 X116.652 Y109.822 E84.2118
G0 F2400 X117.246 Y109.822
G1 F2400 X119.998 Y112.574 E84.4174
G0 F2400 X120.085 Y112.066
G1 F2400 X117.840 Y109.822 E84.5850
G0 F2400 X118.434 Y109.822
G1 F2400 X120.269 Y111.657 E84.7221
G0 F2400 X120.486 Y111.280
G1 F2400 X119.027 Y109.821 E84.8311
G0 F2400 X119.621 Y109.821
